(1001)
(T1  D=10. CR=0. - ZMIN=-22. - FLAT END MILL)
G90 G94 G91.1 G40 G49 G17
G21

(2D POCKET4 2)
M5
M9
T1 M6
S9700 M3
G54
M8
G0 X55.1 Y29.8
G43 Z10. H1
Z5.
G1 Z-22. F2328.
G3 X55.6 I0.25 J0.
X54.6 I-0.5 J0.
X57.1 I1.25 J0.
X53.1 I-2. J0.
X58.6 I2.75 J0.
X51.6 I-3.5 J0.
X60.1 I4.25 J0.
X50.1 I-5. J0.
X61.6 I5.75 J0.
X48.6 I-6.5 J0.
X63.1 I7.25 J0.
X47.1 I-8. J0.
X63.1 I8. J0.
X63.067 Y30.056 Z-21.966 I-1. J0.
G1 X63.029 Y30.17 Z-21.916
X62.978 Y30.279 Z-21.866
X62.923 Y30.368 Z-21.787
X62.86 Y30.45 Z-21.707
X62.806 Y30.508 Z-21.604
X62.748 Y30.562 Z-21.5
X62.669 Y30.623 Z-21.259
X62.64 Y30.641 Z-21.
G0 Z10.

M9
M30
