(1001)
(T1  D=10. CR=0. - ZMIN=-18. - FLAT END MILL)
G90 G94 G91.1 G40 G49 G17
G21

(2D POCKET3 4)
M5
M9
T1 M6
S9700 M3
G54
M8
G0 X55.1 Y29.8
G43 Z10. H1
Z5.
G1 Z-2.6 F2328.
G2 X55.6 I0.25 J0.
G3 X56.1 I0.25 J0.
X54.1 I-1. J0.
X57.6 I1.75 J0.
X52.6 I-2.5 J0.
X59.1 I3.25 J0.
X51.1 I-4. J0.
X60.6 I4.75 J0.
X49.6 I-5.5 J0.
X62.1 I6.25 J0.
X48.1 I-7. J0.
X63.6 I7.75 J0.
X46.6 I-8.5 J0.
X65.1 I9.25 J0.
X45.1 I-10. J0.
X65.1 I10. J0.
X64.544 Y30.297 I-0.5 J0.
G1 X60.156 Y29.803
X60.1 Y29.8
X60.044 Y29.803
X55.656 Y30.297
G3 X55.1 Y29.8 I-0.056 J-0.497
G1 Z-5.2
X55.431 Y29.917
X55.47 Y29.925
X55.51 Y29.92
X55.546 Y29.903
X55.575 Y29.875
X55.594 Y29.84
X55.6 Y29.8
G3 X56.1 I0.25 J0.
X54.1 I-1. J0.
X57.6 I1.75 J0.
X52.6 I-2.5 J0.
X59.1 I3.25 J0.
X51.1 I-4. J0.
X60.6 I4.75 J0.
X49.6 I-5.5 J0.
X62.1 I6.25 J0.
X48.1 I-7. J0.
X63.6 I7.75 J0.
X46.6 I-8.5 J0.
X65.1 I9.25 J0.
X45.1 I-10. J0.
X65.1 I10. J0.
X64.544 Y30.297 I-0.5 J0.
G1 X60.156 Y29.803
X60.1 Y29.8
X60.044 Y29.803
X55.656 Y30.297
G3 X55.1 Y29.8 I-0.056 J-0.497
G1 Z-7.8
X55.431 Y29.917
X55.47 Y29.925
X55.51 Y29.92
X55.546 Y29.903
X55.575 Y29.875
X55.594 Y29.84
X55.6 Y29.8
G3 X56.1 I0.25 J0.
X54.1 I-1. J0.
X57.6 I1.75 J0.
X52.6 I-2.5 J0.
X59.1 I3.25 J0.
X51.1 I-4. J0.
X60.6 I4.75 J0.
X49.6 I-5.5 J0.
X62.1 I6.25 J0.
X48.1 I-7. J0.
X63.6 I7.75 J0.
X46.6 I-8.5 J0.
X65.1 I9.25 J0.
X45.1 I-10. J0.
X65.1 I10. J0.
X64.544 Y30.297 I-0.5 J0.
G1 X60.156 Y29.803
X60.1 Y29.8
X60.044 Y29.803
X55.656 Y30.297
G3 X55.1 Y29.8 I-0.056 J-0.497
G1 Z-10.4
X55.431 Y29.917
X55.47 Y29.925
X55.51 Y29.92
X55.546 Y29.903
X55.575 Y29.875
X55.594 Y29.84
X55.6 Y29.8
G3 X56.1 I0.25 J0.
X54.1 I-1. J0.
X57.6 I1.75 J0.
X52.6 I-2.5 J0.
X59.1 I3.25 J0.
X51.1 I-4. J0.
X60.6 I4.75 J0.
X49.6 I-5.5 J0.
X62.1 I6.25 J0.
X48.1 I-7. J0.
X63.6 I7.75 J0.
X46.6 I-8.5 J0.
X65.1 I9.25 J0.
X45.1 I-10. J0.
X65.1 I10. J0.
X64.544 Y30.297 I-0.5 J0.
G1 X60.156 Y29.803
X60.1 Y29.8
X60.044 Y29.803
X55.656 Y30.297
G3 X55.1 Y29.8 I-0.056 J-0.497
G1 Z-13.
X55.431 Y29.917
X55.47 Y29.925
X55.51 Y29.92
X55.546 Y29.903
X55.575 Y29.875
X55.594 Y29.84
X55.6 Y29.8
G3 X56.1 I0.25 J0.
X54.1 I-1. J0.
X57.6 I1.75 J0.
X52.6 I-2.5 J0.
X59.1 I3.25 J0.
X51.1 I-4. J0.
X60.6 I4.75 J0.
X49.6 I-5.5 J0.
X62.1 I6.25 J0.
X48.1 I-7. J0.
X63.6 I7.75 J0.
X46.6 I-8.5 J0.
X65.1 I9.25 J0.
X45.1 I-10. J0.
X65.1 I10. J0.
X64.544 Y30.297 I-0.5 J0.
G1 X60.156 Y29.803
X60.1 Y29.8
X60.044 Y29.803
X55.656 Y30.297
G3 X55.1 Y29.8 I-0.056 J-0.497
G1 Z-15.6
X55.431 Y29.917
X55.47 Y29.925
X55.51 Y29.92
X55.546 Y29.903
X55.575 Y29.875
X55.594 Y29.84
X55.6 Y29.8
G3 X56.1 I0.25 J0.
X54.1 I-1. J0.
X57.6 I1.75 J0.
X52.6 I-2.5 J0.
X59.1 I3.25 J0.
X51.1 I-4. J0.
X60.6 I4.75 J0.
X49.6 I-5.5 J0.
X62.1 I6.25 J0.
X48.1 I-7. J0.
X63.6 I7.75 J0.
X46.6 I-8.5 J0.
X65.1 I9.25 J0.
X45.1 I-10. J0.
X65.1 I10. J0.
X64.544 Y30.297 I-0.5 J0.
G1 X60.156 Y29.803
X60.1 Y29.8
X60.044 Y29.803
X55.656 Y30.297
G3 X55.1 Y29.8 I-0.056 J-0.497
G1 Z-18.
X55.431 Y29.917
X55.47 Y29.925
X55.51 Y29.92
X55.546 Y29.903
X55.575 Y29.875
X55.594 Y29.84
X55.6 Y29.8
G3 X56.1 I0.25 J0.
X54.1 I-1. J0.
X57.6 I1.75 J0.
X52.6 I-2.5 J0.
X59.1 I3.25 J0.
X51.1 I-4. J0.
X60.6 I4.75 J0.
X49.6 I-5.5 J0.
X62.1 I6.25 J0.
X48.1 I-7. J0.
X63.6 I7.75 J0.
X46.6 I-8.5 J0.
X65.1 I9.25 J0.
X45.1 I-10. J0.
X65.1 I10. J0.
X65.067 Y30.056 Z-17.966 I-1. J0.
G1 X65.029 Y30.17 Z-17.916
X64.978 Y30.279 Z-17.866
X64.923 Y30.368 Z-17.787
X64.86 Y30.45 Z-17.707
X64.806 Y30.508 Z-17.604
X64.748 Y30.562 Z-17.5
X64.669 Y30.623 Z-17.259
X64.64 Y30.641 Z-17.
G0 Z10.

M9
M30
