(1001)
(T4  D=10. CR=0. - ZMIN=-12. - FLAT END MILL)
G90 G94 G91.1 G40 G49 G17
G21

(2D ADAPTIVE1)
M5
M9
T4 M6
S9700 M3
G54
M8
G0 X0. Y0.
G43 Z15. H4
Z5.
Z3.5
G1 Z2.5 F2328.
Z-1.
Y0.075
X-0.037 Y0.078
X-0.071 Y0.061
X-0.093 Y0.03
X-0.1 Y-0.006
X-0.093 Y-0.043
X-0.072 Y-0.075
X-0.042 Y-0.096
X-0.006 Y-0.106
X0.032 Y-0.102
X0.065 Y-0.085
X0.091 Y-0.057
X0.105 Y-0.023
X0.109 Y0.015
X0.103 Y0.052
X0.087 Y0.086
X0.063 Y0.114
X0.031 Y0.134
X-0.005 Y0.145
X-0.042
X-0.079 Y0.136
X-0.144 Y0.1
X-0.185 Y0.036
X-0.194 Y-0.038
X-0.172 Y-0.11
X-0.125 Y-0.168
X-0.059 Y-0.205
X0.015 Y-0.215
X0.088 Y-0.199
X0.152 Y-0.159
X0.199 Y-0.101
X0.226 Y-0.031
X0.23 Y0.044
X0.212 Y0.117
X0.174 Y0.182
X0.119 Y0.232
X0.051 Y0.265
X-0.022 Y0.28
X-0.097 Y0.274
X-0.169 Y0.251
X-0.293 Y0.168
X-0.363 Y0.035
X-0.368 Y-0.115
X-0.311 Y-0.253
X-0.204 Y-0.359
X-0.065 Y-0.416
X0.085 Y-0.42
X0.226 Y-0.371
X0.343 Y-0.277
X0.424 Y-0.15
X0.459 Y-0.004
X0.448 Y0.145
X0.39 Y0.284
X0.294 Y0.399
X0.169 Y0.481
X0.025 Y0.524
X-0.125 Y0.529
X-0.27 Y0.493
X-0.403 Y0.422
X-0.511 Y0.319
X-0.591 Y0.192
X-0.637 Y0.049
X-0.646 Y-0.101
X-0.621 Y-0.249
X-0.562 Y-0.386
X-0.473 Y-0.507
X-0.36 Y-0.606
X-0.227 Y-0.675
X-0.083 Y-0.717
X0.067 Y-0.727
X0.215 Y-0.705
X0.357 Y-0.654
X0.484 Y-0.576
X0.595 Y-0.474
X0.683 Y-0.353
X0.746 Y-0.216
X0.783 Y-0.071
X0.791 Y0.079
X0.771 Y0.227
X0.726 Y0.37
X0.654 Y0.502
X0.56 Y0.619
X0.448 Y0.719
X0.32 Y0.797
X0.181 Y0.854
X0.035 Y0.886
X-0.115 Y0.893
X-0.264 Y0.877
X-0.409 Y0.836
X-0.545 Y0.773
X-0.669 Y0.69
X-0.779 Y0.587
X-0.872 Y0.469
X-0.946 Y0.339
X-0.998 Y0.199
X-1.03 Y0.052
X-1.04 Y-0.098
X-1.027 Y-0.247
X-0.993 Y-0.393
X-0.938 Y-0.533
X-0.864 Y-0.663
X-0.773 Y-0.783
X-0.666 Y-0.888
X-0.545 Y-0.977
X-0.414 Y-1.049
X-0.274 Y-1.103
X-0.128 Y-1.137
X0.022 Y-1.152
X0.171 Y-1.148
X0.32 Y-1.124
X0.463 Y-1.081
X0.6 Y-1.02
X0.729 Y-0.942
X0.846 Y-0.849
X0.951 Y-0.742
X1.042 Y-0.622
X1.118 Y-0.493
X1.177 Y-0.355
X1.219 Y-0.211
X1.244 Y-0.063
X1.251 Y0.087
X1.24 Y0.236
X1.211 Y0.384
X1.166 Y0.526
X1.105 Y0.663
X1.028 Y0.792
X0.937 Y0.912
X0.834 Y1.02
X0.719 Y1.117
X0.594 Y1.2
X0.461 Y1.269
X0.321 Y1.323
X0.176 Y1.361
X0.027 Y1.383
X-0.122 Y1.39
X-0.272 Y1.381
X-0.42 Y1.356
X-0.564 Y1.315
X-0.704 Y1.26
X-0.837 Y1.191
X-0.962 Y1.108
X-1.078 Y1.013
X-1.184 Y0.907
X-1.279 Y0.79
X-1.361 Y0.665
X-1.43 Y0.532
X-1.486 Y0.393
X-1.529 Y0.249
X-1.556 Y0.101
X-1.569 Y-0.048
X-1.568 Y-0.198
X-1.553 Y-0.347
X-1.523 Y-0.494
X-1.479 Y-0.638
X-1.422 Y-0.776
X-1.352 Y-0.909
X-1.271 Y-1.035
X-1.178 Y-1.153
X-1.074 Y-1.261
X-0.961 Y-1.36
X-0.84 Y-1.448
X-0.711 Y-1.524
X-0.575 Y-1.589
X-0.435 Y-1.641
X-0.29 Y-1.681
X-0.142 Y-1.707
X0.007 Y-1.721
X0.157
X0.307 Y-1.708
X0.454 Y-1.682
X0.599 Y-1.644
X0.741 Y-1.593
X0.877 Y-1.531
X1.007 Y-1.457
X1.131 Y-1.372
X1.247 Y-1.277
X1.355 Y-1.173
X1.454 Y-1.06
X1.543 Y-0.939
X1.622 Y-0.811
X1.69 Y-0.678
X1.746 Y-0.539
X1.792 Y-0.396
X1.825 Y-0.25
X1.846 Y-0.101
X1.856 Y0.049
X1.854 Y0.199
X1.839 Y0.348
X1.813 Y0.496
X1.775 Y0.641
X1.727 Y0.783
X1.667 Y0.92
X1.596 Y1.053
X1.516 Y1.179
X1.426 Y1.299
X1.327 Y1.412
X1.22 Y1.517
X1.105 Y1.613
X0.983 Y1.701
X0.855 Y1.779
X0.721 Y1.847
X0.583 Y1.905
X0.441 Y1.953
X0.295 Y1.99
X0.148 Y2.016
X-0.002 Y2.031
X-0.152 Y2.035
X-0.301 Y2.028
X-0.45 Y2.01
X-0.598 Y1.982
X-0.743 Y1.943
X-0.884 Y1.894
X-1.022 Y1.835
X-1.155 Y1.766
X-1.283 Y1.688
X-1.405 Y1.601
X-1.521 Y1.505
X-1.63 Y1.402
X-1.731 Y1.291
X-1.825 Y1.174
X-1.91 Y1.05
X-1.986 Y0.921
X-2.053 Y0.787
X-2.111 Y0.648
X-2.159 Y0.506
X-2.197 Y0.361
X-2.226 Y0.214
X-2.244 Y0.065
X-2.253 Y-0.085
X-2.251 Y-0.235
X-2.239 Y-0.384
X-2.218 Y-0.533
X-2.186 Y-0.679
X-2.145 Y-0.823
X-2.095 Y-0.965
X-2.035 Y-1.102
X-1.966 Y-1.236
X-1.889 Y-1.365
X-1.804 Y-1.488
X-1.711 Y-1.606
X-1.611 Y-1.717
X-1.503 Y-1.822
X-1.389 Y-1.919
X-1.269 Y-2.009
X-1.144 Y-2.092
X-1.014 Y-2.166
X-0.879 Y-2.232
X-0.74 Y-2.289
X-0.598 Y-2.338
X-0.454 Y-2.377
X-0.307 Y-2.407
X-0.158 Y-2.429
X-0.009 Y-2.44
X0.141 Y-2.443
X0.291 Y-2.436
X0.44 Y-2.421
X0.588 Y-2.396
X0.734 Y-2.362
X0.878 Y-2.319
X1.019 Y-2.268
X1.157 Y-2.208
X1.29 Y-2.14
X1.42 Y-2.065
X1.545 Y-1.981
X1.664 Y-1.891
X1.778 Y-1.793
X1.886 Y-1.689
X1.987 Y-1.578
X2.082 Y-1.462
X2.17 Y-1.34
X2.25 Y-1.214
X2.323 Y-1.083
X2.388 Y-0.948
X2.446 Y-0.809
X2.495 Y-0.667
X2.536 Y-0.523
X2.568 Y-0.376
X2.592 Y-0.228
X2.608 Y-0.079
X2.615 Y0.071
X2.613 Y0.221
X2.603 Y0.37
X2.584 Y0.519
X2.557 Y0.667
X2.522 Y0.813
X2.479 Y0.956
X2.428 Y1.097
X2.368 Y1.235
X2.302 Y1.369
X2.228 Y1.5
X2.147 Y1.626
X2.059 Y1.747
X1.964 Y1.864
X1.864 Y1.975
X1.757 Y2.081
X1.645 Y2.18
X1.527 Y2.273
X1.405 Y2.36
X1.278 Y2.44
X1.147 Y2.513
X1.012 Y2.579
X0.874 Y2.637
X0.733 Y2.688
X0.589 Y2.731
X0.443 Y2.767
X0.296 Y2.795
X0.147 Y2.815
X-0.002 Y2.827
X-0.152 Y2.831
X-0.302 Y2.828
X-0.452 Y2.816
X-0.6 Y2.797
X-0.748 Y2.77
X-0.894 Y2.735
X-1.038 Y2.693
X-1.179 Y2.643
X-1.318 Y2.586
X-1.454 Y2.522
X-1.586 Y2.451
X-1.714 Y2.373
X-1.838 Y2.289
X-1.958 Y2.199
X-2.073 Y2.103
X-2.183 Y2.001
X-2.288 Y1.893
X-2.387 Y1.78
X-2.48 Y1.663
X-2.567 Y1.541
X-2.648 Y1.415
X-2.723 Y1.285
X-2.791 Y1.151
X-2.852 Y1.014
X-2.906 Y0.874
X-2.954 Y0.732
X-2.994 Y0.587
X-3.027 Y0.441
X-3.053 Y0.293
X-3.071 Y0.144
X-3.082 Y-0.005
X-3.086 Y-0.155
X-3.082 Y-0.307
X-3.072 Y-0.456
X-3.053 Y-0.605
X-3.028 Y-0.754
X-2.995 Y-0.903
X-2.955 Y-1.049
X-2.908 Y-1.192
X-2.854 Y-1.334
X-2.792 Y-1.475
X-2.723 Y-1.612
X-2.649 Y-1.745
X-2.568 Y-1.874
X-2.479 Y-2.002
X-2.384 Y-2.125
X-2.285 Y-2.242
X-2.18 Y-2.354
X-2.067 Y-2.462
X-1.949 Y-2.565
X-1.827 Y-2.662
X-1.701 Y-2.752
X-1.57 Y-2.837
X-1.432 Y-2.917
X-1.292 Y-2.989
X-1.149 Y-3.054
X-1.003 Y-3.112
X-0.853 Y-3.163
X-0.699 Y-3.208
X-0.544 Y-3.245
X-0.388 Y-3.274
X-0.231 Y-3.295
X-0.07 Y-3.309
X0.091 Y-3.315
X0.253 Y-3.313
X0.413 Y-3.303
X0.572 Y-3.286
X0.733 Y-3.261
X0.893 Y-3.227
X1.051 Y-3.186
X1.206 Y-3.138
X1.358 Y-3.082
X1.509 Y-3.018
X1.658 Y-2.946
X1.803 Y-2.867
X1.943 Y-2.782
X2.08 Y-2.689
X2.211 Y-2.59
X2.339 Y-2.484
X2.463 Y-2.371
X2.58 Y-2.253
X2.692 Y-2.128
X2.797 Y-1.999
X2.896 Y-1.865
X2.989 Y-1.725
X3.076 Y-1.579
X3.156 Y-1.429
X3.228 Y-1.276
X3.292 Y-1.12
X3.349 Y-0.96
X3.398 Y-0.798
X3.44 Y-0.632
X3.473 Y-0.463
X3.499 Y-0.293
X3.516 Y-0.122
X3.524 Y0.05
X3.525 Y0.222
X3.517 Y0.394
X3.5 Y0.566
X3.475 Y0.739
X3.442 Y0.911
X3.4 Y1.08
X3.35 Y1.248
X3.291 Y1.413
X3.225 Y1.576
X3.151 Y1.734
X3.069 Y1.89
X2.979 Y2.042
X2.882 Y2.191
X2.776 Y2.334
X2.664 Y2.473
X2.545 Y2.606
X2.42 Y2.734
X2.289 Y2.855
X2.151 Y2.97
X2.008 Y3.078
X1.86 Y3.179
X1.706 Y3.274
X1.548 Y3.361
X1.384 Y3.44
X1.216 Y3.512
X1.045 Y3.576
X0.871 Y3.631
X0.694 Y3.678
X0.515 Y3.716
X0.334 Y3.745
X0.151 Y3.766
X-0.032 Y3.777
X-0.217 Y3.78
X-0.401 Y3.774
X-0.586 Y3.759
X-0.77 Y3.734
X-0.954 Y3.701
X-1.135 Y3.659
X-1.315 Y3.607
X-1.493 Y3.547
X-1.668 Y3.479
X-1.84 Y3.401
X-2.008 Y3.315
X-2.172 Y3.221
X-2.332 Y3.119
X-2.487 Y3.009
X-2.636 Y2.892
X-2.78 Y2.767
X-2.918 Y2.634
X-3.049 Y2.496
X-3.174 Y2.35
X-3.292 Y2.199
X-3.403 Y2.041
X-3.506 Y1.878
X-3.601 Y1.71
X-3.688 Y1.537
X-3.766 Y1.359
X-3.836 Y1.178
X-3.898 Y0.993
X-3.95 Y0.805
X-3.993 Y0.614
X-4.027 Y0.421
X-4.052 Y0.226
X-4.067 Y0.03
X-4.072 Y-0.167
X-4.068 Y-0.365
X-4.054 Y-0.562
X-4.031 Y-0.76
X-3.998 Y-0.956
X-3.955 Y-1.15
X-3.903 Y-1.343
X-3.842 Y-1.534
X-3.771 Y-1.721
X-3.691 Y-1.905
X-3.601 Y-2.086
X-3.503 Y-2.262
X-3.397 Y-2.434
X-3.281 Y-2.6
X-3.158 Y-2.762
X-3.027 Y-2.917
X-2.888 Y-3.066
X-2.741 Y-3.208
X-2.588 Y-3.343
X-2.428 Y-3.471
X-2.261 Y-3.591
X-2.089 Y-3.703
X-1.91 Y-3.807
X-1.727 Y-3.903
X-1.539 Y-3.989
X-1.346 Y-4.066
X-1.15 Y-4.134
X-0.95 Y-4.192
X-0.747 Y-4.241
X-0.542 Y-4.28
X-0.334 Y-4.309
X-0.125 Y-4.328
X0.085 Y-4.336
X0.295 Y-4.335
X0.506 Y-4.323
X0.717 Y-4.301
X0.926 Y-4.268
X1.134 Y-4.225
X1.34 Y-4.173
X1.544 Y-4.11
X1.744 Y-4.037
X1.942 Y-3.954
X2.135 Y-3.861
X2.324 Y-3.759
X2.508 Y-3.648
X2.687 Y-3.528
X2.86 Y-3.399
X3.027 Y-3.261
X3.188 Y-3.115
X3.341 Y-2.961
X3.487 Y-2.8
X3.626 Y-2.631
X3.756 Y-2.456
X3.878 Y-2.274
X3.991 Y-2.085
X4.094 Y-1.892
X4.189 Y-1.693
X4.274 Y-1.489
X4.349 Y-1.281
X4.413 Y-1.07
X4.468 Y-0.855
X4.512 Y-0.637
X4.546 Y-0.416
X4.569 Y-0.194
X4.581 Y0.029
X4.582 Y0.253
X4.572 Y0.477
X4.551 Y0.701
X4.52 Y0.924
X4.477 Y1.146
X4.424 Y1.366
X4.36 Y1.583
X4.285 Y1.798
X4.2 Y2.008
X4.104 Y2.215
X3.998 Y2.418
X3.883 Y2.615
X3.758 Y2.807
X3.623 Y2.992
X3.479 Y3.172
X3.326 Y3.344
X3.165 Y3.51
X2.995 Y3.667
X2.818 Y3.816
X2.633 Y3.957
X2.441 Y4.089
X2.243 Y4.211
X2.039 Y4.324
X1.829 Y4.427
X1.614 Y4.52
X1.394 Y4.603
X1.17 Y4.675
X0.943 Y4.735
X0.712 Y4.785
X0.479 Y4.824
X0.243 Y4.851
X0.006 Y4.867
X-0.231 Y4.872
X-0.469 Y4.864
X-0.707 Y4.845
X-0.945 Y4.815
X-1.18 Y4.773
X-1.414 Y4.719
X-1.646 Y4.654
X-1.874 Y4.578
X-2.099 Y4.49
X-2.32 Y4.392
X-2.536 Y4.283
X-2.747 Y4.163
X-2.952 Y4.032
X-3.151 Y3.892
X-3.343 Y3.742
X-3.528 Y3.582
X-3.705 Y3.414
X-3.874 Y3.236
X-4.035 Y3.05
X-4.187 Y2.856
X-4.329 Y2.655
X-4.462 Y2.447
X-4.584 Y2.232
X-4.696 Y2.011
X-4.798 Y1.784
X-4.888 Y1.552
X-4.967 Y1.316
X-5.035 Y1.076
X-5.091 Y0.832
X-5.135 Y0.585
X-5.167 Y0.336
X-5.187 Y0.086
X-5.195 Y-0.166
X-5.191 Y-0.418
X-5.174 Y-0.67
X-5.145 Y-0.922
X-5.104 Y-1.172
X-5.05 Y-1.421
X-4.985 Y-1.667
X-4.907 Y-1.91
X-4.817 Y-2.149
X-4.716 Y-2.384
X-4.603 Y-2.614
X-4.479 Y-2.839
X-4.344 Y-3.058
X-4.198 Y-3.271
X-4.042 Y-3.476
X-3.875 Y-3.674
X-3.699 Y-3.864
X-3.514 Y-4.046
X-3.319 Y-4.219
X-3.116 Y-4.382
X-2.905 Y-4.535
X-2.686 Y-4.678
X-2.461 Y-4.811
X-2.228 Y-4.933
X-1.99 Y-5.043
X-1.746 Y-5.142
X-1.497 Y-5.229
X-1.244 Y-5.304
X-0.986 Y-5.367
X-0.726 Y-5.417
X-0.463 Y-5.454
X-0.199 Y-5.479
X0.068 Y-5.491
X0.334 Y-5.49
X0.601 Y-5.475
X0.868 Y-5.448
X1.133 Y-5.408
X1.396 Y-5.355
X1.657 Y-5.289
X1.915 Y-5.21
X2.169 Y-5.119
X2.419 Y-5.015
X2.664 Y-4.899
X2.903 Y-4.771
X3.136 Y-4.631
X3.363 Y-4.48
X3.582 Y-4.318
X3.794 Y-4.144
X3.997 Y-3.961
X4.191 Y-3.767
X4.376 Y-3.564
X4.551 Y-3.352
X4.716 Y-3.131
X4.87 Y-2.903
X5.013 Y-2.666
X5.145 Y-2.422
X5.265 Y-2.172
X5.373 Y-1.916
X5.468 Y-1.654
X5.551 Y-1.388
X5.62 Y-1.117
X5.677 Y-0.843
X5.72 Y-0.566
X5.75 Y-0.287
X5.766 Y-0.007
X5.768 Y0.275
X5.757 Y0.557
X5.732 Y0.839
X5.693 Y1.119
X5.641 Y1.398
X5.574 Y1.674
X5.495 Y1.947
X5.402 Y2.216
X5.296 Y2.481
X5.177 Y2.741
X5.045 Y2.996
X4.901 Y3.244
X4.744 Y3.485
X4.576 Y3.718
X4.396 Y3.944
X4.206 Y4.16
X4.004 Y4.368
X3.793 Y4.566
X3.571 Y4.753
X3.341 Y4.93
X3.102 Y5.096
X2.854 Y5.25
X2.599 Y5.392
X2.337 Y5.522
X2.068 Y5.639
X1.794 Y5.743
X1.514 Y5.834
X1.23 Y5.911
X0.942 Y5.974
X0.651 Y6.024
X0.357 Y6.059
X0.061 Y6.08
X-0.236 Y6.086
X-0.533 Y6.078
X-0.83 Y6.056
X-1.126 Y6.018
X-1.42 Y5.967
X-1.712 Y5.901
X-2.001 Y5.821
X-2.286 Y5.727
X-2.566 Y5.619
X-2.842 Y5.497
X-3.111 Y5.362
X-3.374 Y5.213
X-3.63 Y5.052
X-3.878 Y4.878
X-4.118 Y4.692
X-4.349 Y4.494
X-4.57 Y4.285
X-4.781 Y4.065
X-4.982 Y3.834
X-5.171 Y3.594
X-5.349 Y3.345
X-5.515 Y3.086
X-5.668 Y2.82
X-5.808 Y2.545
X-5.935 Y2.264
X-6.048 Y1.977
X-6.148 Y1.684
X-6.233 Y1.386
X-6.303 Y1.084
X-6.359 Y0.778
X-6.4 Y0.47
X-6.426 Y0.159
X-6.437 Y-0.153
X-6.432 Y-0.466
X-6.413 Y-0.779
X-6.378 Y-1.091
X-6.328 Y-1.401
X-6.263 Y-1.709
X-6.182 Y-2.014
X-6.087 Y-2.315
X-5.977 Y-2.611
X-5.853 Y-2.903
X-5.714 Y-3.188
X-5.562 Y-3.467
X-5.395 Y-3.738
X-5.216 Y-4.001
X-5.024 Y-4.256
X-4.819 Y-4.501
X-4.602 Y-4.737
X-4.373 Y-4.962
X-4.134 Y-5.176
X-3.884 Y-5.378
X-3.624 Y-5.569
X-3.354 Y-5.746
X-3.076 Y-5.911
X-2.79 Y-6.062
X-2.496 Y-6.199
X-2.196 Y-6.322
X-1.889 Y-6.431
X-1.578 Y-6.524
X-1.261 Y-6.602
X-0.94 Y-6.665
X-0.617 Y-6.712
X-0.291 Y-6.744
X0.037 Y-6.76
X0.366 Y-6.759
X0.694 Y-6.743
X1.022 Y-6.711
X1.349 Y-6.662
X1.673 Y-6.598
X1.994 Y-6.518
X2.312 Y-6.422
X2.624 Y-6.311
X2.932 Y-6.184
X3.233 Y-6.042
X3.528 Y-5.886
X3.815 Y-5.715
X4.094 Y-5.531
X4.364 Y-5.332
X4.624 Y-5.12
X4.875 Y-4.896
X5.114 Y-4.659
X5.342 Y-4.411
X5.557 Y-4.151
X5.761 Y-3.881
X5.951 Y-3.601
X6.127 Y-3.311
X6.29 Y-3.013
X6.438 Y-2.707
X6.571 Y-2.394
X6.689 Y-2.073
X6.791 Y-1.748
X6.877 Y-1.416
X6.948 Y-1.081
X7.002 Y-0.742
X7.039 Y-0.401
X7.06 Y-0.057
X7.064 Y0.287
X7.051 Y0.632
X7.022 Y0.977
X6.976 Y1.32
X6.913 Y1.661
X6.833 Y1.999
X6.737 Y2.333
X6.624 Y2.662
X6.496 Y2.986
X6.352 Y3.304
X6.192 Y3.615
X6.017 Y3.919
X5.827 Y4.214
X5.622 Y4.499
X5.404 Y4.775
X5.172 Y5.04
X4.927 Y5.294
X4.67 Y5.536
X4.401 Y5.766
X4.121 Y5.983
X3.83 Y6.186
X3.529 Y6.375
X3.219 Y6.549
X2.9 Y6.708
X2.573 Y6.852
X2.239 Y6.98
X1.899 Y7.091
X1.554 Y7.186
X1.203 Y7.265
X0.849 Y7.326
X0.492 Y7.37
X0.132 Y7.396
X-0.229 Y7.405
X-0.59 Y7.397
X-0.951 Y7.371
X-1.311 Y7.327
X-1.669 Y7.265
X-2.024 Y7.187
X-2.375 Y7.091
X-2.721 Y6.977
X-3.063 Y6.847
X-3.397 Y6.7
X-3.725 Y6.537
X-4.045 Y6.358
X-4.356 Y6.163
X-4.658 Y5.953
X-4.95 Y5.729
X-5.23 Y5.49
X-5.5 Y5.237
X-5.757 Y4.971
X-6.001 Y4.693
X-6.231 Y4.402
X-6.447 Y4.1
X-6.649 Y3.788
X-6.836 Y3.466
X-7.007 Y3.135
X-7.161 Y2.795
X-7.3 Y2.447
X-7.421 Y2.093
X-7.525 Y1.733
X-7.612 Y1.368
X-7.681 Y0.998
X-7.731 Y0.625
X-7.764 Y0.249
X-7.778 Y-0.128
X-7.774 Y-0.506
X-7.752 Y-0.884
X-7.711 Y-1.261
X-7.652 Y-1.636
X-7.574 Y-2.008
X-7.479 Y-2.377
X-7.365 Y-2.741
X-7.233 Y-3.099
X-7.085 Y-3.451
X-6.918 Y-3.796
X-6.735 Y-4.133
X-6.536 Y-4.461
X-6.321 Y-4.78
X-6.09 Y-5.088
X-5.844 Y-5.384
X-5.583 Y-5.669
X-5.309 Y-5.942
X-5.021 Y-6.2
X-4.72 Y-6.445
X-4.408 Y-6.676
X-4.084 Y-6.891
X-3.75 Y-7.09
X-3.406 Y-7.273
X-3.053 Y-7.44
X-2.692 Y-7.589
X-2.323 Y-7.72
X-1.948 Y-7.834
X-1.568 Y-7.93
X-1.182 Y-8.007
X-0.793 Y-8.065
X-0.401 Y-8.104
X-0.007 Y-8.124
X0.388 Y-8.125
X0.783 Y-8.107
X1.177 Y-8.069
X1.57 Y-8.012
X1.959 Y-7.936
X2.346 Y-7.841
X2.727 Y-7.728
X3.103 Y-7.595
X3.473 Y-7.445
X3.835 Y-7.276
X4.19 Y-7.089
X4.535 Y-6.886
X4.87 Y-6.665
X5.195 Y-6.428
X5.508 Y-6.175
X5.809 Y-5.907
X6.097 Y-5.624
X6.371 Y-5.328
X6.63 Y-5.017
X6.875 Y-4.694
X7.104 Y-4.359
X7.316 Y-4.013
X7.512 Y-3.657
X7.691 Y-3.291
X7.851 Y-2.916
X7.994 Y-2.533
X8.117 Y-2.143
X8.222 Y-1.748
X8.308 Y-1.347
X8.373 Y-0.942
X8.42 Y-0.533
X8.446 Y-0.122
X8.452 Y0.29
X8.439 Y0.702
X8.405 Y1.114
X8.351 Y1.524
X8.277 Y1.932
X8.183 Y2.336
X8.07 Y2.735
X7.937 Y3.129
X7.785 Y3.517
X7.613 Y3.897
X7.424 Y4.269
X7.216 Y4.632
X6.991 Y4.985
X6.748 Y5.326
X6.489 Y5.656
X6.213 Y5.974
X5.922 Y6.277
X5.616 Y6.567
X5.297 Y6.842
X4.963 Y7.102
X4.617 Y7.345
X4.259 Y7.571
X3.89 Y7.78
X3.511 Y7.971
X3.123 Y8.143
X2.726 Y8.297
X2.321 Y8.431
X1.91 Y8.546
X1.493 Y8.64
X1.072 Y8.715
X0.647 Y8.768
X0.22 Y8.801
X-0.21 Y8.813
X-0.64 Y8.805
X-1.069 Y8.775
X-1.497 Y8.724
X-1.923 Y8.653
X-2.345 Y8.561
X-2.763 Y8.448
X-3.175 Y8.315
X-3.581 Y8.162
X-3.979 Y7.988
X-4.369 Y7.796
X-4.75 Y7.585
X-5.12 Y7.355
X-5.479 Y7.106
X-5.827 Y6.841
X-6.161 Y6.558
X-6.481 Y6.259
X-6.787 Y5.945
X-7.078 Y5.616
X-7.352 Y5.272
X-7.61 Y4.915
X-7.851 Y4.545
X-8.073 Y4.164
X-8.277 Y3.772
X-8.462 Y3.37
X-8.627 Y2.959
X-8.772 Y2.54
X-8.897 Y2.113
X-9.001 Y1.681
X-9.084 Y1.243
X-9.146 Y0.802
X-9.186 Y0.357
X-9.204 Y-0.089
X-9.201 Y-0.537
X-9.176 Y-0.984
X-9.129 Y-1.43
X-9.061 Y-1.874
X-8.97 Y-2.315
X-8.859 Y-2.751
X-8.726 Y-3.182
X-8.572 Y-3.606
X-8.397 Y-4.023
X-8.202 Y-4.432
X-7.987 Y-4.83
X-7.753 Y-5.219
X-7.5 Y-5.596
X-7.228 Y-5.961
X-6.939 Y-6.312
X-6.632 Y-6.649
X-6.309 Y-6.972
X-5.97 Y-7.279
X-5.617 Y-7.569
X-5.249 Y-7.842
X-4.868 Y-8.097
X-4.474 Y-8.334
X-4.069 Y-8.551
X-3.653 Y-8.749
X-3.228 Y-8.926
X-2.794 Y-9.083
X-2.352 Y-9.218
X-1.904 Y-9.332
X-1.45 Y-9.425
X-0.992 Y-9.495
X-0.53 Y-9.542
X-0.066 Y-9.568
X0.399 Y-9.57
X0.865 Y-9.55
X1.329 Y-9.508
X1.791 Y-9.442
X2.251 Y-9.354
X2.706 Y-9.244
X3.155 Y-9.112
X3.598 Y-8.958
X4.034 Y-8.782
X4.461 Y-8.585
X4.878 Y-8.367
X5.285 Y-8.128
X5.68 Y-7.87
X6.063 Y-7.593
X6.432 Y-7.297
X6.787 Y-6.983
X7.126 Y-6.652
X7.45 Y-6.304
X7.756 Y-5.941
X8.045 Y-5.562
X8.315 Y-5.17
X8.566 Y-4.764
X8.797 Y-4.346
X9.008 Y-3.917
X9.198 Y-3.477
X9.367 Y-3.029
X9.514 Y-2.572
X9.638 Y-2.108
X9.74 Y-1.638
X9.819 Y-1.162
X9.875 Y-0.684
X9.907 Y-0.202
X9.916 Y0.281
X9.902 Y0.765
X9.864 Y1.248
X9.802 Y1.729
X9.717 Y2.207
X9.609 Y2.681
X9.478 Y3.15
X9.323 Y3.612
X9.147 Y4.067
X8.948 Y4.513
X8.727 Y4.949
X8.485 Y5.375
X8.223 Y5.789
X7.94 Y6.19
X7.638 Y6.577
X7.316 Y6.949
X6.977 Y7.306
X6.62 Y7.647
X6.247 Y7.97
X5.858 Y8.274
X5.455 Y8.56
X5.037 Y8.826
X4.606 Y9.072
X4.164 Y9.297
X3.71 Y9.5
X3.247 Y9.681
X2.775 Y9.839
X2.295 Y9.975
X1.808 Y10.087
X1.316 Y10.175
X0.82 Y10.24
X0.321 Y10.28
X-0.18 Y10.296
X-0.682 Y10.287
X-1.184 Y10.254
X-1.684 Y10.197
X-2.181 Y10.115
X-2.674 Y10.009
X-3.162 Y9.879
X-3.644 Y9.726
X-4.118 Y9.548
X-4.583 Y9.348
X-5.039 Y9.125
X-5.483 Y8.88
X-5.916 Y8.613
X-6.336 Y8.325
X-6.741 Y8.017
X-7.132 Y7.689
X-7.507 Y7.342
X-7.864 Y6.977
X-8.204 Y6.594
X-8.526 Y6.195
X-8.827 Y5.78
X-9.109 Y5.351
X-9.369 Y4.908
X-9.608 Y4.452
X-9.825 Y3.984
X-10.019 Y3.507
X-10.19 Y3.019
X-10.337 Y2.523
X-10.459 Y2.021
X-10.558 Y1.512
X-10.631 Y0.999
X-10.68 Y0.482
X-10.703 Y-0.038
X-10.701 Y-0.558
X-10.673 Y-1.078
X-10.621 Y-1.597
X-10.543 Y-2.114
X-10.439 Y-2.626
X-10.311 Y-3.133
X-10.159 Y-3.635
X-9.981 Y-4.128
X-9.78 Y-4.613
X-9.555 Y-5.088
X-9.307 Y-5.552
X-9.037 Y-6.004
X-8.744 Y-6.443
X-8.43 Y-6.868
X-8.096 Y-7.277
X-7.741 Y-7.669
X-7.368 Y-8.045
X-6.976 Y-8.402
X-6.567 Y-8.74
X-6.141 Y-9.059
X-5.7 Y-9.356
X-5.244 Y-9.632
X-4.775 Y-9.886
X-4.294 Y-10.116
X-3.802 Y-10.324
X-3.299 Y-10.507
X-2.788 Y-10.666
X-2.269 Y-10.8
X-1.743 Y-10.908
X-1.212 Y-10.991
X-0.678 Y-11.049
X-0.14 Y-11.08
X0.399 Y-11.085
X0.938 Y-11.063
X1.476 Y-11.016
X2.012 Y-10.942
X2.543 Y-10.842
X3.071 Y-10.716
X3.591 Y-10.565
X4.105 Y-10.388
X4.61 Y-10.186
X5.104 Y-9.96
X5.588 Y-9.709
X6.06 Y-9.435
X6.518 Y-9.138
X6.961 Y-8.819
X7.389 Y-8.478
X7.801 Y-8.117
X8.194 Y-7.735
X8.569 Y-7.334
X8.925 Y-6.915
X9.26 Y-6.479
X9.574 Y-6.027
X9.865 Y-5.559
X10.134 Y-5.077
X10.379 Y-4.582
X10.601 Y-4.076
X10.797 Y-3.558
X10.968 Y-3.031
X11.114 Y-2.496
X11.233 Y-1.953
X11.326 Y-1.405
X11.393 Y-0.853
X11.432 Y-0.297
X11.444 Y0.26
X11.43 Y0.818
X11.388 Y1.376
X11.318 Y1.931
X11.222 Y2.482
X11.099 Y3.029
X10.949 Y3.57
X10.773 Y4.104
X10.572 Y4.628
X10.344 Y5.143
X10.091 Y5.647
X9.814 Y6.138
X9.513 Y6.616
X9.189 Y7.079
X8.843 Y7.527
X8.474 Y7.957
X8.085 Y8.369
X7.675 Y8.762
X7.247 Y9.136
X6.8 Y9.488
X6.337 Y9.819
X5.857 Y10.126
X5.362 Y10.411
X4.854 Y10.671
X4.333 Y10.907
X3.801 Y11.117
X3.258 Y11.301
X2.707 Y11.459
X2.148 Y11.589
X1.582 Y11.693
X1.012 Y11.769
X0.438 Y11.817
X-0.138 Y11.837
X-0.715 Y11.83
X-1.292 Y11.794
X-1.867 Y11.73
X-2.438 Y11.638
X-3.005 Y11.518
X-3.566 Y11.37
X-4.12 Y11.196
X-4.665 Y10.994
X-5.2 Y10.766
X-5.724 Y10.512
X-6.236 Y10.232
X-6.734 Y9.927
X-7.216 Y9.598
X-7.683 Y9.246
X-8.133 Y8.871
X-8.564 Y8.475
X-8.976 Y8.057
X-9.367 Y7.619
X-9.737 Y7.162
X-10.085 Y6.688
X-10.41 Y6.196
X-10.71 Y5.689
X-10.986 Y5.167
X-11.236 Y4.632
X-11.461 Y4.085
X-11.658 Y3.527
X-11.828 Y2.96
X-11.971 Y2.384
X-12.086 Y1.801
X-12.172 Y1.213
X-12.229 Y0.621
X-12.258 Y0.026
Y-0.57
X-12.228 Y-1.166
X-12.17 Y-1.76
X-12.082 Y-2.352
X-11.966 Y-2.939
X-11.822 Y-3.521
X-11.649 Y-4.095
X-11.448 Y-4.66
X-11.219 Y-5.216
X-10.964 Y-5.761
X-10.682 Y-6.293
X-10.374 Y-6.811
X-10.041 Y-7.314
X-9.683 Y-7.801
X-9.302 Y-8.27
X-8.898 Y-8.721
X-8.473 Y-9.152
X-8.026 Y-9.562
X-7.559 Y-9.95
X-7.074 Y-10.315
X-6.571 Y-10.657
X-6.051 Y-10.974
X-5.516 Y-11.266
X-4.967 Y-11.532
X-4.405 Y-11.77
X-3.832 Y-11.982
X-3.248 Y-12.165
X-2.656 Y-12.32
X-2.056 Y-12.446
X-1.45 Y-12.543
X-0.84 Y-12.61
X-0.226 Y-12.648
X0.389 Y-12.656
X1.005 Y-12.633
X1.619 Y-12.581
X2.231 Y-12.499
X2.838 Y-12.387
X3.44 Y-12.245
X4.035 Y-12.075
X4.622 Y-11.875
X5.198 Y-11.646
X5.764 Y-11.39
X6.317 Y-11.106
X6.855 Y-10.796
X7.379 Y-10.459
X7.886 Y-10.096
X8.375 Y-9.71
X8.846 Y-9.299
X9.296 Y-8.865
X9.725 Y-8.41
X10.132 Y-7.934
X10.515 Y-7.438
X10.874 Y-6.924
X11.209 Y-6.392
X11.517 Y-5.844
X11.798 Y-5.281
X12.052 Y-4.705
X12.278 Y-4.116
X12.475 Y-3.517
X12.643 Y-2.908
X12.781 Y-2.291
X12.889 Y-1.667
X12.966 Y-1.038
X13.013 Y-0.406
X13.029 Y0.228
X13.015 Y0.864
X12.969 Y1.498
X12.892 Y2.13
X12.785 Y2.758
X12.647 Y3.38
X12.479 Y3.996
X12.281 Y4.604
X12.053 Y5.201
X11.796 Y5.788
X11.511 Y6.362
X11.198 Y6.921
X10.858 Y7.466
X10.491 Y7.993
X10.099 Y8.503
X9.682 Y8.994
X9.241 Y9.464
X8.777 Y9.912
X8.292 Y10.338
X7.786 Y10.74
X7.26 Y11.117
X6.716 Y11.469
X6.156 Y11.794
X5.579 Y12.091
X4.989 Y12.361
X4.385 Y12.601
X3.77 Y12.812
X3.144 Y12.994
X2.51 Y13.144
X1.869 Y13.264
X1.222 Y13.352
X0.571 Y13.409
X-0.083 Y13.434
X-0.738 Y13.428
X-1.392 Y13.389
X-2.044 Y13.319
X-2.693 Y13.217
X-3.336 Y13.083
X-3.973 Y12.918
X-4.602 Y12.722
X-5.221 Y12.495
X-5.828 Y12.238
X-6.423 Y11.952
X-7.004 Y11.637
X-7.57 Y11.294
X-8.118 Y10.923
X-8.649 Y10.526
X-9.159 Y10.103
X-9.65 Y9.655
X-10.118 Y9.183
X-10.563 Y8.689
X-10.984 Y8.173
X-11.379 Y7.637
X-11.749 Y7.081
X-12.091 Y6.508
X-12.405 Y5.918
X-12.691 Y5.314
X-12.947 Y4.695
X-13.172 Y4.064
X-13.367 Y3.422
X-13.531 Y2.771
X-13.663 Y2.112
X-13.762 Y1.447
X-13.83 Y0.778
X-13.864 Y0.105
X-13.866 Y-0.57
X-13.835 Y-1.244
X-13.772 Y-1.917
X-13.675 Y-2.586
X-13.546 Y-3.25
X-13.385 Y-3.908
X-13.191 Y-4.558
X-12.966 Y-5.198
X-12.71 Y-5.827
X-12.423 Y-6.444
X-12.107 Y-7.046
X-11.761 Y-7.633
X-11.386 Y-8.203
X-10.984 Y-8.754
X-10.556 Y-9.286
X-10.101 Y-9.796
X-9.622 Y-10.285
X-9.119 Y-10.75
X-8.593 Y-11.19
X-8.047 Y-11.604
X-7.48 Y-11.992
X-6.894 Y-12.352
X-6.292 Y-12.683
X-5.673 Y-12.985
X-5.039 Y-13.257
X-4.393 Y-13.498
X-3.735 Y-13.707
X-3.067 Y-13.884
X-2.391 Y-14.029
X-1.708 Y-14.14
X-1.019 Y-14.219
X-0.327 Y-14.263
X0.367 Y-14.274
X1.061 Y-14.251
X1.754 Y-14.195
X2.444 Y-14.104
X3.13 Y-13.98
X3.809 Y-13.823
X4.48 Y-13.633
X5.142 Y-13.41
X5.793 Y-13.155
X6.431 Y-12.868
X7.055 Y-12.55
X7.663 Y-12.202
X8.254 Y-11.825
X8.827 Y-11.418
X9.38 Y-10.984
X9.911 Y-10.524
X10.42 Y-10.037
X10.905 Y-9.526
X11.365 Y-8.991
X11.798 Y-8.434
X12.205 Y-7.857
X12.583 Y-7.259
X12.932 Y-6.644
X13.251 Y-6.011
X13.539 Y-5.363
X13.795 Y-4.702
X14.019 Y-4.028
X14.21 Y-3.343
X14.368 Y-2.649
X14.492 Y-1.948
X14.582 Y-1.241
X14.637 Y-0.53
X14.657 Y0.184
X14.643 Y0.898
X14.594 Y1.611
X14.511 Y2.322
X14.392 Y3.029
X14.24 Y3.729
X14.053 Y4.422
X13.832 Y5.106
X13.579 Y5.779
X13.292 Y6.439
X12.974 Y7.085
X12.624 Y7.715
X12.244 Y8.328
X11.834 Y8.922
X11.395 Y9.496
X10.928 Y10.049
X10.435 Y10.578
X9.916 Y11.084
X9.372 Y11.564
X8.806 Y12.017
X8.217 Y12.443
X7.608 Y12.84
X6.98 Y13.207
X6.334 Y13.543
X5.671 Y13.847
X4.995 Y14.12
X4.305 Y14.359
X3.604 Y14.565
X2.893 Y14.736
X2.174 Y14.873
X1.448 Y14.975
X0.718 Y15.041
X-0.015 Y15.072
X-0.75 Y15.067
X-1.484 Y15.026
X-2.216 Y14.949
X-2.943 Y14.837
X-3.665 Y14.69
X-4.38 Y14.507
X-5.086 Y14.29
X-5.78 Y14.038
X-6.462 Y13.752
X-7.131 Y13.434
X-7.783 Y13.083
X-8.418 Y12.7
X-9.034 Y12.287
X-9.63 Y11.844
X-10.204 Y11.371
X-10.755 Y10.871
X-11.281 Y10.345
X-11.781 Y9.793
X-12.255 Y9.217
X-12.7 Y8.617
X-13.116 Y7.997
X-13.501 Y7.356
X-13.855 Y6.697
X-14.177 Y6.021
X-14.466 Y5.329
X-14.721 Y4.624
X-14.942 Y3.906
X-15.127 Y3.178
X-15.277 Y2.441
X-15.391 Y1.697
X-15.469 Y0.948
X-15.511 Y0.195
X-15.515 Y-0.559
X-15.483 Y-1.314
X-15.414 Y-2.067
X-15.309 Y-2.816
X-15.167 Y-3.559
X-14.989 Y-4.296
X-14.775 Y-5.023
X-14.526 Y-5.74
X-14.242 Y-6.445
X-13.924 Y-7.135
X-13.572 Y-7.81
X-13.187 Y-8.467
X-12.771 Y-9.105
X-12.324 Y-9.723
X-11.846 Y-10.319
X-11.34 Y-10.891
X-10.807 Y-11.439
X-10.246 Y-11.96
X-9.661 Y-12.454
X-9.052 Y-12.919
X-8.42 Y-13.355
X-7.767 Y-13.759
X-7.095 Y-14.131
X-6.405 Y-14.471
X-5.699 Y-14.777
X-4.978 Y-15.048
X-4.244 Y-15.284
X-3.499 Y-15.485
X-2.744 Y-15.649
X-1.982 Y-15.776
X-1.213 Y-15.866
X-0.441 Y-15.918
X0.334 Y-15.933
X1.109 Y-15.91
X1.882 Y-15.85
X2.653 Y-15.751
X3.418 Y-15.616
X4.177 Y-15.443
X4.926 Y-15.233
X5.666 Y-14.987
X6.393 Y-14.704
X7.106 Y-14.387
X7.803 Y-14.035
X8.483 Y-13.649
X9.143 Y-13.23
X9.784 Y-12.779
X10.402 Y-12.297
X10.996 Y-11.786
X11.565 Y-11.245
X12.107 Y-10.677
X12.622 Y-10.083
X13.108 Y-9.464
X13.563 Y-8.821
X13.987 Y-8.157
X14.378 Y-7.472
X14.735 Y-6.768
X15.059 Y-6.047
X15.347 Y-5.311
X15.599 Y-4.561
X15.815 Y-3.799
X15.993 Y-3.027
X16.133 Y-2.246
X16.236 Y-1.459
X16.3 Y-0.667
X16.326 Y0.127
X16.313 Y0.923
X16.261 Y1.718
X16.17 Y2.51
X16.041 Y3.297
X15.874 Y4.077
X15.669 Y4.849
X15.426 Y5.611
X15.146 Y6.361
X14.83 Y7.097
X14.478 Y7.817
X14.091 Y8.519
X13.67 Y9.203
X13.216 Y9.866
X12.73 Y10.506
X12.213 Y11.123
X11.666 Y11.714
X11.09 Y12.278
X10.488 Y12.814
X9.859 Y13.32
X9.206 Y13.796
X8.53 Y14.239
X7.833 Y14.65
X7.116 Y15.026
X6.381 Y15.367
X5.629 Y15.673
X4.863 Y15.941
X4.084 Y16.172
X3.295 Y16.366
X2.496 Y16.52
X1.69 Y16.636
X0.879 Y16.712
X0.064 Y16.749
X-0.752 Y16.747
X-1.568 Y16.704
X-2.381 Y16.622
X-3.19 Y16.5
X-3.993 Y16.339
X-4.787 Y16.138
X-5.572 Y15.9
X-6.344 Y15.623
X-7.103 Y15.308
X-7.846 Y14.957
X-8.572 Y14.57
X-9.278 Y14.147
X-9.964 Y13.69
X-10.627 Y13.201
X-11.266 Y12.679
X-11.879 Y12.126
X-12.466 Y11.543
X-13.023 Y10.932
X-13.551 Y10.294
X-14.047 Y9.631
X-14.511 Y8.944
X-14.941 Y8.235
X-15.336 Y7.505
X-15.696 Y6.756
X-16.019 Y5.989
X-16.305 Y5.208
X-16.552 Y4.413
X-16.761 Y3.606
X-16.93 Y2.789
X-17.059 Y1.964
X-17.148 Y1.133
X-17.197 Y0.299
X-17.205 Y-0.538
X-17.172 Y-1.375
X-17.099 Y-2.209
X-16.985 Y-3.04
X-16.83 Y-3.865
X-16.636 Y-4.682
X-16.401 Y-5.489
X-16.128 Y-6.285
X-15.815 Y-7.067
X-15.465 Y-7.833
X-15.078 Y-8.582
X-14.654 Y-9.312
X-14.196 Y-10.02
X-13.702 Y-10.707
X-13.176 Y-11.368
X-12.617 Y-12.004
X-12.028 Y-12.613
X-11.409 Y-13.192
X-10.763 Y-13.742
X-10.09 Y-14.259
X-9.392 Y-14.743
X-8.671 Y-15.194
X-7.928 Y-15.609
X-7.165 Y-15.987
X-6.384 Y-16.328
X-5.587 Y-16.631
X-4.776 Y-16.896
X-3.951 Y-17.12
X-3.117 Y-17.304
X-2.274 Y-17.448
X-1.424 Y-17.55
X-0.569 Y-17.611
X0.288 Y-17.631
X1.146 Y-17.608
X2.002 Y-17.544
X2.854 Y-17.438
X3.702 Y-17.291
X4.541 Y-17.103
X5.371 Y-16.873
X6.19 Y-16.604
X6.995 Y-16.294
X7.785 Y-15.946
X8.557 Y-15.559
X9.31 Y-15.135
X10.042 Y-14.674
X10.752 Y-14.178
X11.437 Y-13.648
X12.095 Y-13.084
X12.727 Y-12.489
X13.328 Y-11.863
X13.899 Y-11.208
X14.438 Y-10.526
X14.944 Y-9.817
X15.414 Y-9.084
X15.849 Y-8.329
X16.247 Y-7.553
X16.607 Y-6.758
X16.928 Y-5.946
X17.209 Y-5.118
X17.45 Y-4.277
X17.65 Y-3.425
X17.808 Y-2.563
X17.925 Y-1.694
X17.998 Y-0.82
X18.03 Y0.057
X18.018 Y0.936
X17.964 Y1.813
X17.867 Y2.688
X17.727 Y3.557
X17.546 Y4.42
X17.322 Y5.273
X17.057 Y6.115
X16.751 Y6.943
X16.404 Y7.756
X16.019 Y8.552
X15.594 Y9.329
X15.132 Y10.085
X14.634 Y10.818
X14.1 Y11.526
X13.532 Y12.208
X12.931 Y12.862
X12.298 Y13.487
X11.635 Y14.08
X10.943 Y14.641
X10.225 Y15.168
X9.481 Y15.659
X8.714 Y16.115
X7.925 Y16.532
X7.115 Y16.911
X6.288 Y17.251
X5.445 Y17.55
X4.587 Y17.808
X3.717 Y18.023
X2.837 Y18.197
X1.949 Y18.327
X1.056 Y18.415
X0.158 Y18.458
X-0.741
X-1.64 Y18.414
X-2.537 Y18.327
X-3.429 Y18.196
X-4.314 Y18.021
X-5.19 Y17.803
X-6.055 Y17.543
X-6.907 Y17.241
X-7.743 Y16.897
X-8.563 Y16.513
X-9.364 Y16.09
X-10.143 Y15.627
X-10.9 Y15.127
X-11.632 Y14.59
X-12.337 Y14.017
X-13.015 Y13.411
X-13.662 Y12.771
X-14.278 Y12.101
X-14.861 Y11.401
X-15.41 Y10.673
X-15.923 Y9.918
X-16.399 Y9.139
X-16.837 Y8.337
X-17.235 Y7.514
X-17.594 Y6.672
X-17.911 Y5.813
X-18.186 Y4.939
X-18.419 Y4.052
X-18.608 Y3.155
X-18.753 Y2.248
X-18.854 Y1.334
X-18.911 Y0.417
X-18.923 Y-0.503
X-18.89 Y-1.424
X-18.812 Y-2.342
X-18.69 Y-3.256
X-18.523 Y-4.164
X-18.312 Y-5.063
X-18.057 Y-5.951
X-17.76 Y-6.827
X-17.419 Y-7.687
X-17.037 Y-8.531
X-16.614 Y-9.356
X-16.151 Y-10.159
X-15.65 Y-10.94
X-15.11 Y-11.696
X-14.534 Y-12.425
X-13.923 Y-13.126
X-13.277 Y-13.797
X-12.6 Y-14.436
X-11.892 Y-15.042
X-11.154 Y-15.613
X-10.389 Y-16.147
X-9.599 Y-16.645
X-8.784 Y-17.103
X-7.948 Y-17.522
X-7.091 Y-17.899
X-6.217 Y-18.235
X-5.327 Y-18.528
X-4.423 Y-18.778
X-3.507 Y-18.983
X-2.582 Y-19.144
X-1.649 Y-19.26
X-0.711 Y-19.33
X0.23 Y-19.354
X1.171 Y-19.333
X2.111 Y-19.266
X3.048 Y-19.153
X3.978 Y-18.994
X4.9 Y-18.79
X5.812 Y-18.542
X6.711 Y-18.249
X7.596 Y-17.912
X8.464 Y-17.533
X9.312 Y-17.112
X10.14 Y-16.649
X10.945 Y-16.146
X11.725 Y-15.605
X12.479 Y-15.025
X13.203 Y-14.41
X13.898 Y-13.759
X14.56 Y-13.075
X15.189 Y-12.359
X15.782 Y-11.612
X16.339 Y-10.837
X16.858 Y-10.036
X17.338 Y-9.209
X17.777 Y-8.36
X18.174 Y-7.489
X18.529 Y-6.6
X18.84 Y-5.694
X19.108 Y-4.773
X19.33 Y-3.84
X19.506 Y-2.896
X19.637 Y-1.944
X19.721 Y-0.986
X19.759 Y-0.025
X19.749 Y0.938
X19.693 Y1.9
X19.59 Y2.858
X19.44 Y3.812
X19.244 Y4.757
X19.002 Y5.692
X18.715 Y6.615
X18.383 Y7.524
X18.007 Y8.416
X17.587 Y9.289
X17.125 Y10.141
X16.622 Y10.971
X16.079 Y11.775
X15.497 Y12.553
X14.877 Y13.302
X14.221 Y14.02
X13.531 Y14.706
X12.808 Y15.358
X12.053 Y15.975
X11.268 Y16.554
X10.456 Y17.095
X9.617 Y17.596
X8.755 Y18.056
X7.871 Y18.474
X6.967 Y18.849
X6.045 Y19.179
X5.107 Y19.464
X4.157 Y19.704
X3.195 Y19.897
X2.224 Y20.043
X1.246 Y20.141
X0.264 Y20.192
X-0.72 Y20.196
X-1.703 Y20.151
X-2.684 Y20.059
X-3.66 Y19.918
X-4.629 Y19.731
X-5.587 Y19.496
X-6.534 Y19.214
X-7.467 Y18.887
X-8.383 Y18.515
X-9.281 Y18.098
X-10.158 Y17.637
X-11.012 Y17.134
X-11.841 Y16.59
X-12.643 Y16.006
X-13.417 Y15.383
X-14.159 Y14.722
X-14.869 Y14.026
X-15.545 Y13.296
X-16.185 Y12.533
X-16.247 Y12.45
X-16.506 Y12.053
X-16.705 Y11.623
X-16.841 Y11.168
X-16.858 Y11.091
X-17.085 Y10.487
X-17.217 Y10.191
X-17.385 Y9.854
X-18.118 Y8.393
X-18.268 Y8.093
X-18.398 Y7.793
X-18.511 Y7.494
X-19.057 Y5.995
X-19.152 Y5.695
X-19.183 Y5.596
X-19.232 Y5.395
X-19.516 Y4.196
X-19.579 Y3.897
X-19.699 Y3.297
X-19.743 Y2.997
X-19.918 Y1.499
X-19.938 Y1.199
X-19.954 Y0.599
X-19.958 Y0.3
Y-0.3
X-19.954 Y-0.599
X-19.938 Y-1.199
X-19.918 Y-1.499
X-19.743 Y-2.997
X-19.699 Y-3.297
X-19.579 Y-3.897
X-19.516 Y-4.196
X-19.232 Y-5.395
X-19.183 Y-5.596
X-19.152 Y-5.695
X-19.057 Y-5.995
X-18.511 Y-7.494
X-18.398 Y-7.793
X-18.268 Y-8.093
X-17.968 Y-8.693
X-17.366 Y-9.892
X-17.217 Y-10.191
X-17.083 Y-10.491
X-16.858 Y-11.091
X-16.805 Y-11.231
X-16.62 Y-11.658
X-16.408 Y-12.089
X-16.142 Y-12.569
X-15.824 Y-13.082
X-15.47 Y-13.597
X-15.046 Y-14.152
X-14.558 Y-14.731
X-14.025 Y-15.304
X-13.444 Y-15.87
X-12.801 Y-16.439
X-12.103 Y-16.998
X-11.354 Y-17.54
X-10.562 Y-18.057
X-9.731 Y-18.544
X-8.864 Y-18.995
X-7.968 Y-19.409
X-7.044 Y-19.781
X-6.098 Y-20.111
X-5.131 Y-20.395
X-4.148 Y-20.633
X-3.151 Y-20.823
X-2.143 Y-20.965
X-1.127 Y-21.058
X-0.106 Y-21.102
X0.918 Y-21.095
X1.941 Y-21.039
X2.962 Y-20.933
X3.978 Y-20.778
X4.985 Y-20.573
X5.983 Y-20.318
X6.968 Y-20.016
X7.937 Y-19.665
X8.889 Y-19.268
X9.822 Y-18.824
X10.732 Y-18.335
X11.618 Y-17.802
X12.478 Y-17.226
X13.309 Y-16.609
X14.11 Y-15.951
X14.878 Y-15.255
X15.612 Y-14.522
X15.82 Y-14.293
X16.096 Y-13.944
X16.323 Y-13.561
X16.496 Y-13.151
X16.613 Y-12.722
X16.67 Y-12.281
X16.689 Y-11.99
X16.728 Y-11.69
X16.791 Y-11.39
X16.858 Y-11.091
X17.085 Y-10.487
X17.217 Y-10.191
X17.385 Y-9.854
X18.118 Y-8.393
X18.268 Y-8.093
X18.398 Y-7.793
X18.511 Y-7.494
X19.057 Y-5.995
X19.152 Y-5.695
X19.183 Y-5.596
X19.232 Y-5.395
X19.516 Y-4.196
X19.579 Y-3.897
X19.699 Y-3.297
X19.743 Y-2.997
X19.918 Y-1.499
X19.938 Y-1.199
X19.954 Y-0.599
X19.958 Y-0.3
Y0.3
X19.954 Y0.599
X19.938 Y1.199
X19.918 Y1.499
X19.743 Y2.997
X19.699 Y3.297
X19.579 Y3.897
X19.516 Y4.196
X19.232 Y5.395
X19.183 Y5.596
X19.152 Y5.695
X19.057 Y5.995
X18.511 Y7.494
X18.398 Y7.793
X18.268 Y8.093
X17.968 Y8.693
X17.366 Y9.892
X17.217 Y10.191
X17.083 Y10.491
X16.858 Y11.091
X16.785 Y11.42
X16.728 Y11.69
X16.721 Y11.74
X16.682 Y11.955
X16.632 Y12.169
X16.562 Y12.416
X16.464 Y12.703
X16.35 Y12.993
X16.194 Y13.337
X16.015 Y13.687
X15.784 Y14.091
X15.523 Y14.498
X15.192 Y14.962
X14.83 Y15.421
X14.398 Y15.917
X13.892 Y16.444
X13.345 Y16.961
X12.738 Y17.481
X12.061 Y18.007
X11.321 Y18.525
X10.527 Y19.026
X9.685 Y19.501
X8.801 Y19.944
X7.885 Y20.35
X6.938 Y20.714
X5.964 Y21.036
X4.966 Y21.313
X3.948 Y21.542
X2.913 Y21.723
X1.865 Y21.854
X0.808 Y21.934
X-0.255 Y21.963
X-1.321 Y21.939
X-2.386 Y21.864
X-3.447 Y21.737
X-4.503 Y21.558
X-5.549 Y21.328
X-6.584 Y21.047
X-7.606 Y20.716
X-8.61 Y20.335
X-9.596 Y19.905
X-10.56 Y19.428
X-11.5 Y18.903
X-12.414 Y18.334
X-13.3 Y17.72
X-14.156 Y17.063
X-14.98 Y16.365
X-15.635 Y15.752
X-15.774 Y15.609
X-16.075 Y15.25
X-16.323 Y14.853
X-16.512 Y14.424
X-16.638 Y13.973
X-16.699 Y13.508
X-16.694 Y13.04
G3 X-15.749 Y12.158 I0.993 J0.117
G1 X15.678 Y10.645
G3 X16.721 Y11.74 I0.048 J0.999
G1 X16.689 Y11.99
X16.67 Y12.29
X16.657 Y12.589
X16.695 Y13.054
X16.703 Y13.29
X16.7 Y13.44
X16.689 Y13.618
X16.668 Y13.801
X16.632 Y14.016
X16.585 Y14.236
X16.517 Y14.49
X16.434 Y14.752
X16.322 Y15.05
X16.19 Y15.356
X16.021 Y15.702
X15.83 Y16.048
X15.59 Y16.438
X15.319 Y16.832
X14.998 Y17.254
X14.615 Y17.71
X14.203 Y18.156
X13.717 Y18.631
X13.158 Y19.128
X12.552 Y19.615
X11.892 Y20.095
X11.158 Y20.576
X10.358 Y21.047
X9.498 Y21.497
X8.587 Y21.92
X7.63 Y22.308
X6.638 Y22.655
X5.615 Y22.958
X4.563 Y23.215
X3.483 Y23.423
X2.379 Y23.581
X1.257 Y23.686
X0.124 Y23.736
X-1.017 Y23.732
X-2.161 Y23.671
X-3.301 Y23.555
X-4.434 Y23.384
X-5.558 Y23.158
X-6.669 Y22.879
X-7.765 Y22.546
X-8.845 Y22.16
X-9.904 Y21.724
X-10.941 Y21.236
X-11.954 Y20.7
X-12.94 Y20.116
X-13.896 Y19.485
X-14.689 Y18.906
X-15.249 Y18.453
X-15.653 Y18.093
X-15.984 Y17.768
X-16.276 Y17.451
X-16.411 Y17.29
X-16.693 Y16.895
X-16.911 Y16.461
X-17.06 Y15.998
X-17.136 Y15.518
X-17.138 Y15.032
X-17.066 Y14.552
X-16.92 Y14.088
X-16.834 Y13.788
X-16.764 Y13.488
X-16.706 Y13.189
X-16.694 Y13.04
G3 X-15.7 Y12.157 I0.993 J0.117
G1 X15.702 Y12.171
G3 X16.695 Y13.054 I0. J1.
G1 X16.706 Y13.189
X16.764 Y13.488
X16.834 Y13.788
X16.92 Y14.088
X16.962 Y14.232
X16.99 Y14.379
X17.009 Y14.528
X17.021 Y14.684
X17.026 Y14.847
X17.022 Y15.035
X17.008 Y15.231
X16.982 Y15.449
X16.942 Y15.683
X16.887 Y15.933
X16.812 Y16.209
X16.72 Y16.494
X16.6 Y16.811
X16.46 Y17.132
X16.286 Y17.483
X16.079 Y17.855
X15.841 Y18.237
X15.552 Y18.655
X15.23 Y19.075
X14.861 Y19.51
X14.427 Y19.975
X13.945 Y20.443
X13.416 Y20.908
X12.809 Y21.392
X12.129 Y21.883
X11.387 Y22.364
X10.608 Y22.818
X9.757 Y23.259
X8.84 Y23.679
X7.866 Y24.069
X6.841 Y24.423
X5.771 Y24.735
X4.663 Y25.
X3.537 Y25.213
X2.402 Y25.371
X1.261 Y25.475
X0.116 Y25.527
X-1.03 Y25.525
X-2.174 Y25.47
X-3.315 Y25.363
X-4.45 Y25.203
X-5.576 Y24.992
X-6.692 Y24.731
X-7.795 Y24.42
X-8.883 Y24.06
X-9.953 Y23.652
X-11.005 Y23.197
X-12.035 Y22.695
X-13.042 Y22.148
X-13.969 Y21.588
X-14.72 Y21.082
X-15.347 Y20.614
X-15.825 Y20.219
X-16.204 Y19.874
X-16.526 Y19.55
X-16.794 Y19.254
X-17.025 Y18.972
X-17.238 Y18.683
X-17.407 Y18.43
X-17.452 Y18.356
X-17.646 Y17.974
X-17.784 Y17.568
X-17.865 Y17.147
X-17.886 Y16.719
X-17.848 Y16.292
X-17.75 Y15.874
X-17.594 Y15.475
X-17.385 Y15.101
G3 X-16.581 Y14.646 I0.839 J0.545
G1 X15.97 Y13.493
G3 X16.92 Y14.088 I0.035 J0.999
G1 X17.16 Y14.687
X17.285 Y14.927
X17.347 Y15.063
X17.401 Y15.203
X17.444 Y15.347
X17.479 Y15.492
X17.507 Y15.642
X17.527 Y15.799
X17.542 Y15.978
X17.549 Y16.166
X17.546 Y16.374
X17.532 Y16.6
X17.505 Y16.834
X17.463 Y17.099
X17.405 Y17.368
X17.328 Y17.663
X17.228 Y17.979
X17.109 Y18.3
X16.957 Y18.656
X16.78 Y19.021
X16.571 Y19.402
X16.318 Y19.814
X16.036 Y20.228
X15.71 Y20.66
X15.324 Y21.122
X14.895 Y21.587
X14.421 Y22.055
X13.878 Y22.54
X13.264 Y23.036
X12.597 Y23.524
X11.885 Y23.994
X11.093 Y24.462
X10.226 Y24.92
X9.29 Y25.357
X8.29 Y25.766
X7.238 Y26.138
X6.144 Y26.465
X5.032 Y26.74
X3.908 Y26.962
X2.774 Y27.131
X1.634 Y27.248
X0.49 Y27.315
X-0.655 Y27.331
X-1.801 Y27.297
X-2.944 Y27.214
X-4.082 Y27.082
X-5.213 Y26.901
X-6.337 Y26.674
X-7.449 Y26.399
X-8.549 Y26.078
X-9.635 Y25.712
X-10.704 Y25.3
X-11.756 Y24.845
X-12.787 Y24.345
X-13.753 Y23.82
X-14.606 Y23.302
X-15.303 Y22.83
X-15.903 Y22.379
X-16.415 Y21.954
X-16.853 Y21.554
X-17.2 Y21.204
X-17.498 Y20.872
X-17.748 Y20.565
X-17.965 Y20.271
X-18.15 Y19.993
X-18.319 Y19.709
X-18.455 Y19.454
X-18.586 Y19.175
X-18.687 Y18.93
X-18.773 Y18.689
X-18.879 Y18.289
X-18.917 Y17.878
X-18.886 Y17.466
X-18.787 Y17.065
X-18.623 Y16.686
X-18.398 Y16.34
X-18.118 Y16.036
X-17.984 Y15.884
X-17.684 Y15.528
X-17.507 Y15.287
X-17.385 Y15.101
G3 X-16.576 Y14.679 I0.816 J0.578
G1 X16.407 Y14.419
G3 X17.285 Y14.927 I0.008 J1.
G1 X17.316 Y14.987
X17.385 Y15.101
X17.507 Y15.287
X17.684 Y15.528
X17.712 Y15.56
X17.802 Y15.68
X17.887 Y15.803
X17.961 Y15.934
X18.026 Y16.069
X18.082 Y16.208
X18.131 Y16.35
X18.172 Y16.494
X18.206 Y16.64
X18.234 Y16.788
X18.256 Y16.936
X18.272 Y17.085
X18.282 Y17.235
X18.288 Y17.385
Y17.535
X18.284 Y17.685
X18.275 Y17.834
X18.262 Y17.984
X18.245 Y18.133
X18.224 Y18.281
X18.199 Y18.429
X18.171 Y18.577
X18.139 Y18.723
X18.104 Y18.869
X18.065 Y19.014
X18.023 Y19.158
X17.979 Y19.301
X17.931 Y19.444
X17.881 Y19.585
X17.828 Y19.725
X17.772 Y19.864
X17.714 Y20.003
X17.653 Y20.14
X17.59 Y20.276
X17.525 Y20.411
X17.457 Y20.545
X17.388 Y20.678
X17.316 Y20.81
X17.242 Y20.94
X17.167 Y21.07
X17.089 Y21.198
X17.009 Y21.325
X16.928 Y21.451
X16.845 Y21.576
X16.76 Y21.7
X16.674 Y21.823
X16.586 Y21.944
X16.497 Y22.064
X16.406 Y22.184
X16.313 Y22.302
X16.219 Y22.419
X16.124 Y22.534
X16.027 Y22.649
X15.929 Y22.763
X15.83 Y22.875
X15.729 Y22.986
X15.627 Y23.097
X15.524 Y23.206
X15.42 Y23.314
X15.315 Y23.42
X15.208 Y23.526
X15.101 Y23.631
X14.992 Y23.734
X14.883 Y23.836
X14.772 Y23.938
X14.66 Y24.038
X14.548 Y24.137
X14.434 Y24.235
X14.32 Y24.332
X14.204 Y24.428
X14.088 Y24.523
X13.971 Y24.617
X13.853 Y24.709
X13.735 Y24.801
X13.615 Y24.892
X13.495 Y24.981
X13.373 Y25.069
X13.252 Y25.157
X13.129 Y25.243
X13.006 Y25.329
X12.882 Y25.413
X12.757 Y25.497
X12.632 Y25.579
X12.506 Y25.66
X12.379 Y25.741
X12.252 Y25.82
X12.124 Y25.899
X11.996 Y25.976
X11.866 Y26.053
X11.737 Y26.128
X11.607 Y26.202
X11.476 Y26.276
X11.344 Y26.348
X11.08 Y26.491
X10.947 Y26.56
X10.814 Y26.629
X10.68 Y26.697
X10.546 Y26.763
X10.411 Y26.829
X10.14 Y26.958
X9.868 Y27.083
X9.731 Y27.145
X9.593 Y27.205
X9.455 Y27.264
X9.179 Y27.38
X8.9 Y27.492
X8.761 Y27.547
X8.621 Y27.601
X8.481 Y27.654
X8.199 Y27.756
X7.916 Y27.856
X7.631 Y27.952
X7.489 Y27.999
X7.203 Y28.089
X6.916 Y28.176
X6.627 Y28.259
X6.338 Y28.339
X6.048 Y28.415
X5.757 Y28.488
X5.465 Y28.558
X5.173 Y28.624
X4.879 Y28.686
X4.585 Y28.745
X4.29 Y28.8
X3.995 Y28.853
X3.699 Y28.902
X3.402 Y28.947
X3.105 Y28.989
X2.808 Y29.028
X2.51 Y29.063
X2.212 Y29.095
X1.913 Y29.123
X1.614 Y29.149
X1.315 Y29.171
X1.015 Y29.189
X0.716 Y29.204
X0.416 Y29.217
X0.116 Y29.225
X-0.184 Y29.231
X-0.484 Y29.233
X-0.784 Y29.232
X-1.084 Y29.228
X-1.384 Y29.221
X-1.683 Y29.21
X-1.983 Y29.196
X-2.283 Y29.179
X-2.582 Y29.159
X-2.881 Y29.136
X-3.18 Y29.109
X-3.478 Y29.08
X-3.777 Y29.047
X-4.075 Y29.011
X-4.372 Y28.972
X-4.669 Y28.93
X-4.966 Y28.885
X-5.262 Y28.836
X-5.557 Y28.785
X-5.852 Y28.731
X-6.147 Y28.673
X-6.44 Y28.612
X-6.734 Y28.549
X-7.026 Y28.482
X-7.318 Y28.412
X-7.609 Y28.34
X-7.899 Y28.264
X-8.189 Y28.186
X-8.478 Y28.104
X-8.765 Y28.019
X-9.052 Y27.932
X-9.338 Y27.842
X-9.623 Y27.748
X-9.908 Y27.652
X-10.191 Y27.552
X-10.473 Y27.45
X-10.754 Y27.345
X-11.033 Y27.237
X-11.312 Y27.126
X-11.59 Y27.012
X-11.866 Y26.894
X-12.141 Y26.774
X-12.414 Y26.651
X-12.686 Y26.524
X-12.957 Y26.395
X-13.225 Y26.262
X-13.359 Y26.194
X-13.493 Y26.125
X-13.626 Y26.056
X-13.89 Y25.914
X-14.153 Y25.77
X-14.284 Y25.696
X-14.414 Y25.621
X-14.543 Y25.545
X-14.801 Y25.392
X-14.929 Y25.313
X-15.056 Y25.234
X-15.183 Y25.153
X-15.309 Y25.072
X-15.434 Y24.99
X-15.559 Y24.907
X-15.683 Y24.822
X-15.806 Y24.737
X-15.929 Y24.651
X-16.051 Y24.563
X-16.172 Y24.475
X-16.292 Y24.385
X-16.412 Y24.294
X-16.53 Y24.203
X-16.648 Y24.11
X-16.765 Y24.015
X-16.881 Y23.92
X-16.995 Y23.824
X-17.109 Y23.726
X-17.222 Y23.627
X-17.333 Y23.527
X-17.444 Y23.425
X-17.553 Y23.322
X-17.661 Y23.218
X-17.768 Y23.113
X-17.873 Y23.006
X-17.978 Y22.898
X-18.08 Y22.789
X-18.181 Y22.678
X-18.281 Y22.566
X-18.379 Y22.453
X-18.476 Y22.338
X-18.571 Y22.222
X-18.664 Y22.105
X-18.756 Y21.986
X-18.845 Y21.865
X-18.933 Y21.744
X-19.019 Y21.621
X-19.103 Y21.496
X-19.184 Y21.37
X-19.264 Y21.243
X-19.341 Y21.114
X-19.415 Y20.984
X-19.487 Y20.852
X-19.555 Y20.719
X-19.621 Y20.584
X-19.684 Y20.448
X-19.744 Y20.311
X-19.8 Y20.171
X-19.853 Y20.031
X-19.902 Y19.889
X-19.947 Y19.746
X-19.989 Y19.602
X-20.027 Y19.457
X-20.06 Y19.311
X-20.089 Y19.163
X-20.114 Y19.016
X-20.134 Y18.867
X-20.149 Y18.718
X-20.16 Y18.568
X-20.166 Y18.418
X-20.116 Y18.051
X-19.994 Y17.701
X-19.805 Y17.383
X-19.556 Y17.108
X-19.258 Y16.889
G3 X-18.822 Y16.768 I0.478 J0.878
G1 X-18.493 Y16.754
X16.927 Y15.232
G3 X17.712 Y15.56 I0.043 J0.999
G1 X17.986 Y15.886
X18.118 Y16.036
X18.281 Y16.186
X18.391 Y16.288
X18.495 Y16.396
X18.59 Y16.513
X18.674 Y16.636
X18.751 Y16.765
X18.82 Y16.898
X18.881 Y17.035
X18.936 Y17.175
X18.984 Y17.317
X19.025 Y17.461
X19.061 Y17.607
X19.091 Y17.754
X19.116 Y17.902
X19.136 Y18.051
X19.15 Y18.2
X19.16 Y18.349
X19.166 Y18.499
X19.167 Y18.649
X19.164 Y18.799
X19.157 Y18.949
X19.146 Y19.099
X19.131 Y19.248
X19.113 Y19.397
X19.091 Y19.545
X19.066 Y19.693
X19.037 Y19.84
X19.006 Y19.987
X18.971 Y20.133
X18.933 Y20.278
X18.893 Y20.423
X18.849 Y20.566
X18.803 Y20.709
X18.755 Y20.851
X18.704 Y20.992
X18.65 Y21.132
X18.594 Y21.271
X18.536 Y21.409
X18.476 Y21.547
X18.413 Y21.683
X18.348 Y21.818
X18.281 Y21.953
X18.212 Y22.086
X18.141 Y22.218
X18.069 Y22.349
X17.994 Y22.479
X17.918 Y22.608
X17.84 Y22.736
X17.76 Y22.863
X17.678 Y22.989
X17.595 Y23.114
X17.51 Y23.238
X17.424 Y23.361
X17.336 Y23.482
X17.247 Y23.603
X17.157 Y23.722
X17.065 Y23.841
X16.971 Y23.958
X16.876 Y24.075
X16.78 Y24.19
X16.683 Y24.304
X16.584 Y24.417
X16.485 Y24.529
X16.384 Y24.64
X16.282 Y24.75
X16.178 Y24.859
X16.074 Y24.966
X15.969 Y25.073
X15.862 Y25.179
X15.76 Y25.279
G3 X14.142 Y24.214 I-0.672 J-0.74
G1 X16.734 Y16.661
G3 X18.281 Y16.186 I0.946 J0.325
G1 X18.652 Y16.486
X18.883 Y16.658
X18.917 Y16.679
X19.04 Y16.765
X19.16 Y16.855
X19.271 Y16.956
X19.374 Y17.066
X19.468 Y17.182
X19.555 Y17.304
X19.635 Y17.431
X19.709 Y17.562
X19.776 Y17.696
X19.837 Y17.833
X19.892 Y17.973
X19.941 Y18.114
X19.985 Y18.258
X20.024 Y18.402
X20.058 Y18.549
X20.087 Y18.696
X20.111 Y18.844
X20.131 Y18.992
X20.147 Y19.142
X20.158 Y19.291
X20.165 Y19.441
X20.168 Y19.591
Y19.741
X20.164 Y19.891
X20.156 Y20.041
X20.145 Y20.19
X20.13 Y20.34
X20.113 Y20.489
X20.092 Y20.637
X20.068 Y20.785
X20.034 Y21.07
X20.022 Y21.356
X20.032 Y21.642
X20.065 Y21.927
X20.12 Y22.208
X20.197 Y22.484
X20.295 Y22.753
X20.414 Y23.014
X20.552 Y23.264
X20.71 Y23.503
X20.886 Y23.729
X21.079 Y23.941
X21.289 Y24.137
X21.512 Y24.316
X21.749 Y24.477
X21.998 Y24.618
X22.257 Y24.741
X22.525 Y24.842
X22.8 Y24.922
X23.081 Y24.981
X23.365 Y25.017
X23.651 Y25.031
X23.937 Y25.023
X24.222 Y24.992
X24.504 Y24.939
X24.78 Y24.865
X25.05 Y24.769
X26.097 Y24.302
X26.962 Y23.551
X27.286 Y23.278
X27.649 Y23.062
X28.043 Y22.907
X28.456 Y22.819
X28.879 Y22.799
X29.299 Y22.847
X29.705 Y22.964
X30.088 Y23.145
G3 X30.532 Y23.768 I-0.53 J0.848
G1 X30.559 Y23.885 Z-0.993
X30.586 Y24.001 Z-0.971
X30.612 Y24.113 Z-0.935
X30.637 Y24.221 Z-0.885
X30.66 Y24.321 Z-0.823
X30.681 Y24.414 Z-0.749
X30.701 Y24.497 Z-0.663
X30.717 Y24.57 Z-0.568
X30.731 Y24.631 Z-0.465
X30.743 Y24.679 Z-0.355
X30.751 Y24.714 Z-0.239
X30.756 Y24.735 Z-0.121
X30.757 Y24.742 Z0.
G0 Z5.
X-35.672 Y27.559
Z1.
G1 Z0. F2328.
X-35.666 Y27.554 Z-0.121
X-35.651 Y27.539 Z-0.239
X-35.625 Y27.514 Z-0.355
X-35.59 Y27.479 Z-0.465
X-35.545 Y27.435 Z-0.568
X-35.492 Y27.383 Z-0.663
X-35.431 Y27.323 Z-0.749
X-35.363 Y27.257 Z-0.823
X-35.289 Y27.185 Z-0.885
X-35.21 Y27.108 Z-0.935
X-35.128 Y27.027 Z-0.971
X-35.043 Y26.944 Z-0.993
X-34.957 Y26.86 Z-1.
G3 X-30.634 Y23.46 I17.852 J18.251
G1 X-30.495 Y23.38
X-30.456 Y23.36
X-30.309 Y23.388
X-30.164 Y23.426
X-30.021 Y23.471
X-29.88 Y23.522
X-29.741 Y23.579
X-29.603 Y23.638
X-29.466 Y23.7
X-29.331 Y23.764
X-29.197 Y23.831
X-29.063 Y23.9
X-28.931 Y23.97
X-28.8 Y24.043
X-28.669 Y24.117
X-28.54 Y24.193
X-28.411 Y24.27
X-28.167 Y24.421
X-27.913 Y24.551
X-27.648 Y24.662
X-27.376 Y24.751
X-27.098 Y24.819
X-26.815 Y24.865
X-26.53 Y24.889
X-26.243 Y24.891
X-25.957 Y24.87
X-25.674 Y24.827
X-25.395 Y24.762
X-25.122 Y24.675
X-24.857 Y24.567
X-24.601 Y24.439
X-24.355 Y24.292
X-24.122 Y24.125
X-23.902 Y23.941
X-23.698 Y23.74
X-23.51 Y23.524
X-23.339 Y23.294
X-23.187 Y23.051
X-23.054 Y22.798
X-22.942 Y22.534
X-22.575 Y21.448
X-22.548 Y21.15
X-22.533 Y21.
X-22.517 Y20.851
X-22.5 Y20.702
X-22.482 Y20.553
X-22.462 Y20.405
X-22.44 Y20.256
X-22.416 Y20.103
X-22.302 Y19.632
X-22.119 Y19.183
X-21.873 Y18.766
X-21.569 Y18.389
X-21.212 Y18.061
X-20.812 Y17.789
X-19.445 Y17.
X-19.258 Y16.889
G3 X-18.785 Y16.767 I0.478 J0.878
G1 X-18.493 Y16.765
X18.155 Y16.547
X18.412 Y16.545
G3 X18.917 Y16.679 I0.006 J1.
G1 X19.183 Y16.845
X19.483 Y17.022
X19.782 Y17.195
X19.908 Y17.276
X20.027 Y17.368
X20.139 Y17.468
X20.243 Y17.576
X20.989 Y18.446
X21.919 Y19.115
X22.96 Y19.594
X24.057 Y19.926
X24.153 Y19.943
X24.523 Y20.032
X24.879 Y20.163
X25.218 Y20.333
G3 X24.703 Y21.19 I-0.265 J0.424
G1 X19.298 Y18.069
G3 X19.782 Y17.195 I0.25 J-0.433
G1 X26.541 Y21.097
G3 X26.986 Y21.72 I-0.53 J0.848
G1 X27.013 Y21.838 Z-0.993
X27.04 Y21.953 Z-0.971
X27.066 Y22.066 Z-0.935
X27.09 Y22.173 Z-0.885
X27.114 Y22.274 Z-0.823
X27.135 Y22.366 Z-0.749
X27.154 Y22.45 Z-0.663
X27.171 Y22.522 Z-0.568
X27.185 Y22.583 Z-0.465
X27.196 Y22.631 Z-0.355
X27.204 Y22.666 Z-0.239
X27.209 Y22.688 Z-0.121
X27.211 Y22.695 Z0.
G0 Z5.
X-31.526 Y24.821
Z1.
G1 Z0. F2328.
X-31.523 Y24.815 Z-0.121
X-31.512 Y24.796 Z-0.239
X-31.495 Y24.764 Z-0.355
X-31.47 Y24.721 Z-0.465
X-31.44 Y24.666 Z-0.568
X-31.403 Y24.601 Z-0.663
X-31.362 Y24.527 Z-0.749
X-31.315 Y24.444 Z-0.823
X-31.265 Y24.354 Z-0.885
X-31.211 Y24.258 Z-0.935
X-31.154 Y24.157 Z-0.971
X-31.096 Y24.054 Z-0.993
X-31.037 Y23.949 Z-1.
G3 X-30.495 Y23.38 I1.381 J0.774
G1 X-20.812 Y17.789
X-20.809 Y17.788
G2 X-15.852 Y15.04 I-5.313 J-15.43
X-15.49 Y14.399 I-0.629 J-0.777
G1 X-12.64 Y-6.375
G2 X-12.816 Y-7.089 I-0.991 J-0.136
X-16.85 Y-11.07 I-13.306 J9.448
G1 X-16.858 Y-11.091
X-16.785 Y-11.42
X-16.728 Y-11.69
X-16.689 Y-11.99
X-16.67 Y-12.29
X-16.657 Y-12.589
X-16.65 Y-12.739
X-16.624 Y-12.929
X-16.586 Y-13.134
X-16.528 Y-13.376
X-16.457 Y-13.62
X-16.358 Y-13.908
X-16.241 Y-14.201
X-16.087 Y-14.538
X-15.911 Y-14.879
X-15.685 Y-15.269
X-15.434 Y-15.656
X-15.122 Y-16.09
X-14.768 Y-16.536
X-14.363 Y-16.996
X-13.886 Y-17.489
X-13.352 Y-17.989
X-12.776 Y-18.478
X-12.125 Y-18.979
X-11.405 Y-19.479
X-10.624 Y-19.966
X-9.79 Y-20.432
X-8.914 Y-20.867
X-8.003 Y-21.265
X-7.052 Y-21.627
X-6.062 Y-21.949
X-5.041 Y-22.227
X-3.994 Y-22.458
X-2.928 Y-22.64
X-1.846 Y-22.77
X-0.753 Y-22.848
X0.347 Y-22.873
X1.451 Y-22.844
X2.554 Y-22.762
X3.655 Y-22.625
X4.75 Y-22.435
X5.836 Y-22.191
X6.911 Y-21.894
X7.97 Y-21.545
X9.013 Y-21.145
X10.035 Y-20.693
X11.036 Y-20.192
X12.011 Y-19.643
X12.96 Y-19.046
X13.878 Y-18.404
X14.725 Y-17.748
X15.309 Y-17.249
X15.721 Y-16.86
X16.061 Y-16.506
X16.33 Y-16.151
X16.549 Y-15.763
X16.714 Y-15.349
X16.822 Y-14.917
X16.871 Y-14.474
X16.859 Y-14.028
X16.787 Y-13.588
G3 X15.858 Y-12.85 I-0.965 J-0.261
G1 X-15.627 Y-11.707
G3 X-16.657 Y-12.589 I-0.036 J-0.999
G1 X-16.706 Y-13.189
X-16.764 Y-13.488
X-16.785 Y-13.579
X-16.812 Y-13.727
X-16.829 Y-13.876
X-16.838 Y-14.026
X-16.84 Y-14.185
X-16.833 Y-14.362
X-16.815 Y-14.554
X-16.786 Y-14.767
X-16.743 Y-14.996
X-16.684 Y-15.244
X-16.605 Y-15.516
X-16.507 Y-15.799
X-16.38 Y-16.116
X-16.234 Y-16.437
X-16.046 Y-16.799
X-15.835 Y-17.162
X-15.581 Y-17.554
X-15.278 Y-17.975
X-14.946 Y-18.392
X-14.549 Y-18.844
X-14.091 Y-19.316
X-13.6 Y-19.775
X-13.033 Y-20.257
X-12.392 Y-20.749
X-11.687 Y-21.237
X-10.947 Y-21.699
X-10.143 Y-22.148
X-9.272 Y-22.579
X-8.341 Y-22.985
X-7.359 Y-23.358
X-6.332 Y-23.692
X-5.266 Y-23.982
X-4.168 Y-24.223
X-3.045 Y-24.414
X-1.907 Y-24.55
X-0.764 Y-24.632
X0.382 Y-24.658
X1.527 Y-24.631
X2.67 Y-24.549
X3.808 Y-24.413
X4.938 Y-24.224
X6.058 Y-23.982
X7.166 Y-23.688
X8.258 Y-23.343
X9.334 Y-22.947
X10.39 Y-22.502
X11.424 Y-22.008
X12.434 Y-21.467
X13.418 Y-20.881
X14.305 Y-20.294
X14.994 Y-19.789
X15.492 Y-19.385
X15.86 Y-19.055
X16.198 Y-18.721
X16.463 Y-18.433
X16.713 Y-18.132
X16.915 Y-17.865
X16.98 Y-17.768
X17.21 Y-17.367
X17.376 Y-16.935
X17.473 Y-16.483
X17.5 Y-16.021
X17.456 Y-15.561
X17.342 Y-15.113
X17.16 Y-14.687
X16.92 Y-14.088
X16.834 Y-13.788
X16.787 Y-13.588
G3 X15.822 Y-12.849 I-0.965 J-0.261
G1 X-15.82 Y-12.84
G3 X-16.785 Y-13.579 I0. J-1.
G1 X-16.834 Y-13.788
X-16.92 Y-14.088
X-17.085 Y-14.499
X-17.145 Y-14.674
X-17.187 Y-14.818
X-17.219 Y-14.964
X-17.243 Y-15.112
X-17.26 Y-15.268
X-17.27 Y-15.437
X-17.272 Y-15.627
X-17.265 Y-15.824
X-17.246 Y-16.048
X-17.215 Y-16.278
X-17.167 Y-16.534
X-17.103 Y-16.806
X-17.021 Y-17.091
X-16.913 Y-17.408
X-16.787 Y-17.726
X-16.627 Y-18.078
X-16.438 Y-18.445
X-16.22 Y-18.821
X-15.955 Y-19.232
X-15.658 Y-19.648
X-15.316 Y-20.08
X-14.911 Y-20.543
X-14.461 Y-21.009
X-13.97 Y-21.472
X-13.407 Y-21.952
X-12.772 Y-22.442
X-12.076 Y-22.927
X-11.342 Y-23.387
X-10.531 Y-23.842
X-9.646 Y-24.284
X-8.696 Y-24.701
X-7.687 Y-25.088
X-6.626 Y-25.435
X-5.521 Y-25.739
X-4.403 Y-25.988
X-3.274 Y-26.184
X-2.137 Y-26.326
X-0.994 Y-26.416
X0.151 Y-26.453
X1.297 Y-26.439
X2.441 Y-26.374
X3.581 Y-26.258
X4.715 Y-26.092
X5.84 Y-25.876
X6.955 Y-25.612
X8.058 Y-25.3
X9.146 Y-24.94
X10.217 Y-24.534
X11.27 Y-24.082
X12.303 Y-23.586
X13.313 Y-23.044
X14.205 Y-22.507
X14.93 Y-22.023
X15.545 Y-21.567
X16.071 Y-21.136
X16.474 Y-20.771
X16.837 Y-20.408
X17.105 Y-20.114
X17.366 Y-19.798
X17.565 Y-19.531
X17.758 Y-19.242
X17.918 Y-18.977
X18.054 Y-18.725
X18.118 Y-18.592
X18.281 Y-18.165
X18.372 Y-17.717
X18.388 Y-17.26
X18.33 Y-16.807
X18.199 Y-16.369
X17.999 Y-15.959
X17.734 Y-15.587
G3 X17.033 Y-15.258 I-0.742 J-0.671
G1 X-16.129 Y-13.904
G3 X-17.085 Y-14.499 I-0.041 J-0.999
G1 X-17.16 Y-14.687
X-17.316 Y-14.987
X-17.385 Y-15.101
X-17.507 Y-15.287
X-17.589 Y-15.412
X-17.654 Y-15.548
X-17.709 Y-15.687
X-17.756 Y-15.83
X-17.794 Y-15.975
X-17.826 Y-16.129
X-17.852 Y-16.293
X-17.873 Y-16.479
X-17.885 Y-16.672
X-17.887 Y-16.887
X-17.879 Y-17.119
X-17.858 Y-17.359
X-17.822 Y-17.628
X-17.771 Y-17.905
X-17.701 Y-18.202
X-17.608 Y-18.526
X-17.497 Y-18.852
X-17.356 Y-19.209
X-17.184 Y-19.587
X-16.989 Y-19.968
X-16.753 Y-20.377
X-16.474 Y-20.809
X-16.169 Y-21.237
X-15.808 Y-21.693
X-15.388 Y-22.175
X-14.933 Y-22.647
X-14.425 Y-23.125
X-13.846 Y-23.619
X-13.196 Y-24.123
X-12.49 Y-24.615
X-11.738 Y-25.087
X-10.904 Y-25.556
X-9.993 Y-26.012
X-9.012 Y-26.443
X-7.974 Y-26.841
X-6.885 Y-27.199
X-5.78 Y-27.503
X-4.663 Y-27.756
X-3.534 Y-27.956
X-2.398 Y-28.106
X-1.257 Y-28.204
X-0.112 Y-28.253
X1.034
X2.179 Y-28.204
X3.321 Y-28.108
X4.458 Y-27.964
X5.588 Y-27.774
X6.709 Y-27.537
X7.82 Y-27.256
X8.918 Y-26.929
X10.002 Y-26.559
X11.071 Y-26.145
X12.122 Y-25.688
X13.152 Y-25.186
X14.102 Y-24.666
X14.944 Y-24.15
X15.642 Y-23.674
X16.251 Y-23.214
X16.767 Y-22.783
X17.218 Y-22.368
X17.615 Y-21.964
X17.939 Y-21.601
X18.226 Y-21.247
X18.456 Y-20.932
X18.651 Y-20.638
X18.828 Y-20.338
X18.964 Y-20.08
X19.097 Y-19.795
X19.203 Y-19.537
X19.288 Y-19.295
X19.379 Y-18.881
X19.409 Y-18.457
X19.375 Y-18.034
X19.28 Y-17.62
X19.125 Y-17.225
X18.913 Y-16.857
X18.649 Y-16.524
X18.34 Y-16.234
G3 X17.772 Y-16.034 I-0.601 J-0.8
G1 X17.598 Y-16.028
X-16.69 Y-14.908
G3 X-17.507 Y-15.287 I-0.033 J-0.999
G1 X-17.684 Y-15.528
X-17.986 Y-15.886
X-18.026 Y-15.932
X-18.119 Y-16.049
X-18.209 Y-16.169
X-18.289 Y-16.296
X-18.36 Y-16.429
X-18.423 Y-16.565
X-18.478 Y-16.704
X-18.526 Y-16.846
X-18.567 Y-16.991
X-18.602 Y-17.136
X-18.631 Y-17.284
X-18.654 Y-17.432
X-18.672 Y-17.581
X-18.684 Y-17.73
X-18.692 Y-17.88
X-18.695 Y-18.03
X-18.693 Y-18.18
X-18.687 Y-18.33
X-18.677 Y-18.48
X-18.663 Y-18.629
X-18.645 Y-18.778
X-18.623 Y-18.926
X-18.598 Y-19.074
X-18.569 Y-19.221
X-18.537 Y-19.368
X-18.502 Y-19.514
X-18.464 Y-19.659
X-18.422 Y-19.803
X-18.378 Y-19.946
X-18.331 Y-20.089
X-18.282 Y-20.23
X-18.229 Y-20.371
X-18.175 Y-20.511
X-18.117 Y-20.649
X-18.058 Y-20.787
X-17.996 Y-20.924
X-17.932 Y-21.059
X-17.865 Y-21.194
X-17.797 Y-21.327
X-17.727 Y-21.46
X-17.654 Y-21.591
X-17.58 Y-21.721
X-17.504 Y-21.851
X-17.426 Y-21.979
X-17.346 Y-22.106
X-17.264 Y-22.232
X-17.181 Y-22.356
X-17.096 Y-22.48
X-17.01 Y-22.603
X-16.922 Y-22.724
X-16.832 Y-22.844
X-16.741 Y-22.964
X-16.649 Y-23.082
X-16.555 Y-23.199
X-16.46 Y-23.315
X-16.363 Y-23.429
X-16.265 Y-23.543
X-16.166 Y-23.656
X-16.066 Y-23.767
X-15.964 Y-23.878
X-15.862 Y-23.987
X-15.758 Y-24.095
X-15.653 Y-24.202
X-15.547 Y-24.309
X-15.44 Y-24.413
X-15.332 Y-24.517
X-15.222 Y-24.62
X-15.112 Y-24.722
X-15.001 Y-24.823
X-14.889 Y-24.922
X-14.776 Y-25.021
X-14.662 Y-25.118
X-14.547 Y-25.215
X-14.431 Y-25.311
X-14.315 Y-25.405
X-14.197 Y-25.498
X-14.079 Y-25.59
X-13.96 Y-25.682
X-13.84 Y-25.772
X-13.72 Y-25.861
X-13.598 Y-25.95
X-13.476 Y-26.037
X-13.354 Y-26.123
X-13.23 Y-26.208
X-13.106 Y-26.292
X-12.981 Y-26.375
X-12.856 Y-26.458
X-12.73 Y-26.539
X-12.603 Y-26.619
X-12.476 Y-26.699
X-12.348 Y-26.777
X-12.219 Y-26.854
X-12.09 Y-26.93
X-11.83 Y-27.08
X-11.699 Y-27.154
X-11.568 Y-27.226
X-11.436 Y-27.298
X-11.304 Y-27.368
X-11.171 Y-27.438
X-10.904 Y-27.575
X-10.635 Y-27.708
X-10.5 Y-27.773
X-10.364 Y-27.837
X-10.228 Y-27.9
X-9.955 Y-28.023
X-9.68 Y-28.143
X-9.542 Y-28.202
X-9.403 Y-28.26
X-9.264 Y-28.317
X-8.986 Y-28.428
X-8.705 Y-28.535
X-8.424 Y-28.639
X-8.283 Y-28.689
X-7.999 Y-28.788
X-7.715 Y-28.883
X-7.429 Y-28.974
X-7.142 Y-29.062
X-6.854 Y-29.147
X-6.566 Y-29.227
X-6.276 Y-29.305
X-5.985 Y-29.379
X-5.694 Y-29.45
X-5.401 Y-29.517
X-5.108 Y-29.581
X-4.814 Y-29.642
X-4.52 Y-29.699
X-4.225 Y-29.752
X-3.929 Y-29.803
X-3.633 Y-29.85
X-3.336 Y-29.894
X-3.039 Y-29.934
X-2.741 Y-29.971
X-2.443 Y-30.006
X-2.144 Y-30.036
X-1.846 Y-30.063
X-1.547 Y-30.087
X-1.247 Y-30.108
X-0.948 Y-30.126
X-0.648 Y-30.14
X-0.348 Y-30.151
X-0.048 Y-30.16
X0.251 Y-30.165
X0.551 Y-30.166
X0.851 Y-30.165
X1.151 Y-30.16
X1.451 Y-30.152
X1.751 Y-30.141
X2.051 Y-30.127
X2.35 Y-30.11
X2.65 Y-30.09
X2.949 Y-30.067
X3.248 Y-30.04
X3.546 Y-30.011
X3.844 Y-29.979
X4.142 Y-29.943
X4.44 Y-29.904
X4.737 Y-29.863
X5.034 Y-29.818
X5.33 Y-29.77
X5.625 Y-29.72
X5.921 Y-29.666
X6.215 Y-29.61
X6.509 Y-29.55
X6.803 Y-29.487
X7.095 Y-29.422
X7.387 Y-29.354
X7.679 Y-29.282
X7.969 Y-29.208
X8.259 Y-29.131
X8.549 Y-29.051
X8.837 Y-28.968
X9.124 Y-28.882
X9.411 Y-28.794
X9.697 Y-28.702
X9.981 Y-28.608
X10.265 Y-28.51
X10.548 Y-28.41
X10.83 Y-28.307
X11.11 Y-28.201
X11.39 Y-28.092
X11.668 Y-27.98
X11.945 Y-27.865
X12.221 Y-27.747
X12.495 Y-27.626
X12.769 Y-27.502
X13.04 Y-27.375
X13.31 Y-27.244
X13.579 Y-27.11
X13.712 Y-27.042
X13.846 Y-26.973
X13.978 Y-26.903
X14.242 Y-26.761
X14.505 Y-26.615
X14.635 Y-26.541
X14.765 Y-26.466
X14.894 Y-26.39
X15.151 Y-26.235
X15.279 Y-26.156
X15.406 Y-26.077
X15.532 Y-25.996
X15.658 Y-25.914
X15.784 Y-25.832
X15.908 Y-25.748
X16.032 Y-25.663
X16.155 Y-25.578
X16.278 Y-25.491
X16.399 Y-25.404
X16.52 Y-25.315
X16.64 Y-25.225
X16.76 Y-25.134
X16.878 Y-25.043
X16.996 Y-24.95
X17.113 Y-24.855
X17.229 Y-24.76
X17.344 Y-24.664
X17.458 Y-24.567
X17.571 Y-24.468
X17.683 Y-24.368
X17.794 Y-24.267
X17.904 Y-24.165
X18.013 Y-24.062
X18.12 Y-23.957
X18.227 Y-23.852
X18.332 Y-23.745
X18.436 Y-23.636
X18.538 Y-23.527
X18.639 Y-23.416
X18.739 Y-23.304
X18.837 Y-23.191
X18.934 Y-23.076
X19.029 Y-22.96
X19.122 Y-22.843
X19.214 Y-22.724
X19.304 Y-22.604
X19.392 Y-22.483
X19.479 Y-22.36
X19.563 Y-22.236
X19.645 Y-22.111
X19.725 Y-21.983
X19.803 Y-21.855
X19.878 Y-21.725
X19.95 Y-21.594
X20.02 Y-21.461
X20.087 Y-21.327
X20.151 Y-21.191
X20.212 Y-21.054
X20.27 Y-20.916
X20.324 Y-20.776
X20.375 Y-20.635
X20.422 Y-20.493
X20.495 Y-20.215
X20.553 Y-19.933
X20.575 Y-19.799
X20.61 Y-19.367
X20.581 Y-18.935
X20.488 Y-18.512
X20.333 Y-18.108
X20.12 Y-17.731
X19.853 Y-17.39
X19.538 Y-17.092
X19.183 Y-16.845
G3 X18.714 Y-16.712 I-0.499 J-0.866
G1 X18.421 Y-16.703
X-17.267 Y-15.617
G3 X-18.026 Y-15.932 I-0.03 J-1.
G1 X-18.118 Y-16.036
X-18.284 Y-16.189
X-18.621 Y-16.461
X-18.733 Y-16.561
X-18.837 Y-16.669
X-18.932 Y-16.785
X-19.019 Y-16.907
X-19.098 Y-17.035
X-19.169 Y-17.167
X-19.233 Y-17.303
X-19.296 Y-17.453
X-19.354 Y-17.616
X-19.408 Y-17.794
X-19.457 Y-17.986
X-19.499 Y-18.194
X-19.533 Y-18.418
X-19.558 Y-18.658
X-19.571 Y-18.916
X-19.572 Y-19.19
X-19.559 Y-19.483
X-19.53 Y-19.793
X-19.484 Y-20.122
X-19.417 Y-20.468
X-19.328 Y-20.835
X-19.271 Y-21.026
X-19.239 Y-21.124
X-19.206 Y-21.223
X-19.067 Y-21.624
X-18.898 Y-22.042
X-18.777 Y-22.302
X-18.714 Y-22.43
G3 X-16.835 Y-21.915 I0.879 J0.476
G1 X-17.021 Y-17.221
G3 X-18.621 Y-16.461 I-0.999 J-0.04
G1 X-18.652 Y-16.486
X-18.883 Y-16.658
X-19.183 Y-16.845
X-19.233 Y-16.874
X-19.358 Y-16.957
X-19.481 Y-17.042
X-19.596 Y-17.139
X-19.703 Y-17.244
X-19.803 Y-17.356
X-19.895 Y-17.474
X-19.981 Y-17.597
X-20.061 Y-17.724
X-20.134 Y-17.855
X-20.201 Y-17.989
X-20.263 Y-18.126
X-20.319 Y-18.265
X-20.37 Y-18.406
X-20.415 Y-18.549
X-20.456 Y-18.694
X-20.492 Y-18.839
X-20.523 Y-18.986
X-20.55 Y-19.134
X-20.572 Y-19.282
X-20.59 Y-19.431
X-20.604 Y-19.58
X-20.614 Y-19.73
X-20.621 Y-19.88
X-20.645 Y-20.165
X-20.691 Y-20.448
X-20.758 Y-20.726
X-20.848 Y-20.998
X-20.958 Y-21.263
X-21.089 Y-21.518
X-21.239 Y-21.762
X-21.408 Y-21.993
X-21.594 Y-22.211
X-21.797 Y-22.413
X-22.015 Y-22.599
X-22.247 Y-22.767
X-22.491 Y-22.917
X-22.746 Y-23.047
X-23.011 Y-23.157
X-23.283 Y-23.246
X-23.561 Y-23.313
X-23.844 Y-23.359
X-24.13 Y-23.382
X-24.416 Y-23.383
X-24.702 Y-23.361
X-24.985 Y-23.318
X-25.264 Y-23.252
X-26.355 Y-22.903
X-26.761 Y-22.67
X-27.198 Y-22.505
X-27.656 Y-22.412
X-28.123 Y-22.394
X-28.587 Y-22.451
X-29.036 Y-22.581
X-29.459 Y-22.781
G3 X-29.903 Y-23.405 I0.53 J-0.848
G1 X-29.93 Y-23.522 Z-0.993
X-29.957 Y-23.638 Z-0.971
X-29.983 Y-23.75 Z-0.935
X-30.008 Y-23.857 Z-0.885
X-30.031 Y-23.958 Z-0.823
X-30.052 Y-24.051 Z-0.749
X-30.072 Y-24.134 Z-0.663
X-30.088 Y-24.206 Z-0.568
X-30.102 Y-24.267 Z-0.465
X-30.114 Y-24.316 Z-0.355
X-30.122 Y-24.351 Z-0.239
X-30.126 Y-24.372 Z-0.121
X-30.128 Y-24.379 Z0.
G0 Z5.
X35.672 Y-27.559
Z1.
G1 Z0. F2328.
X35.666 Y-27.554 Z-0.121
X35.651 Y-27.539 Z-0.239
X35.625 Y-27.514 Z-0.355
X35.59 Y-27.479 Z-0.465
X35.545 Y-27.435 Z-0.568
X35.492 Y-27.383 Z-0.663
X35.431 Y-27.323 Z-0.749
X35.363 Y-27.257 Z-0.823
X35.289 Y-27.185 Z-0.885
X35.21 Y-27.108 Z-0.935
X35.128 Y-27.027 Z-0.971
X35.043 Y-26.944 Z-0.993
X34.957 Y-26.86 Z-1.
G3 X30.634 Y-23.46 I-17.852 J-18.251
G1 X30.495 Y-23.38
X30.456 Y-23.36
X30.309 Y-23.388
X30.164 Y-23.426
X30.021 Y-23.471
X29.88 Y-23.522
X29.607 Y-23.609
X29.328 Y-23.674
X29.044 Y-23.716
X28.759 Y-23.737
X28.472 Y-23.735
X28.187 Y-23.711
X27.904 Y-23.665
X27.626 Y-23.596
X27.354 Y-23.506
X27.09 Y-23.396
X26.835 Y-23.265
X26.591 Y-23.114
X25.666 Y-22.437
X24.966 Y-21.531
X24.342 Y-20.569
X24.106 Y-20.174
X23.869 Y-19.828
X23.589 Y-19.515
X23.272 Y-19.24
X22.922 Y-19.008
X19.483 Y-17.022
X19.183 Y-16.845
G3 X18.704 Y-16.723 I-0.478 J-0.878
G1 X18.418
X-18.468 Y-16.752
X-18.755 Y-16.753
G3 X-19.233 Y-16.874 I0.001 J-1.
G1 X-19.483 Y-17.022
X-20.194 Y-17.432
X-20.32 Y-17.514
X-20.439 Y-17.604
X-21.325 Y-18.332
X-22.333 Y-18.876
X-23.062 Y-19.144
X-23.237 Y-19.214
X-23.408 Y-19.294
X-23.573 Y-19.384
G3 X-22.513 Y-21.08 I0.53 J-0.848
X-19.926 Y-17.649 I-3.179 J5.088
X-20.194 Y-17.432 I-0.179 J0.052
G1 X-26.541 Y-21.097
G3 X-26.986 Y-21.72 I0.53 J-0.848
G1 X-27.013 Y-21.838 Z-0.993
X-27.04 Y-21.953 Z-0.971
X-27.066 Y-22.066 Z-0.935
X-27.09 Y-22.173 Z-0.885
X-27.114 Y-22.274 Z-0.823
X-27.135 Y-22.366 Z-0.749
X-27.154 Y-22.45 Z-0.663
X-27.171 Y-22.522 Z-0.568
X-27.185 Y-22.583 Z-0.465
X-27.196 Y-22.631 Z-0.355
X-27.204 Y-22.666 Z-0.239
X-27.209 Y-22.688 Z-0.121
X-27.211 Y-22.695 Z0.
G0 Z5.
X30.355 Y-24.145
Z1.
G1 Z0. F2328.
X30.351 Y-24.138 Z-0.121
X30.341 Y-24.119 Z-0.239
X30.323 Y-24.088 Z-0.355
X30.299 Y-24.045 Z-0.465
X30.268 Y-23.99 Z-0.568
X30.232 Y-23.925 Z-0.663
X30.19 Y-23.851 Z-0.749
X30.144 Y-23.768 Z-0.823
X30.093 Y-23.678 Z-0.885
X30.039 Y-23.582 Z-0.935
X29.983 Y-23.481 Z-0.971
X29.925 Y-23.377 Z-0.993
X29.866 Y-23.272 Z-1.
G3 X29.324 Y-22.704 I-1.381 J-0.774
G1 X22.922 Y-19.008
X22.833 Y-18.975 Z-0.994
X22.744 Y-18.943 Z-0.976
X22.658 Y-18.912 Z-0.948
X22.586 Y-18.905 Z-0.915
X22.517 Y-18.897 Z-0.876
X22.453 Y-18.891 Z-0.829
X22.372 Y-18.902 Z-0.754
X22.303 Y-18.912 Z-0.669
X22.246 Y-18.92 Z-0.574
X22.203 Y-18.926 Z-0.472
X22.175 Y-18.93 Z-0.365
X22.164 Y-18.933 Z-0.29
X22.161 Y-18.934 Z-0.215
G0 Z5.
X0. Y0.
Z2.5
G1 Z1.5 F2328.
Z-2.
Y0.075
X-0.037 Y0.078
X-0.071 Y0.061
X-0.093 Y0.03
X-0.1 Y-0.006
X-0.093 Y-0.043
X-0.072 Y-0.075
X-0.042 Y-0.096
X-0.006 Y-0.106
X0.032 Y-0.102
X0.065 Y-0.085
X0.091 Y-0.057
X0.105 Y-0.023
X0.109 Y0.015
X0.103 Y0.052
X0.087 Y0.086
X0.063 Y0.114
X0.031 Y0.134
X-0.005 Y0.145
X-0.042
X-0.079 Y0.136
X-0.144 Y0.1
X-0.185 Y0.036
X-0.194 Y-0.038
X-0.172 Y-0.11
X-0.125 Y-0.168
X-0.059 Y-0.205
X0.015 Y-0.215
X0.088 Y-0.199
X0.152 Y-0.159
X0.199 Y-0.101
X0.226 Y-0.031
X0.23 Y0.044
X0.212 Y0.117
X0.174 Y0.182
X0.119 Y0.232
X0.051 Y0.265
X-0.022 Y0.28
X-0.097 Y0.274
X-0.169 Y0.251
X-0.293 Y0.168
X-0.363 Y0.035
X-0.368 Y-0.115
X-0.311 Y-0.253
X-0.204 Y-0.359
X-0.065 Y-0.416
X0.085 Y-0.42
X0.226 Y-0.371
X0.343 Y-0.277
X0.424 Y-0.15
X0.459 Y-0.004
X0.448 Y0.145
X0.39 Y0.284
X0.294 Y0.399
X0.169 Y0.481
X0.025 Y0.524
X-0.125 Y0.529
X-0.27 Y0.493
X-0.403 Y0.422
X-0.511 Y0.319
X-0.591 Y0.192
X-0.637 Y0.049
X-0.646 Y-0.101
X-0.621 Y-0.249
X-0.562 Y-0.386
X-0.473 Y-0.507
X-0.36 Y-0.606
X-0.227 Y-0.675
X-0.083 Y-0.717
X0.067 Y-0.727
X0.215 Y-0.705
X0.357 Y-0.654
X0.484 Y-0.576
X0.595 Y-0.474
X0.683 Y-0.353
X0.746 Y-0.216
X0.783 Y-0.071
X0.791 Y0.079
X0.771 Y0.227
X0.726 Y0.37
X0.654 Y0.502
X0.56 Y0.619
X0.448 Y0.719
X0.32 Y0.797
X0.181 Y0.854
X0.035 Y0.886
X-0.115 Y0.893
X-0.264 Y0.877
X-0.409 Y0.836
X-0.545 Y0.773
X-0.669 Y0.69
X-0.779 Y0.587
X-0.872 Y0.469
X-0.946 Y0.339
X-0.998 Y0.199
X-1.03 Y0.052
X-1.04 Y-0.098
X-1.027 Y-0.247
X-0.993 Y-0.393
X-0.938 Y-0.533
X-0.864 Y-0.663
X-0.773 Y-0.783
X-0.666 Y-0.888
X-0.545 Y-0.977
X-0.414 Y-1.049
X-0.274 Y-1.103
X-0.128 Y-1.137
X0.022 Y-1.152
X0.171 Y-1.148
X0.32 Y-1.124
X0.463 Y-1.081
X0.6 Y-1.02
X0.729 Y-0.942
X0.846 Y-0.849
X0.951 Y-0.742
X1.042 Y-0.622
X1.118 Y-0.493
X1.177 Y-0.355
X1.219 Y-0.211
X1.244 Y-0.063
X1.251 Y0.087
X1.24 Y0.236
X1.211 Y0.384
X1.166 Y0.526
X1.105 Y0.663
X1.028 Y0.792
X0.937 Y0.912
X0.834 Y1.02
X0.719 Y1.117
X0.594 Y1.2
X0.461 Y1.269
X0.321 Y1.323
X0.176 Y1.361
X0.027 Y1.383
X-0.122 Y1.39
X-0.272 Y1.381
X-0.42 Y1.356
X-0.564 Y1.315
X-0.704 Y1.26
X-0.837 Y1.191
X-0.962 Y1.108
X-1.078 Y1.013
X-1.184 Y0.907
X-1.279 Y0.79
X-1.361 Y0.665
X-1.43 Y0.532
X-1.486 Y0.393
X-1.529 Y0.249
X-1.556 Y0.101
X-1.569 Y-0.048
X-1.568 Y-0.198
X-1.553 Y-0.347
X-1.523 Y-0.494
X-1.479 Y-0.638
X-1.422 Y-0.776
X-1.352 Y-0.909
X-1.271 Y-1.035
X-1.178 Y-1.153
X-1.074 Y-1.261
X-0.961 Y-1.36
X-0.84 Y-1.448
X-0.711 Y-1.524
X-0.575 Y-1.589
X-0.435 Y-1.641
X-0.29 Y-1.681
X-0.142 Y-1.707
X0.007 Y-1.721
X0.157
X0.307 Y-1.708
X0.454 Y-1.682
X0.599 Y-1.644
X0.741 Y-1.593
X0.877 Y-1.531
X1.007 Y-1.457
X1.131 Y-1.372
X1.247 Y-1.277
X1.355 Y-1.173
X1.454 Y-1.06
X1.543 Y-0.939
X1.622 Y-0.811
X1.69 Y-0.678
X1.746 Y-0.539
X1.792 Y-0.396
X1.825 Y-0.25
X1.846 Y-0.101
X1.856 Y0.049
X1.854 Y0.199
X1.839 Y0.348
X1.813 Y0.496
X1.775 Y0.641
X1.727 Y0.783
X1.667 Y0.92
X1.596 Y1.053
X1.516 Y1.179
X1.426 Y1.299
X1.327 Y1.412
X1.22 Y1.517
X1.105 Y1.613
X0.983 Y1.701
X0.855 Y1.779
X0.721 Y1.847
X0.583 Y1.905
X0.441 Y1.953
X0.295 Y1.99
X0.148 Y2.016
X-0.002 Y2.031
X-0.152 Y2.035
X-0.301 Y2.028
X-0.45 Y2.01
X-0.598 Y1.982
X-0.743 Y1.943
X-0.884 Y1.894
X-1.022 Y1.835
X-1.155 Y1.766
X-1.283 Y1.688
X-1.405 Y1.601
X-1.521 Y1.505
X-1.63 Y1.402
X-1.731 Y1.291
X-1.825 Y1.174
X-1.91 Y1.05
X-1.986 Y0.921
X-2.053 Y0.787
X-2.111 Y0.648
X-2.159 Y0.506
X-2.197 Y0.361
X-2.226 Y0.214
X-2.244 Y0.065
X-2.253 Y-0.085
X-2.251 Y-0.235
X-2.239 Y-0.384
X-2.218 Y-0.533
X-2.186 Y-0.679
X-2.145 Y-0.823
X-2.095 Y-0.965
X-2.035 Y-1.102
X-1.966 Y-1.236
X-1.889 Y-1.365
X-1.804 Y-1.488
X-1.711 Y-1.606
X-1.611 Y-1.717
X-1.503 Y-1.822
X-1.389 Y-1.919
X-1.269 Y-2.009
X-1.144 Y-2.092
X-1.014 Y-2.166
X-0.879 Y-2.232
X-0.74 Y-2.289
X-0.598 Y-2.338
X-0.454 Y-2.377
X-0.307 Y-2.407
X-0.158 Y-2.429
X-0.009 Y-2.44
X0.141 Y-2.443
X0.291 Y-2.436
X0.44 Y-2.421
X0.588 Y-2.396
X0.734 Y-2.362
X0.878 Y-2.319
X1.019 Y-2.268
X1.157 Y-2.208
X1.29 Y-2.14
X1.42 Y-2.065
X1.545 Y-1.981
X1.664 Y-1.891
X1.778 Y-1.793
X1.886 Y-1.689
X1.987 Y-1.578
X2.082 Y-1.462
X2.17 Y-1.34
X2.25 Y-1.214
X2.323 Y-1.083
X2.388 Y-0.948
X2.446 Y-0.809
X2.495 Y-0.667
X2.536 Y-0.523
X2.568 Y-0.376
X2.592 Y-0.228
X2.608 Y-0.079
X2.615 Y0.071
X2.613 Y0.221
X2.603 Y0.37
X2.584 Y0.519
X2.557 Y0.667
X2.522 Y0.813
X2.479 Y0.956
X2.428 Y1.097
X2.368 Y1.235
X2.302 Y1.369
X2.228 Y1.5
X2.147 Y1.626
X2.059 Y1.747
X1.964 Y1.864
X1.864 Y1.975
X1.757 Y2.081
X1.645 Y2.18
X1.527 Y2.273
X1.405 Y2.36
X1.278 Y2.44
X1.147 Y2.513
X1.012 Y2.579
X0.874 Y2.637
X0.733 Y2.688
X0.589 Y2.731
X0.443 Y2.767
X0.296 Y2.795
X0.147 Y2.815
X-0.002 Y2.827
X-0.152 Y2.831
X-0.302 Y2.828
X-0.452 Y2.816
X-0.6 Y2.797
X-0.748 Y2.77
X-0.894 Y2.735
X-1.038 Y2.693
X-1.179 Y2.643
X-1.318 Y2.586
X-1.454 Y2.522
X-1.586 Y2.451
X-1.714 Y2.373
X-1.838 Y2.289
X-1.958 Y2.199
X-2.073 Y2.103
X-2.183 Y2.001
X-2.288 Y1.893
X-2.387 Y1.78
X-2.48 Y1.663
X-2.567 Y1.541
X-2.648 Y1.415
X-2.723 Y1.285
X-2.791 Y1.151
X-2.852 Y1.014
X-2.906 Y0.874
X-2.954 Y0.732
X-2.994 Y0.587
X-3.027 Y0.441
X-3.053 Y0.293
X-3.071 Y0.144
X-3.082 Y-0.005
X-3.086 Y-0.155
X-3.082 Y-0.307
X-3.072 Y-0.456
X-3.053 Y-0.605
X-3.028 Y-0.754
X-2.995 Y-0.903
X-2.955 Y-1.049
X-2.908 Y-1.192
X-2.854 Y-1.334
X-2.792 Y-1.475
X-2.723 Y-1.612
X-2.649 Y-1.745
X-2.568 Y-1.874
X-2.479 Y-2.002
X-2.384 Y-2.125
X-2.285 Y-2.242
X-2.18 Y-2.354
X-2.067 Y-2.462
X-1.949 Y-2.565
X-1.827 Y-2.662
X-1.701 Y-2.752
X-1.57 Y-2.837
X-1.432 Y-2.917
X-1.292 Y-2.989
X-1.149 Y-3.054
X-1.003 Y-3.112
X-0.853 Y-3.163
X-0.699 Y-3.208
X-0.544 Y-3.245
X-0.388 Y-3.274
X-0.231 Y-3.295
X-0.07 Y-3.309
X0.091 Y-3.315
X0.253 Y-3.313
X0.413 Y-3.303
X0.572 Y-3.286
X0.733 Y-3.261
X0.893 Y-3.227
X1.051 Y-3.186
X1.206 Y-3.138
X1.358 Y-3.082
X1.509 Y-3.018
X1.658 Y-2.946
X1.803 Y-2.867
X1.943 Y-2.782
X2.08 Y-2.689
X2.211 Y-2.59
X2.339 Y-2.484
X2.463 Y-2.371
X2.58 Y-2.253
X2.692 Y-2.128
X2.797 Y-1.999
X2.896 Y-1.865
X2.989 Y-1.725
X3.076 Y-1.579
X3.156 Y-1.429
X3.228 Y-1.276
X3.292 Y-1.12
X3.349 Y-0.96
X3.398 Y-0.798
X3.44 Y-0.632
X3.473 Y-0.463
X3.499 Y-0.293
X3.516 Y-0.122
X3.524 Y0.05
X3.525 Y0.222
X3.517 Y0.394
X3.5 Y0.566
X3.475 Y0.739
X3.442 Y0.911
X3.4 Y1.08
X3.35 Y1.248
X3.291 Y1.413
X3.225 Y1.576
X3.151 Y1.734
X3.069 Y1.89
X2.979 Y2.042
X2.882 Y2.191
X2.776 Y2.334
X2.664 Y2.473
X2.545 Y2.606
X2.42 Y2.734
X2.289 Y2.855
X2.151 Y2.97
X2.008 Y3.078
X1.86 Y3.179
X1.706 Y3.274
X1.548 Y3.361
X1.384 Y3.44
X1.216 Y3.512
X1.045 Y3.576
X0.871 Y3.631
X0.694 Y3.678
X0.515 Y3.716
X0.334 Y3.745
X0.151 Y3.766
X-0.032 Y3.777
X-0.217 Y3.78
X-0.401 Y3.774
X-0.586 Y3.759
X-0.77 Y3.734
X-0.954 Y3.701
X-1.135 Y3.659
X-1.315 Y3.607
X-1.493 Y3.547
X-1.668 Y3.479
X-1.84 Y3.401
X-2.008 Y3.315
X-2.172 Y3.221
X-2.332 Y3.119
X-2.487 Y3.009
X-2.636 Y2.892
X-2.78 Y2.767
X-2.918 Y2.634
X-3.049 Y2.496
X-3.174 Y2.35
X-3.292 Y2.199
X-3.403 Y2.041
X-3.506 Y1.878
X-3.601 Y1.71
X-3.688 Y1.537
X-3.766 Y1.359
X-3.836 Y1.178
X-3.898 Y0.993
X-3.95 Y0.805
X-3.993 Y0.614
X-4.027 Y0.421
X-4.052 Y0.226
X-4.067 Y0.03
X-4.072 Y-0.167
X-4.068 Y-0.365
X-4.054 Y-0.562
X-4.031 Y-0.76
X-3.998 Y-0.956
X-3.955 Y-1.15
X-3.903 Y-1.343
X-3.842 Y-1.534
X-3.771 Y-1.721
X-3.691 Y-1.905
X-3.601 Y-2.086
X-3.503 Y-2.262
X-3.397 Y-2.434
X-3.281 Y-2.6
X-3.158 Y-2.762
X-3.027 Y-2.917
X-2.888 Y-3.066
X-2.741 Y-3.208
X-2.588 Y-3.343
X-2.428 Y-3.471
X-2.261 Y-3.591
X-2.089 Y-3.703
X-1.91 Y-3.807
X-1.727 Y-3.903
X-1.539 Y-3.989
X-1.346 Y-4.066
X-1.15 Y-4.134
X-0.95 Y-4.192
X-0.747 Y-4.241
X-0.542 Y-4.28
X-0.334 Y-4.309
X-0.125 Y-4.328
X0.085 Y-4.336
X0.295 Y-4.335
X0.506 Y-4.323
X0.717 Y-4.301
X0.926 Y-4.268
X1.134 Y-4.225
X1.34 Y-4.173
X1.544 Y-4.11
X1.744 Y-4.037
X1.942 Y-3.954
X2.135 Y-3.861
X2.324 Y-3.759
X2.508 Y-3.648
X2.687 Y-3.528
X2.86 Y-3.399
X3.027 Y-3.261
X3.188 Y-3.115
X3.341 Y-2.961
X3.487 Y-2.8
X3.626 Y-2.631
X3.756 Y-2.456
X3.878 Y-2.274
X3.991 Y-2.085
X4.094 Y-1.892
X4.189 Y-1.693
X4.274 Y-1.489
X4.349 Y-1.281
X4.413 Y-1.07
X4.468 Y-0.855
X4.512 Y-0.637
X4.546 Y-0.416
X4.569 Y-0.194
X4.581 Y0.029
X4.582 Y0.253
X4.572 Y0.477
X4.551 Y0.701
X4.52 Y0.924
X4.477 Y1.146
X4.424 Y1.366
X4.36 Y1.583
X4.285 Y1.798
X4.2 Y2.008
X4.104 Y2.215
X3.998 Y2.418
X3.883 Y2.615
X3.758 Y2.807
X3.623 Y2.992
X3.479 Y3.172
X3.326 Y3.344
X3.165 Y3.51
X2.995 Y3.667
X2.818 Y3.816
X2.633 Y3.957
X2.441 Y4.089
X2.243 Y4.211
X2.039 Y4.324
X1.829 Y4.427
X1.614 Y4.52
X1.394 Y4.603
X1.17 Y4.675
X0.943 Y4.735
X0.712 Y4.785
X0.479 Y4.824
X0.243 Y4.851
X0.006 Y4.867
X-0.231 Y4.872
X-0.469 Y4.864
X-0.707 Y4.845
X-0.945 Y4.815
X-1.18 Y4.773
X-1.414 Y4.719
X-1.646 Y4.654
X-1.874 Y4.578
X-2.099 Y4.49
X-2.32 Y4.392
X-2.536 Y4.283
X-2.747 Y4.163
X-2.952 Y4.032
X-3.151 Y3.892
X-3.343 Y3.742
X-3.528 Y3.582
X-3.705 Y3.414
X-3.874 Y3.236
X-4.035 Y3.05
X-4.187 Y2.856
X-4.329 Y2.655
X-4.462 Y2.447
X-4.584 Y2.232
X-4.696 Y2.011
X-4.798 Y1.784
X-4.888 Y1.552
X-4.967 Y1.316
X-5.035 Y1.076
X-5.091 Y0.832
X-5.135 Y0.585
X-5.167 Y0.336
X-5.187 Y0.086
X-5.195 Y-0.166
X-5.191 Y-0.418
X-5.174 Y-0.67
X-5.145 Y-0.922
X-5.104 Y-1.172
X-5.05 Y-1.421
X-4.985 Y-1.667
X-4.907 Y-1.91
X-4.817 Y-2.149
X-4.716 Y-2.384
X-4.603 Y-2.614
X-4.479 Y-2.839
X-4.344 Y-3.058
X-4.198 Y-3.271
X-4.042 Y-3.476
X-3.875 Y-3.674
X-3.699 Y-3.864
X-3.514 Y-4.046
X-3.319 Y-4.219
X-3.116 Y-4.382
X-2.905 Y-4.535
X-2.686 Y-4.678
X-2.461 Y-4.811
X-2.228 Y-4.933
X-1.99 Y-5.043
X-1.746 Y-5.142
X-1.497 Y-5.229
X-1.244 Y-5.304
X-0.986 Y-5.367
X-0.726 Y-5.417
X-0.463 Y-5.454
X-0.199 Y-5.479
X0.068 Y-5.491
X0.334 Y-5.49
X0.601 Y-5.475
X0.868 Y-5.448
X1.133 Y-5.408
X1.396 Y-5.355
X1.657 Y-5.289
X1.915 Y-5.21
X2.169 Y-5.119
X2.419 Y-5.015
X2.664 Y-4.899
X2.903 Y-4.771
X3.136 Y-4.631
X3.363 Y-4.48
X3.582 Y-4.318
X3.794 Y-4.144
X3.997 Y-3.961
X4.191 Y-3.767
X4.376 Y-3.564
X4.551 Y-3.352
X4.716 Y-3.131
X4.87 Y-2.903
X5.013 Y-2.666
X5.145 Y-2.422
X5.265 Y-2.172
X5.373 Y-1.916
X5.468 Y-1.654
X5.551 Y-1.388
X5.62 Y-1.117
X5.677 Y-0.843
X5.72 Y-0.566
X5.75 Y-0.287
X5.766 Y-0.007
X5.768 Y0.275
X5.757 Y0.557
X5.732 Y0.839
X5.693 Y1.119
X5.641 Y1.398
X5.574 Y1.674
X5.495 Y1.947
X5.402 Y2.216
X5.296 Y2.481
X5.177 Y2.741
X5.045 Y2.996
X4.901 Y3.244
X4.744 Y3.485
X4.576 Y3.718
X4.396 Y3.944
X4.206 Y4.16
X4.004 Y4.368
X3.793 Y4.566
X3.571 Y4.753
X3.341 Y4.93
X3.102 Y5.096
X2.854 Y5.25
X2.599 Y5.392
X2.337 Y5.522
X2.068 Y5.639
X1.794 Y5.743
X1.514 Y5.834
X1.23 Y5.911
X0.942 Y5.974
X0.651 Y6.024
X0.357 Y6.059
X0.061 Y6.08
X-0.236 Y6.086
X-0.533 Y6.078
X-0.83 Y6.056
X-1.126 Y6.018
X-1.42 Y5.967
X-1.712 Y5.901
X-2.001 Y5.821
X-2.286 Y5.727
X-2.566 Y5.619
X-2.842 Y5.497
X-3.111 Y5.362
X-3.374 Y5.213
X-3.63 Y5.052
X-3.878 Y4.878
X-4.118 Y4.692
X-4.349 Y4.494
X-4.57 Y4.285
X-4.781 Y4.065
X-4.982 Y3.834
X-5.171 Y3.594
X-5.349 Y3.345
X-5.515 Y3.086
X-5.668 Y2.82
X-5.808 Y2.545
X-5.935 Y2.264
X-6.048 Y1.977
X-6.148 Y1.684
X-6.233 Y1.386
X-6.303 Y1.084
X-6.359 Y0.778
X-6.4 Y0.47
X-6.426 Y0.159
X-6.437 Y-0.153
X-6.432 Y-0.466
X-6.413 Y-0.779
X-6.378 Y-1.091
X-6.328 Y-1.401
X-6.263 Y-1.709
X-6.182 Y-2.014
X-6.087 Y-2.315
X-5.977 Y-2.611
X-5.853 Y-2.903
X-5.714 Y-3.188
X-5.562 Y-3.467
X-5.395 Y-3.738
X-5.216 Y-4.001
X-5.024 Y-4.256
X-4.819 Y-4.501
X-4.602 Y-4.737
X-4.373 Y-4.962
X-4.134 Y-5.176
X-3.884 Y-5.378
X-3.624 Y-5.569
X-3.354 Y-5.746
X-3.076 Y-5.911
X-2.79 Y-6.062
X-2.496 Y-6.199
X-2.196 Y-6.322
X-1.889 Y-6.431
X-1.578 Y-6.524
X-1.261 Y-6.602
X-0.94 Y-6.665
X-0.617 Y-6.712
X-0.291 Y-6.744
X0.037 Y-6.76
X0.366 Y-6.759
X0.694 Y-6.743
X1.022 Y-6.711
X1.349 Y-6.662
X1.673 Y-6.598
X1.994 Y-6.518
X2.312 Y-6.422
X2.624 Y-6.311
X2.932 Y-6.184
X3.233 Y-6.042
X3.528 Y-5.886
X3.815 Y-5.715
X4.094 Y-5.531
X4.364 Y-5.332
X4.624 Y-5.12
X4.875 Y-4.896
X5.114 Y-4.659
X5.342 Y-4.411
X5.557 Y-4.151
X5.761 Y-3.881
X5.951 Y-3.601
X6.127 Y-3.311
X6.29 Y-3.013
X6.438 Y-2.707
X6.571 Y-2.394
X6.689 Y-2.073
X6.791 Y-1.748
X6.877 Y-1.416
X6.948 Y-1.081
X7.002 Y-0.742
X7.039 Y-0.401
X7.06 Y-0.057
X7.064 Y0.287
X7.051 Y0.632
X7.022 Y0.977
X6.976 Y1.32
X6.913 Y1.661
X6.833 Y1.999
X6.737 Y2.333
X6.624 Y2.662
X6.496 Y2.986
X6.352 Y3.304
X6.192 Y3.615
X6.017 Y3.919
X5.827 Y4.214
X5.622 Y4.499
X5.404 Y4.775
X5.172 Y5.04
X4.927 Y5.294
X4.67 Y5.536
X4.401 Y5.766
X4.121 Y5.983
X3.83 Y6.186
X3.529 Y6.375
X3.219 Y6.549
X2.9 Y6.708
X2.573 Y6.852
X2.239 Y6.98
X1.899 Y7.091
X1.554 Y7.186
X1.203 Y7.265
X0.849 Y7.326
X0.492 Y7.37
X0.132 Y7.396
X-0.229 Y7.405
X-0.59 Y7.397
X-0.951 Y7.371
X-1.311 Y7.327
X-1.669 Y7.265
X-2.024 Y7.187
X-2.375 Y7.091
X-2.721 Y6.977
X-3.063 Y6.847
X-3.397 Y6.7
X-3.725 Y6.537
X-4.045 Y6.358
X-4.356 Y6.163
X-4.658 Y5.953
X-4.95 Y5.729
X-5.23 Y5.49
X-5.5 Y5.237
X-5.757 Y4.971
X-6.001 Y4.693
X-6.231 Y4.402
X-6.447 Y4.1
X-6.649 Y3.788
X-6.836 Y3.466
X-7.007 Y3.135
X-7.161 Y2.795
X-7.3 Y2.447
X-7.421 Y2.093
X-7.525 Y1.733
X-7.612 Y1.368
X-7.681 Y0.998
X-7.731 Y0.625
X-7.764 Y0.249
X-7.778 Y-0.128
X-7.774 Y-0.506
X-7.752 Y-0.884
X-7.711 Y-1.261
X-7.652 Y-1.636
X-7.574 Y-2.008
X-7.479 Y-2.377
X-7.365 Y-2.741
X-7.233 Y-3.099
X-7.085 Y-3.451
X-6.918 Y-3.796
X-6.735 Y-4.133
X-6.536 Y-4.461
X-6.321 Y-4.78
X-6.09 Y-5.088
X-5.844 Y-5.384
X-5.583 Y-5.669
X-5.309 Y-5.942
X-5.021 Y-6.2
X-4.72 Y-6.445
X-4.408 Y-6.676
X-4.084 Y-6.891
X-3.75 Y-7.09
X-3.406 Y-7.273
X-3.053 Y-7.44
X-2.692 Y-7.589
X-2.323 Y-7.72
X-1.948 Y-7.834
X-1.568 Y-7.93
X-1.182 Y-8.007
X-0.793 Y-8.065
X-0.401 Y-8.104
X-0.007 Y-8.124
X0.388 Y-8.125
X0.783 Y-8.107
X1.177 Y-8.069
X1.57 Y-8.012
X1.959 Y-7.936
X2.346 Y-7.841
X2.727 Y-7.728
X3.103 Y-7.595
X3.473 Y-7.445
X3.835 Y-7.276
X4.19 Y-7.089
X4.535 Y-6.886
X4.87 Y-6.665
X5.195 Y-6.428
X5.508 Y-6.175
X5.809 Y-5.907
X6.097 Y-5.624
X6.371 Y-5.328
X6.63 Y-5.017
X6.875 Y-4.694
X7.104 Y-4.359
X7.316 Y-4.013
X7.512 Y-3.657
X7.691 Y-3.291
X7.851 Y-2.916
X7.994 Y-2.533
X8.117 Y-2.143
X8.222 Y-1.748
X8.308 Y-1.347
X8.373 Y-0.942
X8.42 Y-0.533
X8.446 Y-0.122
X8.452 Y0.29
X8.439 Y0.702
X8.405 Y1.114
X8.351 Y1.524
X8.277 Y1.932
X8.183 Y2.336
X8.07 Y2.735
X7.937 Y3.129
X7.785 Y3.517
X7.613 Y3.897
X7.424 Y4.269
X7.216 Y4.632
X6.991 Y4.985
X6.748 Y5.326
X6.489 Y5.656
X6.213 Y5.974
X5.922 Y6.277
X5.616 Y6.567
X5.297 Y6.842
X4.963 Y7.102
X4.617 Y7.345
X4.259 Y7.571
X3.89 Y7.78
X3.511 Y7.971
X3.123 Y8.143
X2.726 Y8.297
X2.321 Y8.431
X1.91 Y8.546
X1.493 Y8.64
X1.072 Y8.715
X0.647 Y8.768
X0.22 Y8.801
X-0.21 Y8.813
X-0.64 Y8.805
X-1.069 Y8.775
X-1.497 Y8.724
X-1.923 Y8.653
X-2.345 Y8.561
X-2.763 Y8.448
X-3.175 Y8.315
X-3.581 Y8.162
X-3.979 Y7.988
X-4.369 Y7.796
X-4.75 Y7.585
X-5.12 Y7.355
X-5.479 Y7.106
X-5.827 Y6.841
X-6.161 Y6.558
X-6.481 Y6.259
X-6.787 Y5.945
X-7.078 Y5.616
X-7.352 Y5.272
X-7.61 Y4.915
X-7.851 Y4.545
X-8.073 Y4.164
X-8.277 Y3.772
X-8.462 Y3.37
X-8.627 Y2.959
X-8.772 Y2.54
X-8.897 Y2.113
X-9.001 Y1.681
X-9.084 Y1.243
X-9.146 Y0.802
X-9.186 Y0.357
X-9.204 Y-0.089
X-9.201 Y-0.537
X-9.176 Y-0.984
X-9.129 Y-1.43
X-9.061 Y-1.874
X-8.97 Y-2.315
X-8.859 Y-2.751
X-8.726 Y-3.182
X-8.572 Y-3.606
X-8.397 Y-4.023
X-8.202 Y-4.432
X-7.987 Y-4.83
X-7.753 Y-5.219
X-7.5 Y-5.596
X-7.228 Y-5.961
X-6.939 Y-6.312
X-6.632 Y-6.649
X-6.309 Y-6.972
X-5.97 Y-7.279
X-5.617 Y-7.569
X-5.249 Y-7.842
X-4.868 Y-8.097
X-4.474 Y-8.334
X-4.069 Y-8.551
X-3.653 Y-8.749
X-3.228 Y-8.926
X-2.794 Y-9.083
X-2.352 Y-9.218
X-1.904 Y-9.332
X-1.45 Y-9.425
X-0.992 Y-9.495
X-0.53 Y-9.542
X-0.066 Y-9.568
X0.399 Y-9.57
X0.865 Y-9.55
X1.329 Y-9.508
X1.791 Y-9.442
X2.251 Y-9.354
X2.706 Y-9.244
X3.155 Y-9.112
X3.598 Y-8.958
X4.034 Y-8.782
X4.461 Y-8.585
X4.878 Y-8.367
X5.285 Y-8.128
X5.68 Y-7.87
X6.063 Y-7.593
X6.432 Y-7.297
X6.787 Y-6.983
X7.126 Y-6.652
X7.45 Y-6.304
X7.756 Y-5.941
X8.045 Y-5.562
X8.315 Y-5.17
X8.566 Y-4.764
X8.797 Y-4.346
X9.008 Y-3.917
X9.198 Y-3.477
X9.367 Y-3.029
X9.514 Y-2.572
X9.638 Y-2.108
X9.74 Y-1.638
X9.819 Y-1.162
X9.875 Y-0.684
X9.907 Y-0.202
X9.916 Y0.281
X9.902 Y0.765
X9.864 Y1.248
X9.802 Y1.729
X9.717 Y2.207
X9.609 Y2.681
X9.478 Y3.15
X9.323 Y3.612
X9.147 Y4.067
X8.948 Y4.513
X8.727 Y4.949
X8.485 Y5.375
X8.223 Y5.789
X7.94 Y6.19
X7.638 Y6.577
X7.316 Y6.949
X6.977 Y7.306
X6.62 Y7.647
X6.247 Y7.97
X5.858 Y8.274
X5.455 Y8.56
X5.037 Y8.826
X4.606 Y9.072
X4.164 Y9.297
X3.71 Y9.5
X3.247 Y9.681
X2.775 Y9.839
X2.295 Y9.975
X1.808 Y10.087
X1.316 Y10.175
X0.82 Y10.24
X0.321 Y10.28
X-0.18 Y10.296
X-0.682 Y10.287
X-1.184 Y10.254
X-1.684 Y10.197
X-2.181 Y10.115
X-2.674 Y10.009
X-3.162 Y9.879
X-3.644 Y9.726
X-4.118 Y9.548
X-4.583 Y9.348
X-5.039 Y9.125
X-5.483 Y8.88
X-5.916 Y8.613
X-6.336 Y8.325
X-6.741 Y8.017
X-7.132 Y7.689
X-7.507 Y7.342
X-7.864 Y6.977
X-8.204 Y6.594
X-8.526 Y6.195
X-8.827 Y5.78
X-9.109 Y5.351
X-9.369 Y4.908
X-9.608 Y4.452
X-9.825 Y3.984
X-10.019 Y3.507
X-10.19 Y3.019
X-10.337 Y2.523
X-10.459 Y2.021
X-10.558 Y1.512
X-10.631 Y0.999
X-10.68 Y0.482
X-10.703 Y-0.038
X-10.701 Y-0.558
X-10.673 Y-1.078
X-10.621 Y-1.597
X-10.543 Y-2.114
X-10.439 Y-2.626
X-10.311 Y-3.133
X-10.159 Y-3.635
X-9.981 Y-4.128
X-9.78 Y-4.613
X-9.555 Y-5.088
X-9.307 Y-5.552
X-9.037 Y-6.004
X-8.744 Y-6.443
X-8.43 Y-6.868
X-8.096 Y-7.277
X-7.741 Y-7.669
X-7.368 Y-8.045
X-6.976 Y-8.402
X-6.567 Y-8.74
X-6.141 Y-9.059
X-5.7 Y-9.356
X-5.244 Y-9.632
X-4.775 Y-9.886
X-4.294 Y-10.116
X-3.802 Y-10.324
X-3.299 Y-10.507
X-2.788 Y-10.666
X-2.269 Y-10.8
X-1.743 Y-10.908
X-1.212 Y-10.991
X-0.678 Y-11.049
X-0.14 Y-11.08
X0.399 Y-11.085
X0.938 Y-11.063
X1.476 Y-11.016
X2.012 Y-10.942
X2.543 Y-10.842
X3.071 Y-10.716
X3.591 Y-10.565
X4.105 Y-10.388
X4.61 Y-10.186
X5.104 Y-9.96
X5.588 Y-9.709
X6.06 Y-9.435
X6.518 Y-9.138
X6.961 Y-8.819
X7.389 Y-8.478
X7.801 Y-8.117
X8.194 Y-7.735
X8.569 Y-7.334
X8.925 Y-6.915
X9.26 Y-6.479
X9.574 Y-6.027
X9.865 Y-5.559
X10.134 Y-5.077
X10.379 Y-4.582
X10.601 Y-4.076
X10.797 Y-3.558
X10.968 Y-3.031
X11.114 Y-2.496
X11.233 Y-1.953
X11.326 Y-1.405
X11.393 Y-0.853
X11.432 Y-0.297
X11.444 Y0.26
X11.43 Y0.818
X11.388 Y1.376
X11.318 Y1.931
X11.222 Y2.482
X11.099 Y3.029
X10.949 Y3.57
X10.773 Y4.104
X10.572 Y4.628
X10.344 Y5.143
X10.091 Y5.647
X9.814 Y6.138
X9.513 Y6.616
X9.189 Y7.079
X8.843 Y7.527
X8.474 Y7.957
X8.085 Y8.369
X7.675 Y8.762
X7.247 Y9.136
X6.8 Y9.488
X6.337 Y9.819
X5.857 Y10.126
X5.362 Y10.411
X4.854 Y10.671
X4.333 Y10.907
X3.801 Y11.117
X3.258 Y11.301
X2.707 Y11.459
X2.148 Y11.589
X1.582 Y11.693
X1.012 Y11.769
X0.438 Y11.817
X-0.138 Y11.837
X-0.715 Y11.83
X-1.292 Y11.794
X-1.867 Y11.73
X-2.438 Y11.638
X-3.005 Y11.518
X-3.566 Y11.37
X-4.12 Y11.196
X-4.665 Y10.994
X-5.2 Y10.766
X-5.724 Y10.512
X-6.236 Y10.232
X-6.734 Y9.927
X-7.216 Y9.598
X-7.683 Y9.246
X-8.133 Y8.871
X-8.564 Y8.475
X-8.976 Y8.057
X-9.367 Y7.619
X-9.737 Y7.162
X-10.085 Y6.688
X-10.41 Y6.196
X-10.71 Y5.689
X-10.986 Y5.167
X-11.236 Y4.632
X-11.461 Y4.085
X-11.658 Y3.527
X-11.828 Y2.96
X-11.971 Y2.384
X-12.086 Y1.801
X-12.172 Y1.213
X-12.229 Y0.621
X-12.258 Y0.026
Y-0.57
X-12.228 Y-1.166
X-12.17 Y-1.76
X-12.082 Y-2.352
X-11.966 Y-2.939
X-11.822 Y-3.521
X-11.649 Y-4.095
X-11.448 Y-4.66
X-11.219 Y-5.216
X-10.964 Y-5.761
X-10.682 Y-6.293
X-10.374 Y-6.811
X-10.041 Y-7.314
X-9.683 Y-7.801
X-9.302 Y-8.27
X-8.898 Y-8.721
X-8.473 Y-9.152
X-8.026 Y-9.562
X-7.559 Y-9.95
X-7.074 Y-10.315
X-6.571 Y-10.657
X-6.051 Y-10.974
X-5.516 Y-11.266
X-4.967 Y-11.532
X-4.405 Y-11.77
X-3.832 Y-11.982
X-3.248 Y-12.165
X-2.656 Y-12.32
X-2.056 Y-12.446
X-1.45 Y-12.543
X-0.84 Y-12.61
X-0.226 Y-12.648
X0.389 Y-12.656
X1.005 Y-12.633
X1.619 Y-12.581
X2.231 Y-12.499
X2.838 Y-12.387
X3.44 Y-12.245
X4.035 Y-12.075
X4.622 Y-11.875
X5.198 Y-11.646
X5.764 Y-11.39
X6.317 Y-11.106
X6.855 Y-10.796
X7.379 Y-10.459
X7.886 Y-10.096
X8.375 Y-9.71
X8.846 Y-9.299
X9.296 Y-8.865
X9.725 Y-8.41
X10.132 Y-7.934
X10.515 Y-7.438
X10.874 Y-6.924
X11.209 Y-6.392
X11.517 Y-5.844
X11.798 Y-5.281
X12.052 Y-4.705
X12.278 Y-4.116
X12.475 Y-3.517
X12.643 Y-2.908
X12.781 Y-2.291
X12.889 Y-1.667
X12.966 Y-1.038
X13.013 Y-0.406
X13.029 Y0.228
X13.015 Y0.864
X12.969 Y1.498
X12.892 Y2.13
X12.785 Y2.758
X12.647 Y3.38
X12.479 Y3.996
X12.281 Y4.604
X12.053 Y5.201
X11.796 Y5.788
X11.511 Y6.362
X11.198 Y6.921
X10.858 Y7.466
X10.491 Y7.993
X10.099 Y8.503
X9.682 Y8.994
X9.241 Y9.464
X8.777 Y9.912
X8.292 Y10.338
X7.786 Y10.74
X7.26 Y11.117
X6.716 Y11.469
X6.156 Y11.794
X5.579 Y12.091
X4.989 Y12.361
X4.385 Y12.601
X3.77 Y12.812
X3.144 Y12.994
X2.51 Y13.144
X1.869 Y13.264
X1.222 Y13.352
X0.571 Y13.409
X-0.083 Y13.434
X-0.738 Y13.428
X-1.392 Y13.389
X-2.044 Y13.319
X-2.693 Y13.217
X-3.336 Y13.083
X-3.973 Y12.918
X-4.602 Y12.722
X-5.221 Y12.495
X-5.828 Y12.238
X-6.423 Y11.952
X-7.004 Y11.637
X-7.57 Y11.294
X-8.118 Y10.923
X-8.649 Y10.526
X-9.159 Y10.103
X-9.65 Y9.655
X-10.118 Y9.183
X-10.563 Y8.689
X-10.984 Y8.173
X-11.379 Y7.637
X-11.749 Y7.081
X-12.091 Y6.508
X-12.405 Y5.918
X-12.691 Y5.314
X-12.947 Y4.695
X-13.172 Y4.064
X-13.367 Y3.422
X-13.531 Y2.771
X-13.663 Y2.112
X-13.762 Y1.447
X-13.83 Y0.778
X-13.864 Y0.105
X-13.866 Y-0.57
X-13.835 Y-1.244
X-13.772 Y-1.917
X-13.675 Y-2.586
X-13.546 Y-3.25
X-13.385 Y-3.908
X-13.191 Y-4.558
X-12.966 Y-5.198
X-12.71 Y-5.827
X-12.423 Y-6.444
X-12.107 Y-7.046
X-11.761 Y-7.633
X-11.386 Y-8.203
X-10.984 Y-8.754
X-10.556 Y-9.286
X-10.101 Y-9.796
X-9.622 Y-10.285
X-9.119 Y-10.75
X-8.593 Y-11.19
X-8.047 Y-11.604
X-7.48 Y-11.992
X-6.894 Y-12.352
X-6.292 Y-12.683
X-5.673 Y-12.985
X-5.039 Y-13.257
X-4.393 Y-13.498
X-3.735 Y-13.707
X-3.067 Y-13.884
X-2.391 Y-14.029
X-1.708 Y-14.14
X-1.019 Y-14.219
X-0.327 Y-14.263
X0.367 Y-14.274
X1.061 Y-14.251
X1.754 Y-14.195
X2.444 Y-14.104
X3.13 Y-13.98
X3.809 Y-13.823
X4.48 Y-13.633
X5.142 Y-13.41
X5.793 Y-13.155
X6.431 Y-12.868
X7.055 Y-12.55
X7.663 Y-12.202
X8.254 Y-11.825
X8.827 Y-11.418
X9.38 Y-10.984
X9.911 Y-10.524
X10.42 Y-10.037
X10.905 Y-9.526
X11.365 Y-8.991
X11.798 Y-8.434
X12.205 Y-7.857
X12.583 Y-7.259
X12.932 Y-6.644
X13.251 Y-6.011
X13.539 Y-5.363
X13.795 Y-4.702
X14.019 Y-4.028
X14.21 Y-3.343
X14.368 Y-2.649
X14.492 Y-1.948
X14.582 Y-1.241
X14.637 Y-0.53
X14.657 Y0.184
X14.643 Y0.898
X14.594 Y1.611
X14.511 Y2.322
X14.392 Y3.029
X14.24 Y3.729
X14.053 Y4.422
X13.832 Y5.106
X13.579 Y5.779
X13.292 Y6.439
X12.974 Y7.085
X12.624 Y7.715
X12.244 Y8.328
X11.834 Y8.922
X11.395 Y9.496
X10.928 Y10.049
X10.435 Y10.578
X9.916 Y11.084
X9.372 Y11.564
X8.806 Y12.017
X8.217 Y12.443
X7.608 Y12.84
X6.98 Y13.207
X6.334 Y13.543
X5.671 Y13.847
X4.995 Y14.12
X4.305 Y14.359
X3.604 Y14.565
X2.893 Y14.736
X2.174 Y14.873
X1.448 Y14.975
X0.718 Y15.041
X-0.015 Y15.072
X-0.75 Y15.067
X-1.484 Y15.026
X-2.216 Y14.949
X-2.943 Y14.837
X-3.665 Y14.69
X-4.38 Y14.507
X-5.086 Y14.29
X-5.78 Y14.038
X-6.462 Y13.752
X-7.131 Y13.434
X-7.783 Y13.083
X-8.418 Y12.7
X-9.034 Y12.287
X-9.63 Y11.844
X-10.204 Y11.371
X-10.755 Y10.871
X-11.281 Y10.345
X-11.781 Y9.793
X-12.255 Y9.217
X-12.7 Y8.617
X-13.116 Y7.997
X-13.501 Y7.356
X-13.855 Y6.697
X-14.177 Y6.021
X-14.466 Y5.329
X-14.721 Y4.624
X-14.942 Y3.906
X-15.127 Y3.178
X-15.277 Y2.441
X-15.391 Y1.697
X-15.469 Y0.948
X-15.511 Y0.195
X-15.515 Y-0.559
X-15.483 Y-1.314
X-15.414 Y-2.067
X-15.309 Y-2.816
X-15.167 Y-3.559
X-14.989 Y-4.296
X-14.775 Y-5.023
X-14.526 Y-5.74
X-14.242 Y-6.445
X-13.924 Y-7.135
X-13.572 Y-7.81
X-13.187 Y-8.467
X-12.771 Y-9.105
X-12.324 Y-9.723
X-11.846 Y-10.319
X-11.34 Y-10.891
X-10.807 Y-11.439
X-10.246 Y-11.96
X-9.661 Y-12.454
X-9.052 Y-12.919
X-8.42 Y-13.355
X-7.767 Y-13.759
X-7.095 Y-14.131
X-6.405 Y-14.471
X-5.699 Y-14.777
X-4.978 Y-15.048
X-4.244 Y-15.284
X-3.499 Y-15.485
X-2.744 Y-15.649
X-1.982 Y-15.776
X-1.213 Y-15.866
X-0.441 Y-15.918
X0.334 Y-15.933
X1.109 Y-15.91
X1.882 Y-15.85
X2.653 Y-15.751
X3.418 Y-15.616
X4.177 Y-15.443
X4.926 Y-15.233
X5.666 Y-14.987
X6.393 Y-14.704
X7.106 Y-14.387
X7.803 Y-14.035
X8.483 Y-13.649
X9.143 Y-13.23
X9.784 Y-12.779
X10.402 Y-12.297
X10.996 Y-11.786
X11.565 Y-11.245
X12.107 Y-10.677
X12.622 Y-10.083
X13.108 Y-9.464
X13.563 Y-8.821
X13.987 Y-8.157
X14.378 Y-7.472
X14.735 Y-6.768
X15.059 Y-6.047
X15.347 Y-5.311
X15.599 Y-4.561
X15.815 Y-3.799
X15.993 Y-3.027
X16.133 Y-2.246
X16.236 Y-1.459
X16.3 Y-0.667
X16.326 Y0.127
X16.313 Y0.923
X16.261 Y1.718
X16.17 Y2.51
X16.041 Y3.297
X15.874 Y4.077
X15.669 Y4.849
X15.426 Y5.611
X15.146 Y6.361
X14.83 Y7.097
X14.478 Y7.817
X14.091 Y8.519
X13.67 Y9.203
X13.216 Y9.866
X12.73 Y10.506
X12.213 Y11.123
X11.666 Y11.714
X11.09 Y12.278
X10.488 Y12.814
X9.859 Y13.32
X9.206 Y13.796
X8.53 Y14.239
X7.833 Y14.65
X7.116 Y15.026
X6.381 Y15.367
X5.629 Y15.673
X4.863 Y15.941
X4.084 Y16.172
X3.295 Y16.366
X2.496 Y16.52
X1.69 Y16.636
X0.879 Y16.712
X0.064 Y16.749
X-0.752 Y16.747
X-1.568 Y16.704
X-2.381 Y16.622
X-3.19 Y16.5
X-3.993 Y16.339
X-4.787 Y16.138
X-5.572 Y15.9
X-6.344 Y15.623
X-7.103 Y15.308
X-7.846 Y14.957
X-8.572 Y14.57
X-9.278 Y14.147
X-9.964 Y13.69
X-10.627 Y13.201
X-11.266 Y12.679
X-11.879 Y12.126
X-12.466 Y11.543
X-13.023 Y10.932
X-13.551 Y10.294
X-14.047 Y9.631
X-14.511 Y8.944
X-14.941 Y8.235
X-15.336 Y7.505
X-15.696 Y6.756
X-16.019 Y5.989
X-16.305 Y5.208
X-16.552 Y4.413
X-16.761 Y3.606
X-16.93 Y2.789
X-17.059 Y1.964
X-17.148 Y1.133
X-17.197 Y0.299
X-17.205 Y-0.538
X-17.172 Y-1.375
X-17.099 Y-2.209
X-16.985 Y-3.04
X-16.83 Y-3.865
X-16.636 Y-4.682
X-16.401 Y-5.489
X-16.128 Y-6.285
X-15.815 Y-7.067
X-15.465 Y-7.833
X-15.078 Y-8.582
X-14.654 Y-9.312
X-14.196 Y-10.02
X-13.702 Y-10.707
X-13.176 Y-11.368
X-12.617 Y-12.004
X-12.028 Y-12.613
X-11.409 Y-13.192
X-10.763 Y-13.742
X-10.09 Y-14.259
X-9.392 Y-14.743
X-8.671 Y-15.194
X-7.928 Y-15.609
X-7.165 Y-15.987
X-6.384 Y-16.328
X-5.587 Y-16.631
X-4.776 Y-16.896
X-3.951 Y-17.12
X-3.117 Y-17.304
X-2.274 Y-17.448
X-1.424 Y-17.55
X-0.569 Y-17.611
X0.288 Y-17.631
X1.146 Y-17.608
X2.002 Y-17.544
X2.854 Y-17.438
X3.702 Y-17.291
X4.541 Y-17.103
X5.371 Y-16.873
X6.19 Y-16.604
X6.995 Y-16.294
X7.785 Y-15.946
X8.557 Y-15.559
X9.31 Y-15.135
X10.042 Y-14.674
X10.752 Y-14.178
X11.437 Y-13.648
X12.095 Y-13.084
X12.727 Y-12.489
X13.328 Y-11.863
X13.899 Y-11.208
X14.438 Y-10.526
X14.944 Y-9.817
X15.414 Y-9.084
X15.849 Y-8.329
X16.247 Y-7.553
X16.607 Y-6.758
X16.928 Y-5.946
X17.209 Y-5.118
X17.45 Y-4.277
X17.65 Y-3.425
X17.808 Y-2.563
X17.925 Y-1.694
X17.998 Y-0.82
X18.03 Y0.057
X18.018 Y0.936
X17.964 Y1.813
X17.867 Y2.688
X17.727 Y3.557
X17.546 Y4.42
X17.322 Y5.273
X17.057 Y6.115
X16.751 Y6.943
X16.404 Y7.756
X16.019 Y8.552
X15.594 Y9.329
X15.132 Y10.085
X14.634 Y10.818
X14.1 Y11.526
X13.532 Y12.208
X12.931 Y12.862
X12.298 Y13.487
X11.635 Y14.08
X10.943 Y14.641
X10.225 Y15.168
X9.481 Y15.659
X8.714 Y16.115
X7.925 Y16.532
X7.115 Y16.911
X6.288 Y17.251
X5.445 Y17.55
X4.587 Y17.808
X3.717 Y18.023
X2.837 Y18.197
X1.949 Y18.327
X1.056 Y18.415
X0.158 Y18.458
X-0.741
X-1.64 Y18.414
X-2.537 Y18.327
X-3.429 Y18.196
X-4.314 Y18.021
X-5.19 Y17.803
X-6.055 Y17.543
X-6.907 Y17.241
X-7.743 Y16.897
X-8.563 Y16.513
X-9.364 Y16.09
X-10.143 Y15.627
X-10.9 Y15.127
X-11.632 Y14.59
X-12.337 Y14.017
X-13.015 Y13.411
X-13.662 Y12.771
X-14.278 Y12.101
X-14.861 Y11.401
X-15.41 Y10.673
X-15.923 Y9.918
X-16.399 Y9.139
X-16.837 Y8.337
X-17.235 Y7.514
X-17.594 Y6.672
X-17.911 Y5.813
X-18.186 Y4.939
X-18.419 Y4.052
X-18.608 Y3.155
X-18.753 Y2.248
X-18.854 Y1.334
X-18.911 Y0.417
X-18.923 Y-0.503
X-18.89 Y-1.424
X-18.812 Y-2.342
X-18.69 Y-3.256
X-18.523 Y-4.164
X-18.312 Y-5.063
X-18.057 Y-5.951
X-17.76 Y-6.827
X-17.419 Y-7.687
X-17.037 Y-8.531
X-16.614 Y-9.356
X-16.151 Y-10.159
X-15.65 Y-10.94
X-15.11 Y-11.696
X-14.534 Y-12.425
X-13.923 Y-13.126
X-13.277 Y-13.797
X-12.6 Y-14.436
X-11.892 Y-15.042
X-11.154 Y-15.613
X-10.389 Y-16.147
X-9.599 Y-16.645
X-8.784 Y-17.103
X-7.948 Y-17.522
X-7.091 Y-17.899
X-6.217 Y-18.235
X-5.327 Y-18.528
X-4.423 Y-18.778
X-3.507 Y-18.983
X-2.582 Y-19.144
X-1.649 Y-19.26
X-0.711 Y-19.33
X0.23 Y-19.354
X1.171 Y-19.333
X2.111 Y-19.266
X3.048 Y-19.153
X3.978 Y-18.994
X4.9 Y-18.79
X5.812 Y-18.542
X6.711 Y-18.249
X7.596 Y-17.912
X8.464 Y-17.533
X9.312 Y-17.112
X10.14 Y-16.649
X10.945 Y-16.146
X11.725 Y-15.605
X12.479 Y-15.025
X13.203 Y-14.41
X13.898 Y-13.759
X14.56 Y-13.075
X15.189 Y-12.359
X15.782 Y-11.612
X16.339 Y-10.837
X16.858 Y-10.036
X17.338 Y-9.209
X17.777 Y-8.36
X18.174 Y-7.489
X18.529 Y-6.6
X18.84 Y-5.694
X19.108 Y-4.773
X19.33 Y-3.84
X19.506 Y-2.896
X19.637 Y-1.944
X19.721 Y-0.986
X19.759 Y-0.025
X19.749 Y0.938
X19.693 Y1.9
X19.59 Y2.858
X19.44 Y3.812
X19.244 Y4.757
X19.002 Y5.692
X18.715 Y6.615
X18.383 Y7.524
X18.007 Y8.416
X17.587 Y9.289
X17.125 Y10.141
X16.622 Y10.971
X16.079 Y11.775
X15.497 Y12.553
X14.877 Y13.302
X14.221 Y14.02
X13.531 Y14.706
X12.808 Y15.358
X12.053 Y15.975
X11.268 Y16.554
X10.456 Y17.095
X9.617 Y17.596
X8.755 Y18.056
X7.871 Y18.474
X6.967 Y18.849
X6.045 Y19.179
X5.107 Y19.464
X4.157 Y19.704
X3.195 Y19.897
X2.224 Y20.043
X1.246 Y20.141
X0.264 Y20.192
X-0.72 Y20.196
X-1.703 Y20.151
X-2.684 Y20.059
X-3.66 Y19.918
X-4.629 Y19.731
X-5.587 Y19.496
X-6.534 Y19.214
X-7.467 Y18.887
X-8.383 Y18.515
X-9.281 Y18.098
X-10.158 Y17.637
X-11.012 Y17.134
X-11.841 Y16.59
X-12.643 Y16.006
X-13.417 Y15.383
X-14.159 Y14.722
X-14.869 Y14.026
X-15.545 Y13.296
X-16.185 Y12.533
X-16.247 Y12.45
X-16.506 Y12.053
X-16.705 Y11.623
X-16.841 Y11.168
X-16.858 Y11.091
X-17.085 Y10.487
X-17.217 Y10.191
X-17.385 Y9.854
X-18.118 Y8.393
X-18.268 Y8.093
X-18.398 Y7.793
X-18.511 Y7.494
X-19.057 Y5.995
X-19.152 Y5.695
X-19.183 Y5.596
X-19.232 Y5.395
X-19.516 Y4.196
X-19.579 Y3.897
X-19.699 Y3.297
X-19.743 Y2.997
X-19.918 Y1.499
X-19.938 Y1.199
X-19.954 Y0.599
X-19.958 Y0.3
Y-0.3
X-19.954 Y-0.599
X-19.938 Y-1.199
X-19.918 Y-1.499
X-19.743 Y-2.997
X-19.699 Y-3.297
X-19.579 Y-3.897
X-19.516 Y-4.196
X-19.232 Y-5.395
X-19.183 Y-5.596
X-19.152 Y-5.695
X-19.057 Y-5.995
X-18.511 Y-7.494
X-18.398 Y-7.793
X-18.268 Y-8.093
X-17.968 Y-8.693
X-17.366 Y-9.892
X-17.217 Y-10.191
X-17.083 Y-10.491
X-16.858 Y-11.091
X-16.805 Y-11.231
X-16.62 Y-11.658
X-16.408 Y-12.089
X-16.142 Y-12.569
X-15.824 Y-13.082
X-15.47 Y-13.597
X-15.046 Y-14.152
X-14.558 Y-14.731
X-14.025 Y-15.304
X-13.444 Y-15.87
X-12.801 Y-16.439
X-12.103 Y-16.998
X-11.354 Y-17.54
X-10.562 Y-18.057
X-9.731 Y-18.544
X-8.864 Y-18.995
X-7.968 Y-19.409
X-7.044 Y-19.781
X-6.098 Y-20.111
X-5.131 Y-20.395
X-4.148 Y-20.633
X-3.151 Y-20.823
X-2.143 Y-20.965
X-1.127 Y-21.058
X-0.106 Y-21.102
X0.918 Y-21.095
X1.941 Y-21.039
X2.962 Y-20.933
X3.978 Y-20.778
X4.985 Y-20.573
X5.983 Y-20.318
X6.968 Y-20.016
X7.937 Y-19.665
X8.889 Y-19.268
X9.822 Y-18.824
X10.732 Y-18.335
X11.618 Y-17.802
X12.478 Y-17.226
X13.309 Y-16.609
X14.11 Y-15.951
X14.878 Y-15.255
X15.612 Y-14.522
X15.82 Y-14.293
X16.096 Y-13.944
X16.323 Y-13.561
X16.496 Y-13.151
X16.613 Y-12.722
X16.67 Y-12.281
X16.689 Y-11.99
X16.728 Y-11.69
X16.791 Y-11.39
X16.858 Y-11.091
X17.085 Y-10.487
X17.217 Y-10.191
X17.385 Y-9.854
X18.118 Y-8.393
X18.268 Y-8.093
X18.398 Y-7.793
X18.511 Y-7.494
X19.057 Y-5.995
X19.152 Y-5.695
X19.183 Y-5.596
X19.232 Y-5.395
X19.516 Y-4.196
X19.579 Y-3.897
X19.699 Y-3.297
X19.743 Y-2.997
X19.918 Y-1.499
X19.938 Y-1.199
X19.954 Y-0.599
X19.958 Y-0.3
Y0.3
X19.954 Y0.599
X19.938 Y1.199
X19.918 Y1.499
X19.743 Y2.997
X19.699 Y3.297
X19.579 Y3.897
X19.516 Y4.196
X19.232 Y5.395
X19.183 Y5.596
X19.152 Y5.695
X19.057 Y5.995
X18.511 Y7.494
X18.398 Y7.793
X18.268 Y8.093
X17.968 Y8.693
X17.366 Y9.892
X17.217 Y10.191
X17.083 Y10.491
X16.858 Y11.091
X16.785 Y11.42
X16.728 Y11.69
X16.721 Y11.74
X16.682 Y11.955
X16.632 Y12.169
X16.562 Y12.416
X16.464 Y12.703
X16.35 Y12.993
X16.194 Y13.337
X16.015 Y13.687
X15.784 Y14.091
X15.523 Y14.498
X15.192 Y14.962
X14.83 Y15.421
X14.398 Y15.917
X13.892 Y16.444
X13.345 Y16.961
X12.738 Y17.481
X12.061 Y18.007
X11.321 Y18.525
X10.527 Y19.026
X9.685 Y19.501
X8.801 Y19.944
X7.885 Y20.35
X6.938 Y20.714
X5.964 Y21.036
X4.966 Y21.313
X3.948 Y21.542
X2.913 Y21.723
X1.865 Y21.854
X0.808 Y21.934
X-0.255 Y21.963
X-1.321 Y21.939
X-2.386 Y21.864
X-3.447 Y21.737
X-4.503 Y21.558
X-5.549 Y21.328
X-6.584 Y21.047
X-7.606 Y20.716
X-8.61 Y20.335
X-9.596 Y19.905
X-10.56 Y19.428
X-11.5 Y18.903
X-12.414 Y18.334
X-13.3 Y17.72
X-14.156 Y17.063
X-14.98 Y16.365
X-15.635 Y15.752
X-15.774 Y15.609
X-16.075 Y15.25
X-16.323 Y14.853
X-16.512 Y14.424
X-16.638 Y13.973
X-16.699 Y13.508
X-16.694 Y13.04
G3 X-15.749 Y12.158 I0.993 J0.117
G1 X15.678 Y10.645
G3 X16.721 Y11.74 I0.048 J0.999
G1 X16.689 Y11.99
X16.67 Y12.29
X16.657 Y12.589
X16.695 Y13.054
X16.703 Y13.29
X16.7 Y13.44
X16.689 Y13.618
X16.668 Y13.801
X16.632 Y14.016
X16.585 Y14.236
X16.517 Y14.49
X16.434 Y14.752
X16.322 Y15.05
X16.19 Y15.356
X16.021 Y15.702
X15.83 Y16.048
X15.59 Y16.438
X15.319 Y16.832
X14.998 Y17.254
X14.615 Y17.71
X14.203 Y18.156
X13.717 Y18.631
X13.158 Y19.128
X12.552 Y19.615
X11.892 Y20.095
X11.158 Y20.576
X10.358 Y21.047
X9.498 Y21.497
X8.587 Y21.92
X7.63 Y22.308
X6.638 Y22.655
X5.615 Y22.958
X4.563 Y23.215
X3.483 Y23.423
X2.379 Y23.581
X1.257 Y23.686
X0.124 Y23.736
X-1.017 Y23.732
X-2.161 Y23.671
X-3.301 Y23.555
X-4.434 Y23.384
X-5.558 Y23.158
X-6.669 Y22.879
X-7.765 Y22.546
X-8.845 Y22.16
X-9.904 Y21.724
X-10.941 Y21.236
X-11.954 Y20.7
X-12.94 Y20.116
X-13.896 Y19.485
X-14.689 Y18.906
X-15.249 Y18.453
X-15.653 Y18.093
X-15.984 Y17.768
X-16.276 Y17.451
X-16.411 Y17.29
X-16.693 Y16.895
X-16.911 Y16.461
X-17.06 Y15.998
X-17.136 Y15.518
X-17.138 Y15.032
X-17.066 Y14.552
X-16.92 Y14.088
X-16.834 Y13.788
X-16.764 Y13.488
X-16.706 Y13.189
X-16.694 Y13.04
G3 X-15.7 Y12.157 I0.993 J0.117
G1 X15.702 Y12.171
G3 X16.695 Y13.054 I0. J1.
G1 X16.706 Y13.189
X16.764 Y13.488
X16.834 Y13.788
X16.92 Y14.088
X16.962 Y14.232
X16.99 Y14.379
X17.009 Y14.528
X17.021 Y14.684
X17.026 Y14.847
X17.022 Y15.035
X17.008 Y15.231
X16.982 Y15.449
X16.942 Y15.683
X16.887 Y15.933
X16.812 Y16.209
X16.72 Y16.494
X16.6 Y16.811
X16.46 Y17.132
X16.286 Y17.483
X16.079 Y17.855
X15.841 Y18.237
X15.552 Y18.655
X15.23 Y19.075
X14.861 Y19.51
X14.427 Y19.975
X13.945 Y20.443
X13.416 Y20.908
X12.809 Y21.392
X12.129 Y21.883
X11.387 Y22.364
X10.608 Y22.818
X9.757 Y23.259
X8.84 Y23.679
X7.866 Y24.069
X6.841 Y24.423
X5.771 Y24.735
X4.663 Y25.
X3.537 Y25.213
X2.402 Y25.371
X1.261 Y25.475
X0.116 Y25.527
X-1.03 Y25.525
X-2.174 Y25.47
X-3.315 Y25.363
X-4.45 Y25.203
X-5.576 Y24.992
X-6.692 Y24.731
X-7.795 Y24.42
X-8.883 Y24.06
X-9.953 Y23.652
X-11.005 Y23.197
X-12.035 Y22.695
X-13.042 Y22.148
X-13.969 Y21.588
X-14.72 Y21.082
X-15.347 Y20.614
X-15.825 Y20.219
X-16.204 Y19.874
X-16.526 Y19.55
X-16.794 Y19.254
X-17.025 Y18.972
X-17.238 Y18.683
X-17.407 Y18.43
X-17.452 Y18.356
X-17.646 Y17.974
X-17.784 Y17.568
X-17.865 Y17.147
X-17.886 Y16.719
X-17.848 Y16.292
X-17.75 Y15.874
X-17.594 Y15.475
X-17.385 Y15.101
G3 X-16.581 Y14.646 I0.839 J0.545
G1 X15.97 Y13.493
G3 X16.92 Y14.088 I0.035 J0.999
G1 X17.16 Y14.687
X17.285 Y14.927
X17.347 Y15.063
X17.401 Y15.203
X17.444 Y15.347
X17.479 Y15.492
X17.507 Y15.642
X17.527 Y15.799
X17.542 Y15.978
X17.549 Y16.166
X17.546 Y16.374
X17.532 Y16.6
X17.505 Y16.834
X17.463 Y17.099
X17.405 Y17.368
X17.328 Y17.663
X17.228 Y17.979
X17.109 Y18.3
X16.957 Y18.656
X16.78 Y19.021
X16.571 Y19.402
X16.318 Y19.814
X16.036 Y20.228
X15.71 Y20.66
X15.324 Y21.122
X14.895 Y21.587
X14.421 Y22.055
X13.878 Y22.54
X13.264 Y23.036
X12.597 Y23.524
X11.885 Y23.994
X11.093 Y24.462
X10.226 Y24.92
X9.29 Y25.357
X8.29 Y25.766
X7.238 Y26.138
X6.144 Y26.465
X5.032 Y26.74
X3.908 Y26.962
X2.774 Y27.131
X1.634 Y27.248
X0.49 Y27.315
X-0.655 Y27.331
X-1.801 Y27.297
X-2.944 Y27.214
X-4.082 Y27.082
X-5.213 Y26.901
X-6.337 Y26.674
X-7.449 Y26.399
X-8.549 Y26.078
X-9.635 Y25.712
X-10.704 Y25.3
X-11.756 Y24.845
X-12.787 Y24.345
X-13.753 Y23.82
X-14.606 Y23.302
X-15.303 Y22.83
X-15.903 Y22.379
X-16.415 Y21.954
X-16.853 Y21.554
X-17.2 Y21.204
X-17.498 Y20.872
X-17.748 Y20.565
X-17.965 Y20.271
X-18.15 Y19.993
X-18.319 Y19.709
X-18.455 Y19.454
X-18.586 Y19.175
X-18.687 Y18.93
X-18.773 Y18.689
X-18.879 Y18.289
X-18.917 Y17.878
X-18.886 Y17.466
X-18.787 Y17.065
X-18.623 Y16.686
X-18.398 Y16.34
X-18.118 Y16.036
X-17.984 Y15.884
X-17.684 Y15.528
X-17.507 Y15.287
X-17.385 Y15.101
G3 X-16.576 Y14.679 I0.816 J0.578
G1 X16.407 Y14.419
G3 X17.285 Y14.927 I0.008 J1.
G1 X17.316 Y14.987
X17.385 Y15.101
X17.507 Y15.287
X17.684 Y15.528
X17.712 Y15.56
X17.802 Y15.68
X17.887 Y15.803
X17.961 Y15.934
X18.026 Y16.069
X18.082 Y16.208
X18.131 Y16.35
X18.172 Y16.494
X18.206 Y16.64
X18.234 Y16.788
X18.256 Y16.936
X18.272 Y17.085
X18.282 Y17.235
X18.288 Y17.385
Y17.535
X18.284 Y17.685
X18.275 Y17.834
X18.262 Y17.984
X18.245 Y18.133
X18.224 Y18.281
X18.199 Y18.429
X18.171 Y18.577
X18.139 Y18.723
X18.104 Y18.869
X18.065 Y19.014
X18.023 Y19.158
X17.979 Y19.301
X17.931 Y19.444
X17.881 Y19.585
X17.828 Y19.725
X17.772 Y19.864
X17.714 Y20.003
X17.653 Y20.14
X17.59 Y20.276
X17.525 Y20.411
X17.457 Y20.545
X17.388 Y20.678
X17.316 Y20.81
X17.242 Y20.94
X17.167 Y21.07
X17.089 Y21.198
X17.009 Y21.325
X16.928 Y21.451
X16.845 Y21.576
X16.76 Y21.7
X16.674 Y21.823
X16.586 Y21.944
X16.497 Y22.064
X16.406 Y22.184
X16.313 Y22.302
X16.219 Y22.419
X16.124 Y22.534
X16.027 Y22.649
X15.929 Y22.763
X15.83 Y22.875
X15.729 Y22.986
X15.627 Y23.097
X15.524 Y23.206
X15.42 Y23.314
X15.315 Y23.42
X15.208 Y23.526
X15.101 Y23.631
X14.992 Y23.734
X14.883 Y23.836
X14.772 Y23.938
X14.66 Y24.038
X14.548 Y24.137
X14.434 Y24.235
X14.32 Y24.332
X14.204 Y24.428
X14.088 Y24.523
X13.971 Y24.617
X13.853 Y24.709
X13.735 Y24.801
X13.615 Y24.892
X13.495 Y24.981
X13.373 Y25.069
X13.252 Y25.157
X13.129 Y25.243
X13.006 Y25.329
X12.882 Y25.413
X12.757 Y25.497
X12.632 Y25.579
X12.506 Y25.66
X12.379 Y25.741
X12.252 Y25.82
X12.124 Y25.899
X11.996 Y25.976
X11.866 Y26.053
X11.737 Y26.128
X11.607 Y26.202
X11.476 Y26.276
X11.344 Y26.348
X11.08 Y26.491
X10.947 Y26.56
X10.814 Y26.629
X10.68 Y26.697
X10.546 Y26.763
X10.411 Y26.829
X10.14 Y26.958
X9.868 Y27.083
X9.731 Y27.145
X9.593 Y27.205
X9.455 Y27.264
X9.179 Y27.38
X8.9 Y27.492
X8.761 Y27.547
X8.621 Y27.601
X8.481 Y27.654
X8.199 Y27.756
X7.916 Y27.856
X7.631 Y27.952
X7.489 Y27.999
X7.203 Y28.089
X6.916 Y28.176
X6.627 Y28.259
X6.338 Y28.339
X6.048 Y28.415
X5.757 Y28.488
X5.465 Y28.558
X5.173 Y28.624
X4.879 Y28.686
X4.585 Y28.745
X4.29 Y28.8
X3.995 Y28.853
X3.699 Y28.902
X3.402 Y28.947
X3.105 Y28.989
X2.808 Y29.028
X2.51 Y29.063
X2.212 Y29.095
X1.913 Y29.123
X1.614 Y29.149
X1.315 Y29.171
X1.015 Y29.189
X0.716 Y29.204
X0.416 Y29.217
X0.116 Y29.225
X-0.184 Y29.231
X-0.484 Y29.233
X-0.784 Y29.232
X-1.084 Y29.228
X-1.384 Y29.221
X-1.683 Y29.21
X-1.983 Y29.196
X-2.283 Y29.179
X-2.582 Y29.159
X-2.881 Y29.136
X-3.18 Y29.109
X-3.478 Y29.08
X-3.777 Y29.047
X-4.075 Y29.011
X-4.372 Y28.972
X-4.669 Y28.93
X-4.966 Y28.885
X-5.262 Y28.836
X-5.557 Y28.785
X-5.852 Y28.731
X-6.147 Y28.673
X-6.44 Y28.612
X-6.734 Y28.549
X-7.026 Y28.482
X-7.318 Y28.412
X-7.609 Y28.34
X-7.899 Y28.264
X-8.189 Y28.186
X-8.478 Y28.104
X-8.765 Y28.019
X-9.052 Y27.932
X-9.338 Y27.842
X-9.623 Y27.748
X-9.908 Y27.652
X-10.191 Y27.552
X-10.473 Y27.45
X-10.754 Y27.345
X-11.033 Y27.237
X-11.312 Y27.126
X-11.59 Y27.012
X-11.866 Y26.894
X-12.141 Y26.774
X-12.414 Y26.651
X-12.686 Y26.524
X-12.957 Y26.395
X-13.225 Y26.262
X-13.359 Y26.194
X-13.493 Y26.125
X-13.626 Y26.056
X-13.89 Y25.914
X-14.153 Y25.77
X-14.284 Y25.696
X-14.414 Y25.621
X-14.543 Y25.545
X-14.801 Y25.392
X-14.929 Y25.313
X-15.056 Y25.234
X-15.183 Y25.153
X-15.309 Y25.072
X-15.434 Y24.99
X-15.559 Y24.907
X-15.683 Y24.822
X-15.806 Y24.737
X-15.929 Y24.651
X-16.051 Y24.563
X-16.172 Y24.475
X-16.292 Y24.385
X-16.412 Y24.294
X-16.53 Y24.203
X-16.648 Y24.11
X-16.765 Y24.015
X-16.881 Y23.92
X-16.995 Y23.824
X-17.109 Y23.726
X-17.222 Y23.627
X-17.333 Y23.527
X-17.444 Y23.425
X-17.553 Y23.322
X-17.661 Y23.218
X-17.768 Y23.113
X-17.873 Y23.006
X-17.978 Y22.898
X-18.08 Y22.789
X-18.181 Y22.678
X-18.281 Y22.566
X-18.379 Y22.453
X-18.476 Y22.338
X-18.571 Y22.222
X-18.664 Y22.105
X-18.756 Y21.986
X-18.845 Y21.865
X-18.933 Y21.744
X-19.019 Y21.621
X-19.103 Y21.496
X-19.184 Y21.37
X-19.264 Y21.243
X-19.341 Y21.114
X-19.415 Y20.984
X-19.487 Y20.852
X-19.555 Y20.719
X-19.621 Y20.584
X-19.684 Y20.448
X-19.744 Y20.311
X-19.8 Y20.171
X-19.853 Y20.031
X-19.902 Y19.889
X-19.947 Y19.746
X-19.989 Y19.602
X-20.027 Y19.457
X-20.06 Y19.311
X-20.089 Y19.163
X-20.114 Y19.016
X-20.134 Y18.867
X-20.149 Y18.718
X-20.16 Y18.568
X-20.166 Y18.418
X-20.116 Y18.051
X-19.994 Y17.701
X-19.805 Y17.383
X-19.556 Y17.108
X-19.258 Y16.889
G3 X-18.822 Y16.768 I0.478 J0.878
G1 X-18.493 Y16.754
X16.927 Y15.232
G3 X17.712 Y15.56 I0.043 J0.999
G1 X17.986 Y15.886
X18.118 Y16.036
X18.281 Y16.186
X18.391 Y16.288
X18.495 Y16.396
X18.59 Y16.513
X18.674 Y16.636
X18.751 Y16.765
X18.82 Y16.898
X18.881 Y17.035
X18.936 Y17.175
X18.984 Y17.317
X19.025 Y17.461
X19.061 Y17.607
X19.091 Y17.754
X19.116 Y17.902
X19.136 Y18.051
X19.15 Y18.2
X19.16 Y18.349
X19.166 Y18.499
X19.167 Y18.649
X19.164 Y18.799
X19.157 Y18.949
X19.146 Y19.099
X19.131 Y19.248
X19.113 Y19.397
X19.091 Y19.545
X19.066 Y19.693
X19.037 Y19.84
X19.006 Y19.987
X18.971 Y20.133
X18.933 Y20.278
X18.893 Y20.423
X18.849 Y20.566
X18.803 Y20.709
X18.755 Y20.851
X18.704 Y20.992
X18.65 Y21.132
X18.594 Y21.271
X18.536 Y21.409
