(1001)
(T1  D=10. CR=0. - ZMIN=-1. - FLAT END MILL)
G90 G94 G91.1 G40 G49 G17
G21

(DRILL1 2)
M5
M9
T1 M6
S9700 M3
G54
M8
G0 X11. Y11.9
G43 Z15. H1
Z5.
G98 G81 X11. Y11.9 Z-1. R5. F330.
Y35.9
Y59.9
X129.
Y35.9
Y11.9
G80
Z15.

M9
M30
