(1001)
(T1  D=10. CR=0. - ZMIN=-5. - FLAT END MILL)
G90 G94 G91.1 G40 G49 G17
G21

(2D POCKET1 2)
M5
M9
T1 M6
S9700 M3
G54
M8
G0 X72.155 Y-5.939
G43 Z10. H1
Z5.
G1 Z1.6 F2328.
Z0.4
Y-5.932 Z0.279
Y-5.91 Z0.161
Y-5.874 Z0.045
Y-5.824 Z-0.065
Y-5.762 Z-0.168
Y-5.688 Z-0.263
Y-5.602 Z-0.349
Y-5.507 Z-0.423
Y-5.404 Z-0.485
Y-5.294 Z-0.535
Y-5.178 Z-0.571
Y-5.06 Z-0.593
Y-4.939 Z-0.6
Y-4.9
X72.149 Y6.8
X72.179 Y22.813
G3 X70.486 Y23.715 I-1.086 J0.002
G2 X68.793 Y24.618 I-0.606 J0.902
G1 Y24.961
G3 X68.514 Y25.138 I-0.196 J0.
G1 X68.1 Y24.947
G3 X67.936 Y24.527 I0.134 J-0.295
G2 X68.583 Y22.889 I-42.454 J-17.727
G1 X68.602 Y22.857
X68.631 Y22.833
X68.667 Y22.82
X68.704 Y22.821
X68.739 Y22.834
X68.768 Y22.858
X68.787 Y22.89
X68.793 Y22.927
Y24.618
G3 X68.282 Y25.117 I-0.5 J0.
X67.794 Y24.595 I0.011 J-0.5
G1 X69.126 Y-4.869
G2 X68.638 Y-5.391 I-0.499 J-0.023
X68.127 Y-4.891 I-0.011 J0.5
G1 X68.133 Y6.8
G3 X63.337 Y26.352 I-43.013 J-0.187
G2 X63.486 Y26.733 I0.242 J0.125
G3 X71.921 Y30.887 I-14.489 J40.067
G2 X72.194 Y30.737 I0.096 J-0.15
G1 X72.149 Y6.8
X72.155 Y-4.9
G3 X72.656 Y-5.4 I0.5 J0.
G1 X75.095 Y-5.395
G3 X75.594 Y-4.895 I-0.001 J0.5
G1 Y37.645
G3 X75.336 Y37.759 I-0.154 J0.
G2 X62.66 Y30.052 I-26.339 J29.041
X61.998 Y30.413 I-0.174 J0.469
G1 X61.481 Y32.756
G2 X61.79 Y33.33 I0.488 J0.108
G3 X78.763 Y46.9 I-12.909 J33.548
G1 X78.79 Y46.929
X78.825 Y46.948
X78.865 Y46.956
X78.905 Y46.95
X78.941 Y46.933
X78.969 Y46.905
X78.988 Y46.869
X78.994 Y46.83
Y-4.897
G3 X79.496 Y-5.397 I0.5 J0.
G1 X81.873 Y-5.387
G3 X82.371 Y-4.887 I-0.002 J0.5
G1 X82.35 Y71.8
X82.352 Y76.697
G3 X81.895 Y77.153 I-0.455 J0.
X81.442 Y76.694 I0.002 J-0.455
G1 Y76.687
X81.447 Y66.8
G2 X59.363 Y36.05 I-32.45 J0.
G3 X59.027 Y35.513 I0.16 J-0.474
G1 X60.427 Y24.642
X60.445 Y24.559
X60.477 Y24.48
G2 X64.733 Y6.8 I-35.224 J-17.831
G1 X64.727 Y-4.891
G2 X64.227 Y-5.391 I-0.5 J0.
G1 X61.826
G2 X61.326 Y-4.891 I0. J0.5
G1 X61.332 Y6.8
G3 X57.634 Y22.657 I-35.85 J0.
X57.206 Y22.936 I-0.448 J-0.221
G1 X54.445 Y23.049
G3 X53.985 Y22.31 I-0.02 J-0.5
G2 X57.932 Y6.8 I-28.503 J-15.51
G1 X57.926 Y-4.891
G2 X57.426 Y-5.391 I-0.5 J0.
G1 X55.027
G2 X54.526 Y-4.891 I0. J0.5
G1 X54.532 Y6.8
G3 X48.426 Y24.617 I-29.05 J0.
G2 X53.725 Y38.137 I6.674 J5.183
G3 X78.047 Y66.8 I-4.728 J28.663
G1 X78.042 Y76.698
G3 X77.541 Y77.197 I-0.5 J0.
G1 X75.142 Y77.193
G3 X74.642 Y76.693 I0.001 J-0.5
G1 X74.647 Y66.8
G2 X53.171 Y41.492 I-25.65 J0.
G3 X45.741 Y22.532 I1.929 J-11.692
G2 X51.132 Y6.8 I-20.259 J-15.732
G1 X51.127 Y-4.891
G2 X50.627 Y-5.391 I-0.5 J0.
G1 X48.227
G2 X47.727 Y-4.891 I0. J0.5
G1 X47.732 Y6.8
G3 X43.055 Y20.447 I-22.25 J0.
G2 X52.618 Y44.847 I12.045 J9.353
G3 X71.247 Y66.8 I-3.621 J21.953
G1 X71.243 Y76.688
G3 X70.745 Y77.188 I-0.5 J0.
G1 X68.345 Y77.199
G3 X67.843 Y76.699 I-0.002 J-0.5
G1 X67.847 Y66.8
G2 X52.065 Y48.201 I-18.85 J0.
G3 X40.37 Y18.361 I3.035 J-18.401
G2 X44.332 Y6.8 I-14.888 J-11.561
G1 X44.327 Y-4.891
G2 X43.827 Y-5.391 I-0.5 J0.
G1 X41.427
G2 X40.927 Y-4.891 I0. J0.5
G1 X40.932 Y6.8
G3 X37.684 Y16.276 I-15.45 J0.
G2 X51.511 Y51.556 I17.416 J13.524
G3 X64.447 Y66.8 I-2.515 J15.244
G1 X64.443 Y76.694
G3 X63.942 Y77.194 I-0.5 J0.
G1 X61.542 Y77.19
G3 X61.043 Y76.69 I0.001 J-0.5
G1 X61.047 Y66.8
G2 X50.958 Y54.911 I-12.05 J0.
G3 X34.999 Y14.191 I4.142 J-25.111
G2 X37.532 Y6.8 I-9.517 J-7.391
G1 X37.527 Y-4.891
G2 X37.027 Y-5.391 I-0.5 J0.
G1 X34.627
G2 X34.127 Y-4.891 I0. J0.5
G1 X34.132 Y6.8
G3 X32.314 Y12.105 I-8.65 J0.
G2 X50.405 Y58.265 I22.786 J17.695
G3 X57.647 Y66.8 I-1.408 J8.535
G1 X57.643 Y76.685
G3 X57.145 Y77.185 I-0.5 J0.
G1 X54.699 Y77.194
G3 X54.197 Y76.694 I-0.002 J-0.5
G1 Y66.8
G2 X49.843 Y61.669 I-5.2 J0.
G3 X29.589 Y9.989 I5.257 J-31.869
G2 X30.682 Y6.8 I-4.107 J-3.189
G1 Y0.
Y-4.897
X30.674 Y-4.935
X30.652 Y-4.968
X30.62 Y-4.99
X30.582 Y-4.997
X30.543 Y-4.99
X30.511 Y-4.968
X30.489 Y-4.935
X30.482 Y-4.897
Y6.8
G3 X29.431 Y9.867 I-5. J0.
G2 X49.81 Y61.867 I25.669 J19.933
G3 X53.997 Y66.8 I-0.814 J4.933
G1 Y71.8
Y76.691
G2 X54.497 Y77.191 I0.5 J0.
G1 X85.295
G2 X85.795 Y76.691 I0. J-0.5
G1 Y-4.898
G3 X86.296 Y-5.398 I0.5 J0.
G1 X88.696 Y-5.393
G3 X89.195 Y-4.893 I-0.001 J0.5
G1 Y76.696
G2 X89.695 Y77.196 I0.5 J0.
G1 X92.052 Y77.197
G2 X92.552 Y76.697 I0. J-0.5
G1 X92.55 Y71.8
X92.57 Y-4.888
G3 X93.068 Y-5.388 I0.5 J0.
G1 X95.493 Y-5.399
G3 X95.995 Y-4.899 I0.002 J0.5
G1 Y76.69
G2 X96.494 Y77.19 I0.5 J0.
G1 X98.894 Y77.195
G2 X99.395 Y76.695 I0.001 J-0.5
G1 Y-4.894
G3 X99.896 Y-5.394 I0.5 J0.
G1 X102.27 Y-5.39
G3 X102.769 Y-4.89 I-0.001 J0.5
G1 X102.75 Y71.8
X102.752 Y76.697
G2 X103.254 Y77.197 I0.5 J0.
G1 X105.697 Y77.189
G2 X106.195 Y76.689 I-0.002 J-0.5
G1 Y-4.885
G3 X106.693 Y-5.385 I0.5 J0.
G1 X109.098 Y-5.394
G3 X109.6 Y-4.894 I0.002 J0.5
G1 Y76.697
X109.608 Y76.735
X109.629 Y76.768
X109.662 Y76.79
X109.7 Y76.797
X109.738 Y76.79
X109.771 Y76.768
X109.792 Y76.735
X109.8 Y76.697
Y0.
Y-4.891
G2 X109.32 Y-5.391 I-0.5 J0.
G1 X72.676 Y-6.867
G2 X72.156 Y-6.367 I-0.02 J0.5
G1 Y-6.254 Z-0.606
Y-6.142 Z-0.626
Y-6.033 Z-0.658
X72.155 Y-5.928 Z-0.702
Y-5.829 Z-0.757
Y-5.737 Z-0.824
Y-5.653 Z-0.9
Y-5.569 Z-0.976
Y-5.477 Z-1.043
Y-5.378 Z-1.098
Y-5.273 Z-1.142
Y-5.164 Z-1.174
Y-5.052 Z-1.194
Y-4.939 Z-1.2
Y-4.9
X72.149 Y6.8
X72.179 Y22.813
G3 X70.486 Y23.715 I-1.086 J0.002
G2 X68.793 Y24.618 I-0.606 J0.902
G1 Y24.961
G3 X68.514 Y25.138 I-0.196 J0.
G1 X68.1 Y24.947
G3 X67.936 Y24.527 I0.134 J-0.295
G2 X68.583 Y22.889 I-42.454 J-17.727
G1 X68.602 Y22.857
X68.631 Y22.833
X68.667 Y22.82
X68.704 Y22.821
X68.739 Y22.834
X68.768 Y22.858
X68.787 Y22.89
X68.793 Y22.927
Y24.618
G3 X68.282 Y25.117 I-0.5 J0.
X67.794 Y24.595 I0.011 J-0.5
G1 X69.126 Y-4.869
G2 X68.638 Y-5.391 I-0.499 J-0.023
X68.127 Y-4.891 I-0.011 J0.5
G1 X68.133 Y6.8
G3 X63.337 Y26.352 I-43.013 J-0.187
G2 X63.486 Y26.733 I0.242 J0.125
G3 X71.921 Y30.887 I-14.489 J40.067
G2 X72.194 Y30.737 I0.096 J-0.15
G1 X72.149 Y6.8
X72.155 Y-4.9
G3 X72.656 Y-5.4 I0.5 J0.
G1 X75.095 Y-5.395
G3 X75.594 Y-4.895 I-0.001 J0.5
G1 Y37.645
G3 X75.336 Y37.759 I-0.154 J0.
G2 X62.66 Y30.052 I-26.339 J29.041
X61.998 Y30.413 I-0.174 J0.469
G1 X61.481 Y32.756
G2 X61.79 Y33.33 I0.488 J0.108
G3 X78.763 Y46.9 I-12.909 J33.548
G1 X78.79 Y46.929
X78.825 Y46.948
X78.865 Y46.956
X78.905 Y46.95
X78.941 Y46.933
X78.969 Y46.905
X78.988 Y46.869
X78.994 Y46.83
Y-4.897
G3 X79.496 Y-5.397 I0.5 J0.
G1 X81.873 Y-5.387
G3 X82.371 Y-4.887 I-0.002 J0.5
G1 X82.35 Y71.8
X82.352 Y76.697
G3 X81.895 Y77.153 I-0.455 J0.
X81.442 Y76.694 I0.002 J-0.455
G1 Y76.687
X81.447 Y66.8
G2 X59.363 Y36.05 I-32.45 J0.
G3 X59.027 Y35.513 I0.16 J-0.474
G1 X60.427 Y24.642
X60.445 Y24.559
X60.477 Y24.48
G2 X64.733 Y6.8 I-35.224 J-17.831
G1 X64.727 Y-4.891
G2 X64.227 Y-5.391 I-0.5 J0.
G1 X61.826
G2 X61.326 Y-4.891 I0. J0.5
G1 X61.332 Y6.8
G3 X57.634 Y22.657 I-35.85 J0.
X57.206 Y22.936 I-0.448 J-0.221
G1 X54.445 Y23.049
G3 X53.985 Y22.31 I-0.02 J-0.5
G2 X57.932 Y6.8 I-28.503 J-15.51
G1 X57.926 Y-4.891
G2 X57.426 Y-5.391 I-0.5 J0.
G1 X55.027
G2 X54.526 Y-4.891 I0. J0.5
G1 X54.532 Y6.8
G3 X48.426 Y24.617 I-29.05 J0.
G2 X53.725 Y38.137 I6.674 J5.183
G3 X78.047 Y66.8 I-4.728 J28.663
G1 X78.042 Y76.698
G3 X77.541 Y77.197 I-0.5 J0.
G1 X75.142 Y77.193
G3 X74.642 Y76.693 I0.001 J-0.5
G1 X74.647 Y66.8
G2 X53.171 Y41.492 I-25.65 J0.
G3 X45.741 Y22.532 I1.929 J-11.692
G2 X51.132 Y6.8 I-20.259 J-15.732
G1 X51.127 Y-4.891
G2 X50.627 Y-5.391 I-0.5 J0.
G1 X48.227
G2 X47.727 Y-4.891 I0. J0.5
G1 X47.732 Y6.8
G3 X43.055 Y20.447 I-22.25 J0.
G2 X52.618 Y44.847 I12.045 J9.353
G3 X71.247 Y66.8 I-3.621 J21.953
G1 X71.243 Y76.688
G3 X70.745 Y77.188 I-0.5 J0.
G1 X68.345 Y77.199
G3 X67.843 Y76.699 I-0.002 J-0.5
G1 X67.847 Y66.8
G2 X52.065 Y48.201 I-18.85 J0.
G3 X40.37 Y18.361 I3.035 J-18.401
G2 X44.332 Y6.8 I-14.888 J-11.561
G1 X44.327 Y-4.891
G2 X43.827 Y-5.391 I-0.5 J0.
G1 X41.427
G2 X40.927 Y-4.891 I0. J0.5
G1 X40.932 Y6.8
G3 X37.684 Y16.276 I-15.45 J0.
G2 X51.511 Y51.556 I17.416 J13.524
G3 X64.447 Y66.8 I-2.515 J15.244
G1 X64.443 Y76.694
G3 X63.942 Y77.194 I-0.5 J0.
G1 X61.542 Y77.19
G3 X61.043 Y76.69 I0.001 J-0.5
G1 X61.047 Y66.8
G2 X50.958 Y54.911 I-12.05 J0.
G3 X34.999 Y14.191 I4.142 J-25.111
G2 X37.532 Y6.8 I-9.517 J-7.391
G1 X37.527 Y-4.891
G2 X37.027 Y-5.391 I-0.5 J0.
G1 X34.627
G2 X34.127 Y-4.891 I0. J0.5
G1 X34.132 Y6.8
G3 X32.314 Y12.105 I-8.65 J0.
G2 X50.405 Y58.265 I22.786 J17.695
G3 X57.647 Y66.8 I-1.408 J8.535
G1 X57.643 Y76.685
G3 X57.145 Y77.185 I-0.5 J0.
G1 X54.699 Y77.194
G3 X54.197 Y76.694 I-0.002 J-0.5
G1 Y66.8
G2 X49.843 Y61.669 I-5.2 J0.
G3 X29.589 Y9.989 I5.257 J-31.869
G2 X30.682 Y6.8 I-4.107 J-3.189
G1 Y0.
Y-4.897
X30.674 Y-4.935
X30.652 Y-4.968
X30.62 Y-4.99
X30.582 Y-4.997
X30.543 Y-4.99
X30.511 Y-4.968
X30.489 Y-4.935
X30.482 Y-4.897
Y6.8
G3 X29.431 Y9.867 I-5. J0.
G2 X49.81 Y61.867 I25.669 J19.933
G3 X53.997 Y66.8 I-0.814 J4.933
G1 Y71.8
Y76.691
G2 X54.497 Y77.191 I0.5 J0.
G1 X85.295
G2 X85.795 Y76.691 I0. J-0.5
G1 Y-4.898
G3 X86.296 Y-5.398 I0.5 J0.
G1 X88.696 Y-5.393
G3 X89.195 Y-4.893 I-0.001 J0.5
G1 Y76.696
G2 X89.695 Y77.196 I0.5 J0.
G1 X92.052 Y77.197
G2 X92.552 Y76.697 I0. J-0.5
G1 X92.55 Y71.8
X92.57 Y-4.888
G3 X93.068 Y-5.388 I0.5 J0.
G1 X95.493 Y-5.399
G3 X95.995 Y-4.899 I0.002 J0.5
G1 Y76.69
G2 X96.494 Y77.19 I0.5 J0.
G1 X98.894 Y77.195
G2 X99.395 Y76.695 I0.001 J-0.5
G1 Y-4.894
G3 X99.896 Y-5.394 I0.5 J0.
G1 X102.27 Y-5.39
G3 X102.769 Y-4.89 I-0.001 J0.5
G1 X102.75 Y71.8
X102.752 Y76.697
G2 X103.254 Y77.197 I0.5 J0.
G1 X105.697 Y77.189
G2 X106.195 Y76.689 I-0.002 J-0.5
G1 Y-4.885
G3 X106.693 Y-5.385 I0.5 J0.
G1 X109.098 Y-5.394
G3 X109.6 Y-4.894 I0.002 J0.5
G1 Y76.697
X109.608 Y76.735
X109.629 Y76.768
X109.662 Y76.79
X109.7 Y76.797
X109.738 Y76.79
X109.771 Y76.768
X109.792 Y76.735
X109.8 Y76.697
Y0.
Y-4.891
G2 X109.32 Y-5.391 I-0.5 J0.
G1 X72.676 Y-6.867
G2 X72.156 Y-6.367 I-0.02 J0.5
G1 Y-6.254 Z-1.206
Y-6.142 Z-1.226
Y-6.033 Z-1.258
X72.155 Y-5.928 Z-1.302
Y-5.829 Z-1.357
Y-5.737 Z-1.424
Y-5.653 Z-1.5
Y-5.569 Z-1.576
Y-5.477 Z-1.643
Y-5.378 Z-1.698
Y-5.273 Z-1.742
Y-5.164 Z-1.774
Y-5.052 Z-1.794
Y-4.939 Z-1.8
Y-4.9
X72.149 Y6.8
X72.179 Y22.813
G3 X70.486 Y23.715 I-1.086 J0.002
G2 X68.793 Y24.618 I-0.606 J0.902
G1 Y24.961
G3 X68.514 Y25.138 I-0.196 J0.
G1 X68.1 Y24.947
G3 X67.936 Y24.527 I0.134 J-0.295
G2 X68.583 Y22.889 I-42.454 J-17.727
G1 X68.602 Y22.857
X68.631 Y22.833
X68.667 Y22.82
X68.704 Y22.821
X68.739 Y22.834
X68.768 Y22.858
X68.787 Y22.89
X68.793 Y22.927
Y24.618
G3 X68.282 Y25.117 I-0.5 J0.
X67.794 Y24.595 I0.011 J-0.5
G1 X69.126 Y-4.869
G2 X68.638 Y-5.391 I-0.499 J-0.023
X68.127 Y-4.891 I-0.011 J0.5
G1 X68.133 Y6.8
G3 X63.337 Y26.352 I-43.013 J-0.187
G2 X63.486 Y26.733 I0.242 J0.125
G3 X71.921 Y30.887 I-14.489 J40.067
G2 X72.194 Y30.737 I0.096 J-0.15
G1 X72.149 Y6.8
X72.155 Y-4.9
G3 X72.656 Y-5.4 I0.5 J0.
G1 X75.095 Y-5.395
G3 X75.594 Y-4.895 I-0.001 J0.5
G1 Y37.645
G3 X75.336 Y37.759 I-0.154 J0.
G2 X62.66 Y30.052 I-26.339 J29.041
X61.998 Y30.413 I-0.174 J0.469
G1 X61.481 Y32.756
G2 X61.79 Y33.33 I0.488 J0.108
G3 X78.763 Y46.9 I-12.909 J33.548
G1 X78.79 Y46.929
X78.825 Y46.948
X78.865 Y46.956
X78.905 Y46.95
X78.941 Y46.933
X78.969 Y46.905
X78.988 Y46.869
X78.994 Y46.83
Y-4.897
G3 X79.496 Y-5.397 I0.5 J0.
G1 X81.873 Y-5.387
G3 X82.371 Y-4.887 I-0.002 J0.5
G1 X82.35 Y71.8
X82.352 Y76.697
G3 X81.895 Y77.153 I-0.455 J0.
X81.442 Y76.694 I0.002 J-0.455
G1 Y76.687
X81.447 Y66.8
G2 X59.363 Y36.05 I-32.45 J0.
G3 X59.027 Y35.513 I0.16 J-0.474
G1 X60.427 Y24.642
X60.445 Y24.559
X60.477 Y24.48
G2 X64.733 Y6.8 I-35.224 J-17.831
G1 X64.727 Y-4.891
G2 X64.227 Y-5.391 I-0.5 J0.
G1 X61.826
G2 X61.326 Y-4.891 I0. J0.5
G1 X61.332 Y6.8
G3 X57.634 Y22.657 I-35.85 J0.
X57.206 Y22.936 I-0.448 J-0.221
G1 X54.445 Y23.049
G3 X53.985 Y22.31 I-0.02 J-0.5
G2 X57.932 Y6.8 I-28.503 J-15.51
G1 X57.926 Y-4.891
G2 X57.426 Y-5.391 I-0.5 J0.
G1 X55.027
G2 X54.526 Y-4.891 I0. J0.5
G1 X54.532 Y6.8
G3 X48.426 Y24.617 I-29.05 J0.
G2 X53.725 Y38.137 I6.674 J5.183
G3 X78.047 Y66.8 I-4.728 J28.663
G1 X78.042 Y76.698
G3 X77.541 Y77.197 I-0.5 J0.
G1 X75.142 Y77.193
G3 X74.642 Y76.693 I0.001 J-0.5
G1 X74.647 Y66.8
G2 X53.171 Y41.492 I-25.65 J0.
G3 X45.741 Y22.532 I1.929 J-11.692
G2 X51.132 Y6.8 I-20.259 J-15.732
G1 X51.127 Y-4.891
G2 X50.627 Y-5.391 I-0.5 J0.
G1 X48.227
G2 X47.727 Y-4.891 I0. J0.5
G1 X47.732 Y6.8
G3 X43.055 Y20.447 I-22.25 J0.
G2 X52.618 Y44.847 I12.045 J9.353
G3 X71.247 Y66.8 I-3.621 J21.953
G1 X71.243 Y76.688
G3 X70.745 Y77.188 I-0.5 J0.
G1 X68.345 Y77.199
G3 X67.843 Y76.699 I-0.002 J-0.5
G1 X67.847 Y66.8
G2 X52.065 Y48.201 I-18.85 J0.
G3 X40.37 Y18.361 I3.035 J-18.401
G2 X44.332 Y6.8 I-14.888 J-11.561
G1 X44.327 Y-4.891
G2 X43.827 Y-5.391 I-0.5 J0.
G1 X41.427
G2 X40.927 Y-4.891 I0. J0.5
G1 X40.932 Y6.8
G3 X37.684 Y16.276 I-15.45 J0.
G2 X51.511 Y51.556 I17.416 J13.524
G3 X64.447 Y66.8 I-2.515 J15.244
G1 X64.443 Y76.694
G3 X63.942 Y77.194 I-0.5 J0.
G1 X61.542 Y77.19
G3 X61.043 Y76.69 I0.001 J-0.5
G1 X61.047 Y66.8
G2 X50.958 Y54.911 I-12.05 J0.
G3 X34.999 Y14.191 I4.142 J-25.111
G2 X37.532 Y6.8 I-9.517 J-7.391
G1 X37.527 Y-4.891
G2 X37.027 Y-5.391 I-0.5 J0.
G1 X34.627
G2 X34.127 Y-4.891 I0. J0.5
G1 X34.132 Y6.8
G3 X32.314 Y12.105 I-8.65 J0.
G2 X50.405 Y58.265 I22.786 J17.695
G3 X57.647 Y66.8 I-1.408 J8.535
G1 X57.643 Y76.685
G3 X57.145 Y77.185 I-0.5 J0.
G1 X54.699 Y77.194
G3 X54.197 Y76.694 I-0.002 J-0.5
G1 Y66.8
G2 X49.843 Y61.669 I-5.2 J0.
G3 X29.589 Y9.989 I5.257 J-31.869
G2 X30.682 Y6.8 I-4.107 J-3.189
G1 Y0.
Y-4.897
X30.674 Y-4.935
X30.652 Y-4.968
X30.62 Y-4.99
X30.582 Y-4.997
X30.543 Y-4.99
X30.511 Y-4.968
X30.489 Y-4.935
X30.482 Y-4.897
Y6.8
G3 X29.431 Y9.867 I-5. J0.
G2 X49.81 Y61.867 I25.669 J19.933
G3 X53.997 Y66.8 I-0.814 J4.933
G1 Y71.8
Y76.691
G2 X54.497 Y77.191 I0.5 J0.
G1 X85.295
G2 X85.795 Y76.691 I0. J-0.5
G1 Y-4.898
G3 X86.296 Y-5.398 I0.5 J0.
G1 X88.696 Y-5.393
G3 X89.195 Y-4.893 I-0.001 J0.5
G1 Y76.696
G2 X89.695 Y77.196 I0.5 J0.
G1 X92.052 Y77.197
G2 X92.552 Y76.697 I0. J-0.5
G1 X92.55 Y71.8
X92.57 Y-4.888
G3 X93.068 Y-5.388 I0.5 J0.
G1 X95.493 Y-5.399
G3 X95.995 Y-4.899 I0.002 J0.5
G1 Y76.69
G2 X96.494 Y77.19 I0.5 J0.
G1 X98.894 Y77.195
G2 X99.395 Y76.695 I0.001 J-0.5
G1 Y-4.894
G3 X99.896 Y-5.394 I0.5 J0.
G1 X102.27 Y-5.39
G3 X102.769 Y-4.89 I-0.001 J0.5
G1 X102.75 Y71.8
X102.752 Y76.697
G2 X103.254 Y77.197 I0.5 J0.
G1 X105.697 Y77.189
G2 X106.195 Y76.689 I-0.002 J-0.5
G1 Y-4.885
G3 X106.693 Y-5.385 I0.5 J0.
G1 X109.098 Y-5.394
G3 X109.6 Y-4.894 I0.002 J0.5
G1 Y76.697
X109.608 Y76.735
X109.629 Y76.768
X109.662 Y76.79
X109.7 Y76.797
X109.738 Y76.79
X109.771 Y76.768
X109.792 Y76.735
X109.8 Y76.697
Y0.
Y-4.891
G2 X109.32 Y-5.391 I-0.5 J0.
G1 X72.676 Y-6.867
G2 X72.156 Y-6.367 I-0.02 J0.5
G1 Y-6.254 Z-1.806
Y-6.142 Z-1.826
Y-6.033 Z-1.858
X72.155 Y-5.928 Z-1.902
Y-5.829 Z-1.957
Y-5.737 Z-2.024
Y-5.653 Z-2.1
Y-5.569 Z-2.176
Y-5.477 Z-2.243
Y-5.378 Z-2.298
Y-5.273 Z-2.342
Y-5.164 Z-2.374
Y-5.052 Z-2.394
Y-4.939 Z-2.4
Y-4.9
X72.149 Y6.8
X72.179 Y22.813
G3 X70.486 Y23.715 I-1.086 J0.002
G2 X68.793 Y24.618 I-0.606 J0.902
G1 Y24.961
G3 X68.514 Y25.138 I-0.196 J0.
G1 X68.1 Y24.947
G3 X67.936 Y24.527 I0.134 J-0.295
G2 X68.583 Y22.889 I-42.454 J-17.727
G1 X68.602 Y22.857
X68.631 Y22.833
X68.667 Y22.82
X68.704 Y22.821
X68.739 Y22.834
X68.768 Y22.858
X68.787 Y22.89
X68.793 Y22.927
Y24.618
G3 X68.282 Y25.117 I-0.5 J0.
X67.794 Y24.595 I0.011 J-0.5
G1 X69.126 Y-4.869
G2 X68.638 Y-5.391 I-0.499 J-0.023
X68.127 Y-4.891 I-0.011 J0.5
G1 X68.133 Y6.8
G3 X63.337 Y26.352 I-43.013 J-0.187
G2 X63.486 Y26.733 I0.242 J0.125
G3 X71.921 Y30.887 I-14.489 J40.067
G2 X72.194 Y30.737 I0.096 J-0.15
G1 X72.149 Y6.8
X72.155 Y-4.9
G3 X72.656 Y-5.4 I0.5 J0.
G1 X75.095 Y-5.395
G3 X75.594 Y-4.895 I-0.001 J0.5
G1 Y37.645
G3 X75.336 Y37.759 I-0.154 J0.
G2 X62.66 Y30.052 I-26.339 J29.041
X61.998 Y30.413 I-0.174 J0.469
G1 X61.481 Y32.756
G2 X61.79 Y33.33 I0.488 J0.108
G3 X78.763 Y46.9 I-12.909 J33.548
G1 X78.79 Y46.929
X78.825 Y46.948
X78.865 Y46.956
X78.905 Y46.95
X78.941 Y46.933
X78.969 Y46.905
X78.988 Y46.869
X78.994 Y46.83
Y-4.897
G3 X79.496 Y-5.397 I0.5 J0.
G1 X81.873 Y-5.387
G3 X82.371 Y-4.887 I-0.002 J0.5
G1 X82.35 Y71.8
X82.352 Y76.697
G3 X81.895 Y77.153 I-0.455 J0.
X81.442 Y76.694 I0.002 J-0.455
G1 Y76.687
X81.447 Y66.8
G2 X59.363 Y36.05 I-32.45 J0.
G3 X59.027 Y35.513 I0.16 J-0.474
G1 X60.427 Y24.642
X60.445 Y24.559
X60.477 Y24.48
G2 X64.733 Y6.8 I-35.224 J-17.831
G1 X64.727 Y-4.891
G2 X64.227 Y-5.391 I-0.5 J0.
G1 X61.826
G2 X61.326 Y-4.891 I0. J0.5
G1 X61.332 Y6.8
G3 X57.634 Y22.657 I-35.85 J0.
X57.206 Y22.936 I-0.448 J-0.221
G1 X54.445 Y23.049
G3 X53.985 Y22.31 I-0.02 J-0.5
G2 X57.932 Y6.8 I-28.503 J-15.51
G1 X57.926 Y-4.891
G2 X57.426 Y-5.391 I-0.5 J0.
G1 X55.027
G2 X54.526 Y-4.891 I0. J0.5
G1 X54.532 Y6.8
G3 X48.426 Y24.617 I-29.05 J0.
G2 X53.725 Y38.137 I6.674 J5.183
G3 X78.047 Y66.8 I-4.728 J28.663
G1 X78.042 Y76.698
G3 X77.541 Y77.197 I-0.5 J0.
G1 X75.142 Y77.193
G3 X74.642 Y76.693 I0.001 J-0.5
G1 X74.647 Y66.8
G2 X53.171 Y41.492 I-25.65 J0.
G3 X45.741 Y22.532 I1.929 J-11.692
G2 X51.132 Y6.8 I-20.259 J-15.732
G1 X51.127 Y-4.891
G2 X50.627 Y-5.391 I-0.5 J0.
G1 X48.227
G2 X47.727 Y-4.891 I0. J0.5
G1 X47.732 Y6.8
G3 X43.055 Y20.447 I-22.25 J0.
G2 X52.618 Y44.847 I12.045 J9.353
G3 X71.247 Y66.8 I-3.621 J21.953
G1 X71.243 Y76.688
G3 X70.745 Y77.188 I-0.5 J0.
G1 X68.345 Y77.199
G3 X67.843 Y76.699 I-0.002 J-0.5
G1 X67.847 Y66.8
G2 X52.065 Y48.201 I-18.85 J0.
G3 X40.37 Y18.361 I3.035 J-18.401
G2 X44.332 Y6.8 I-14.888 J-11.561
G1 X44.327 Y-4.891
G2 X43.827 Y-5.391 I-0.5 J0.
G1 X41.427
G2 X40.927 Y-4.891 I0. J0.5
G1 X40.932 Y6.8
G3 X37.684 Y16.276 I-15.45 J0.
G2 X51.511 Y51.556 I17.416 J13.524
G3 X64.447 Y66.8 I-2.515 J15.244
G1 X64.443 Y76.694
G3 X63.942 Y77.194 I-0.5 J0.
G1 X61.542 Y77.19
G3 X61.043 Y76.69 I0.001 J-0.5
G1 X61.047 Y66.8
G2 X50.958 Y54.911 I-12.05 J0.
G3 X34.999 Y14.191 I4.142 J-25.111
G2 X37.532 Y6.8 I-9.517 J-7.391
G1 X37.527 Y-4.891
G2 X37.027 Y-5.391 I-0.5 J0.
G1 X34.627
G2 X34.127 Y-4.891 I0. J0.5
G1 X34.132 Y6.8
G3 X32.314 Y12.105 I-8.65 J0.
G2 X50.405 Y58.265 I22.786 J17.695
G3 X57.647 Y66.8 I-1.408 J8.535
G1 X57.643 Y76.685
G3 X57.145 Y77.185 I-0.5 J0.
G1 X54.699 Y77.194
G3 X54.197 Y76.694 I-0.002 J-0.5
G1 Y66.8
G2 X49.843 Y61.669 I-5.2 J0.
G3 X29.589 Y9.989 I5.257 J-31.869
G2 X30.682 Y6.8 I-4.107 J-3.189
G1 Y0.
Y-4.897
X30.674 Y-4.935
X30.652 Y-4.968
X30.62 Y-4.99
X30.582 Y-4.997
X30.543 Y-4.99
X30.511 Y-4.968
X30.489 Y-4.935
X30.482 Y-4.897
Y6.8
G3 X29.431 Y9.867 I-5. J0.
G2 X49.81 Y61.867 I25.669 J19.933
G3 X53.997 Y66.8 I-0.814 J4.933
G1 Y71.8
Y76.691
G2 X54.497 Y77.191 I0.5 J0.
G1 X85.295
G2 X85.795 Y76.691 I0. J-0.5
G1 Y-4.898
G3 X86.296 Y-5.398 I0.5 J0.
G1 X88.696 Y-5.393
G3 X89.195 Y-4.893 I-0.001 J0.5
G1 Y76.696
G2 X89.695 Y77.196 I0.5 J0.
G1 X92.052 Y77.197
G2 X92.552 Y76.697 I0. J-0.5
G1 X92.55 Y71.8
X92.57 Y-4.888
G3 X93.068 Y-5.388 I0.5 J0.
G1 X95.493 Y-5.399
G3 X95.995 Y-4.899 I0.002 J0.5
G1 Y76.69
G2 X96.494 Y77.19 I0.5 J0.
G1 X98.894 Y77.195
G2 X99.395 Y76.695 I0.001 J-0.5
G1 Y-4.894
G3 X99.896 Y-5.394 I0.5 J0.
G1 X102.27 Y-5.39
G3 X102.769 Y-4.89 I-0.001 J0.5
G1 X102.75 Y71.8
X102.752 Y76.697
G2 X103.254 Y77.197 I0.5 J0.
G1 X105.697 Y77.189
G2 X106.195 Y76.689 I-0.002 J-0.5
G1 Y-4.885
G3 X106.693 Y-5.385 I0.5 J0.
G1 X109.098 Y-5.394
G3 X109.6 Y-4.894 I0.002 J0.5
G1 Y76.697
X109.608 Y76.735
X109.629 Y76.768
X109.662 Y76.79
X109.7 Y76.797
X109.738 Y76.79
X109.771 Y76.768
X109.792 Y76.735
X109.8 Y76.697
Y0.
Y-4.891
G2 X109.32 Y-5.391 I-0.5 J0.
G1 X72.676 Y-6.867
G2 X72.156 Y-6.367 I-0.02 J0.5
G1 Y-6.254 Z-2.406
Y-6.142 Z-2.426
Y-6.033 Z-2.458
X72.155 Y-5.928 Z-2.502
Y-5.829 Z-2.557
Y-5.737 Z-2.624
Y-5.653 Z-2.7
Y-5.569 Z-2.776
Y-5.477 Z-2.843
Y-5.378 Z-2.898
Y-5.273 Z-2.942
Y-5.164 Z-2.974
Y-5.052 Z-2.994
Y-4.939 Z-3.
Y-4.9
X72.149 Y6.8
X72.179 Y22.813
G3 X70.486 Y23.715 I-1.086 J0.002
G2 X68.793 Y24.618 I-0.606 J0.902
G1 Y24.961
G3 X68.514 Y25.138 I-0.196 J0.
G1 X68.1 Y24.947
G3 X67.936 Y24.527 I0.134 J-0.295
G2 X68.583 Y22.889 I-42.454 J-17.727
G1 X68.602 Y22.857
X68.631 Y22.833
X68.667 Y22.82
X68.704 Y22.821
X68.739 Y22.834
X68.768 Y22.858
X68.787 Y22.89
X68.793 Y22.927
Y24.618
G3 X68.282 Y25.117 I-0.5 J0.
X67.794 Y24.595 I0.011 J-0.5
G1 X69.126 Y-4.869
G2 X68.638 Y-5.391 I-0.499 J-0.023
X68.127 Y-4.891 I-0.011 J0.5
G1 X68.133 Y6.8
G3 X63.337 Y26.352 I-43.013 J-0.187
G2 X63.486 Y26.733 I0.242 J0.125
G3 X71.921 Y30.887 I-14.489 J40.067
G2 X72.194 Y30.737 I0.096 J-0.15
G1 X72.149 Y6.8
X72.155 Y-4.9
G3 X72.656 Y-5.4 I0.5 J0.
G1 X75.095 Y-5.395
G3 X75.594 Y-4.895 I-0.001 J0.5
G1 Y37.645
G3 X75.336 Y37.759 I-0.154 J0.
G2 X62.66 Y30.052 I-26.339 J29.041
X61.998 Y30.413 I-0.174 J0.469
G1 X61.481 Y32.756
G2 X61.79 Y33.33 I0.488 J0.108
G3 X78.763 Y46.9 I-12.909 J33.548
G1 X78.79 Y46.929
X78.825 Y46.948
X78.865 Y46.956
X78.905 Y46.95
X78.941 Y46.933
X78.969 Y46.905
X78.988 Y46.869
X78.994 Y46.83
Y-4.897
G3 X79.496 Y-5.397 I0.5 J0.
G1 X81.873 Y-5.387
G3 X82.371 Y-4.887 I-0.002 J0.5
G1 X82.35 Y71.8
X82.352 Y76.697
G3 X81.895 Y77.153 I-0.455 J0.
X81.442 Y76.694 I0.002 J-0.455
G1 Y76.687
X81.447 Y66.8
G2 X59.363 Y36.05 I-32.45 J0.
G3 X59.027 Y35.513 I0.16 J-0.474
G1 X60.427 Y24.642
X60.445 Y24.559
X60.477 Y24.48
G2 X64.733 Y6.8 I-35.224 J-17.831
G1 X64.727 Y-4.891
G2 X64.227 Y-5.391 I-0.5 J0.
G1 X61.826
G2 X61.326 Y-4.891 I0. J0.5
G1 X61.332 Y6.8
G3 X57.634 Y22.657 I-35.85 J0.
X57.206 Y22.936 I-0.448 J-0.221
G1 X54.445 Y23.049
G3 X53.985 Y22.31 I-0.02 J-0.5
G2 X57.932 Y6.8 I-28.503 J-15.51
G1 X57.926 Y-4.891
G2 X57.426 Y-5.391 I-0.5 J0.
G1 X55.027
G2 X54.526 Y-4.891 I0. J0.5
G1 X54.532 Y6.8
G3 X48.426 Y24.617 I-29.05 J0.
G2 X53.725 Y38.137 I6.674 J5.183
G3 X78.047 Y66.8 I-4.728 J28.663
G1 X78.042 Y76.698
G3 X77.541 Y77.197 I-0.5 J0.
G1 X75.142 Y77.193
G3 X74.642 Y76.693 I0.001 J-0.5
G1 X74.647 Y66.8
G2 X53.171 Y41.492 I-25.65 J0.
G3 X45.741 Y22.532 I1.929 J-11.692
G2 X51.132 Y6.8 I-20.259 J-15.732
G1 X51.127 Y-4.891
G2 X50.627 Y-5.391 I-0.5 J0.
G1 X48.227
G2 X47.727 Y-4.891 I0. J0.5
G1 X47.732 Y6.8
G3 X43.055 Y20.447 I-22.25 J0.
G2 X52.618 Y44.847 I12.045 J9.353
G3 X71.247 Y66.8 I-3.621 J21.953
G1 X71.243 Y76.688
G3 X70.745 Y77.188 I-0.5 J0.
G1 X68.345 Y77.199
G3 X67.843 Y76.699 I-0.002 J-0.5
G1 X67.847 Y66.8
G2 X52.065 Y48.201 I-18.85 J0.
G3 X40.37 Y18.361 I3.035 J-18.401
G2 X44.332 Y6.8 I-14.888 J-11.561
G1 X44.327 Y-4.891
G2 X43.827 Y-5.391 I-0.5 J0.
G1 X41.427
G2 X40.927 Y-4.891 I0. J0.5
G1 X40.932 Y6.8
G3 X37.684 Y16.276 I-15.45 J0.
G2 X51.511 Y51.556 I17.416 J13.524
G3 X64.447 Y66.8 I-2.515 J15.244
G1 X64.443 Y76.694
G3 X63.942 Y77.194 I-0.5 J0.
G1 X61.542 Y77.19
G3 X61.043 Y76.69 I0.001 J-0.5
G1 X61.047 Y66.8
G2 X50.958 Y54.911 I-12.05 J0.
G3 X34.999 Y14.191 I4.142 J-25.111
G2 X37.532 Y6.8 I-9.517 J-7.391
G1 X37.527 Y-4.891
G2 X37.027 Y-5.391 I-0.5 J0.
G1 X34.627
G2 X34.127 Y-4.891 I0. J0.5
G1 X34.132 Y6.8
G3 X32.314 Y12.105 I-8.65 J0.
G2 X50.405 Y58.265 I22.786 J17.695
G3 X57.647 Y66.8 I-1.408 J8.535
G1 X57.643 Y76.685
G3 X57.145 Y77.185 I-0.5 J0.
G1 X54.699 Y77.194
G3 X54.197 Y76.694 I-0.002 J-0.5
G1 Y66.8
G2 X49.843 Y61.669 I-5.2 J0.
G3 X29.589 Y9.989 I5.257 J-31.869
G2 X30.682 Y6.8 I-4.107 J-3.189
G1 Y0.
Y-4.897
X30.674 Y-4.935
X30.652 Y-4.968
X30.62 Y-4.99
X30.582 Y-4.997
X30.543 Y-4.99
X30.511 Y-4.968
X30.489 Y-4.935
X30.482 Y-4.897
Y6.8
G3 X29.431 Y9.867 I-5. J0.
G2 X49.81 Y61.867 I25.669 J19.933
G3 X53.997 Y66.8 I-0.814 J4.933
G1 Y71.8
Y76.691
G2 X54.497 Y77.191 I0.5 J0.
G1 X85.295
G2 X85.795 Y76.691 I0. J-0.5
G1 Y-4.898
G3 X86.296 Y-5.398 I0.5 J0.
G1 X88.696 Y-5.393
G3 X89.195 Y-4.893 I-0.001 J0.5
G1 Y76.696
G2 X89.695 Y77.196 I0.5 J0.
G1 X92.052 Y77.197
G2 X92.552 Y76.697 I0. J-0.5
G1 X92.55 Y71.8
X92.57 Y-4.888
G3 X93.068 Y-5.388 I0.5 J0.
G1 X95.493 Y-5.399
G3 X95.995 Y-4.899 I0.002 J0.5
G1 Y76.69
G2 X96.494 Y77.19 I0.5 J0.
G1 X98.894 Y77.195
G2 X99.395 Y76.695 I0.001 J-0.5
G1 Y-4.894
G3 X99.896 Y-5.394 I0.5 J0.
G1 X102.27 Y-5.39
G3 X102.769 Y-4.89 I-0.001 J0.5
G1 X102.75 Y71.8
X102.752 Y76.697
G2 X103.254 Y77.197 I0.5 J0.
G1 X105.697 Y77.189
G2 X106.195 Y76.689 I-0.002 J-0.5
G1 Y-4.885
G3 X106.693 Y-5.385 I0.5 J0.
G1 X109.098 Y-5.394
G3 X109.6 Y-4.894 I0.002 J0.5
G1 Y76.697
X109.608 Y76.735
X109.629 Y76.768
X109.662 Y76.79
X109.7 Y76.797
X109.738 Y76.79
X109.771 Y76.768
X109.792 Y76.735
X109.8 Y76.697
Y0.
Y-4.891
G2 X109.32 Y-5.391 I-0.5 J0.
G1 X72.676 Y-6.867
G2 X72.156 Y-6.367 I-0.02 J0.5
G1 Y-6.254 Z-3.006
Y-6.142 Z-3.026
Y-6.033 Z-3.058
X72.155 Y-5.928 Z-3.102
Y-5.829 Z-3.157
Y-5.737 Z-3.224
Y-5.653 Z-3.3
Y-5.569 Z-3.376
Y-5.477 Z-3.443
Y-5.378 Z-3.498
Y-5.273 Z-3.542
Y-5.164 Z-3.574
Y-5.052 Z-3.594
Y-4.939 Z-3.6
Y-4.9
X72.149 Y6.8
X72.179 Y22.813
G3 X70.486 Y23.715 I-1.086 J0.002
G2 X68.793 Y24.618 I-0.606 J0.902
G1 Y24.961
G3 X68.514 Y25.138 I-0.196 J0.
G1 X68.1 Y24.947
G3 X67.936 Y24.527 I0.134 J-0.295
G2 X68.583 Y22.889 I-42.454 J-17.727
G1 X68.602 Y22.857
X68.631 Y22.833
X68.667 Y22.82
X68.704 Y22.821
X68.739 Y22.834
X68.768 Y22.858
X68.787 Y22.89
X68.793 Y22.927
Y24.618
G3 X68.282 Y25.117 I-0.5 J0.
X67.794 Y24.595 I0.011 J-0.5
G1 X69.126 Y-4.869
G2 X68.638 Y-5.391 I-0.499 J-0.023
X68.127 Y-4.891 I-0.011 J0.5
G1 X68.133 Y6.8
G3 X63.337 Y26.352 I-43.013 J-0.187
G2 X63.486 Y26.733 I0.242 J0.125
G3 X71.921 Y30.887 I-14.489 J40.067
G2 X72.194 Y30.737 I0.096 J-0.15
G1 X72.149 Y6.8
X72.155 Y-4.9
G3 X72.656 Y-5.4 I0.5 J0.
G1 X75.095 Y-5.395
G3 X75.594 Y-4.895 I-0.001 J0.5
G1 Y37.645
G3 X75.336 Y37.759 I-0.154 J0.
G2 X62.66 Y30.052 I-26.339 J29.041
X61.998 Y30.413 I-0.174 J0.469
G1 X61.481 Y32.756
G2 X61.79 Y33.33 I0.488 J0.108
G3 X78.763 Y46.9 I-12.909 J33.548
G1 X78.79 Y46.929
X78.825 Y46.948
X78.865 Y46.956
X78.905 Y46.95
X78.941 Y46.933
X78.969 Y46.905
X78.988 Y46.869
X78.994 Y46.83
Y-4.897
G3 X79.496 Y-5.397 I0.5 J0.
G1 X81.873 Y-5.387
G3 X82.371 Y-4.887 I-0.002 J0.5
G1 X82.35 Y71.8
X82.352 Y76.697
G3 X81.895 Y77.153 I-0.455 J0.
X81.442 Y76.694 I0.002 J-0.455
G1 Y76.687
X81.447 Y66.8
G2 X59.363 Y36.05 I-32.45 J0.
G3 X59.027 Y35.513 I0.16 J-0.474
G1 X60.427 Y24.642
X60.445 Y24.559
X60.477 Y24.48
G2 X64.733 Y6.8 I-35.224 J-17.831
G1 X64.727 Y-4.891
G2 X64.227 Y-5.391 I-0.5 J0.
G1 X61.826
G2 X61.326 Y-4.891 I0. J0.5
G1 X61.332 Y6.8
G3 X57.634 Y22.657 I-35.85 J0.
X57.206 Y22.936 I-0.448 J-0.221
G1 X54.445 Y23.049
G3 X53.985 Y22.31 I-0.02 J-0.5
G2 X57.932 Y6.8 I-28.503 J-15.51
G1 X57.926 Y-4.891
G2 X57.426 Y-5.391 I-0.5 J0.
G1 X55.027
G2 X54.526 Y-4.891 I0. J0.5
G1 X54.532 Y6.8
G3 X48.426 Y24.617 I-29.05 J0.
G2 X53.725 Y38.137 I6.674 J5.183
G3 X78.047 Y66.8 I-4.728 J28.663
G1 X78.042 Y76.698
G3 X77.541 Y77.197 I-0.5 J0.
G1 X75.142 Y77.193
G3 X74.642 Y76.693 I0.001 J-0.5
G1 X74.647 Y66.8
G2 X53.171 Y41.492 I-25.65 J0.
G3 X45.741 Y22.532 I1.929 J-11.692
G2 X51.132 Y6.8 I-20.259 J-15.732
G1 X51.127 Y-4.891
G2 X50.627 Y-5.391 I-0.5 J0.
G1 X48.227
G2 X47.727 Y-4.891 I0. J0.5
G1 X47.732 Y6.8
G3 X43.055 Y20.447 I-22.25 J0.
G2 X52.618 Y44.847 I12.045 J9.353
G3 X71.247 Y66.8 I-3.621 J21.953
G1 X71.243 Y76.688
G3 X70.745 Y77.188 I-0.5 J0.
G1 X68.345 Y77.199
G3 X67.843 Y76.699 I-0.002 J-0.5
G1 X67.847 Y66.8
G2 X52.065 Y48.201 I-18.85 J0.
G3 X40.37 Y18.361 I3.035 J-18.401
G2 X44.332 Y6.8 I-14.888 J-11.561
G1 X44.327 Y-4.891
G2 X43.827 Y-5.391 I-0.5 J0.
G1 X41.427
G2 X40.927 Y-4.891 I0. J0.5
G1 X40.932 Y6.8
G3 X37.684 Y16.276 I-15.45 J0.
G2 X51.511 Y51.556 I17.416 J13.524
G3 X64.447 Y66.8 I-2.515 J15.244
G1 X64.443 Y76.694
G3 X63.942 Y77.194 I-0.5 J0.
G1 X61.542 Y77.19
G3 X61.043 Y76.69 I0.001 J-0.5
G1 X61.047 Y66.8
G2 X50.958 Y54.911 I-12.05 J0.
G3 X34.999 Y14.191 I4.142 J-25.111
G2 X37.532 Y6.8 I-9.517 J-7.391
G1 X37.527 Y-4.891
G2 X37.027 Y-5.391 I-0.5 J0.
G1 X34.627
G2 X34.127 Y-4.891 I0. J0.5
G1 X34.132 Y6.8
G3 X32.314 Y12.105 I-8.65 J0.
G2 X50.405 Y58.265 I22.786 J17.695
G3 X57.647 Y66.8 I-1.408 J8.535
G1 X57.643 Y76.685
G3 X57.145 Y77.185 I-0.5 J0.
G1 X54.699 Y77.194
G3 X54.197 Y76.694 I-0.002 J-0.5
G1 Y66.8
G2 X49.843 Y61.669 I-5.2 J0.
G3 X29.589 Y9.989 I5.257 J-31.869
G2 X30.682 Y6.8 I-4.107 J-3.189
G1 Y0.
Y-4.897
X30.674 Y-4.935
X30.652 Y-4.968
X30.62 Y-4.99
X30.582 Y-4.997
X30.543 Y-4.99
X30.511 Y-4.968
X30.489 Y-4.935
X30.482 Y-4.897
Y6.8
G3 X29.431 Y9.867 I-5. J0.
G2 X49.81 Y61.867 I25.669 J19.933
G3 X53.997 Y66.8 I-0.814 J4.933
G1 Y71.8
Y76.691
G2 X54.497 Y77.191 I0.5 J0.
G1 X85.295
G2 X85.795 Y76.691 I0. J-0.5
G1 Y-4.898
G3 X86.296 Y-5.398 I0.5 J0.
G1 X88.696 Y-5.393
G3 X89.195 Y-4.893 I-0.001 J0.5
G1 Y76.696
G2 X89.695 Y77.196 I0.5 J0.
G1 X92.052 Y77.197
G2 X92.552 Y76.697 I0. J-0.5
G1 X92.55 Y71.8
X92.57 Y-4.888
G3 X93.068 Y-5.388 I0.5 J0.
G1 X95.493 Y-5.399
G3 X95.995 Y-4.899 I0.002 J0.5
G1 Y76.69
G2 X96.494 Y77.19 I0.5 J0.
G1 X98.894 Y77.195
G2 X99.395 Y76.695 I0.001 J-0.5
G1 Y-4.894
G3 X99.896 Y-5.394 I0.5 J0.
G1 X102.27 Y-5.39
G3 X102.769 Y-4.89 I-0.001 J0.5
G1 X102.75 Y71.8
X102.752 Y76.697
G2 X103.254 Y77.197 I0.5 J0.
G1 X105.697 Y77.189
G2 X106.195 Y76.689 I-0.002 J-0.5
G1 Y-4.885
G3 X106.693 Y-5.385 I0.5 J0.
G1 X109.098 Y-5.394
G3 X109.6 Y-4.894 I0.002 J0.5
G1 Y76.697
X109.608 Y76.735
X109.629 Y76.768
X109.662 Y76.79
X109.7 Y76.797
X109.738 Y76.79
X109.771 Y76.768
X109.792 Y76.735
X109.8 Y76.697
Y0.
Y-4.891
G2 X109.32 Y-5.391 I-0.5 J0.
G1 X72.676 Y-6.867
G2 X72.156 Y-6.367 I-0.02 J0.5
G1 Y-6.254 Z-3.606
Y-6.142 Z-3.626
Y-6.033 Z-3.658
X72.155 Y-5.928 Z-3.702
Y-5.829 Z-3.757
Y-5.737 Z-3.824
Y-5.653 Z-3.9
Y-5.569 Z-3.976
Y-5.477 Z-4.043
Y-5.378 Z-4.098
Y-5.273 Z-4.142
Y-5.164 Z-4.174
Y-5.052 Z-4.194
Y-4.939 Z-4.2
Y-4.9
X72.149 Y6.8
X72.179 Y22.813
G3 X70.486 Y23.715 I-1.086 J0.002
G2 X68.793 Y24.618 I-0.606 J0.902
G1 Y24.961
G3 X68.514 Y25.138 I-0.196 J0.
G1 X68.1 Y24.947
G3 X67.936 Y24.527 I0.134 J-0.295
G2 X68.583 Y22.889 I-42.454 J-17.727
G1 X68.602 Y22.857
X68.631 Y22.833
X68.667 Y22.82
X68.704 Y22.821
X68.739 Y22.834
X68.768 Y22.858
X68.787 Y22.89
X68.793 Y22.927
Y24.618
G3 X68.282 Y25.117 I-0.5 J0.
X67.794 Y24.595 I0.011 J-0.5
G1 X69.126 Y-4.869
G2 X68.638 Y-5.391 I-0.499 J-0.023
X68.127 Y-4.891 I-0.011 J0.5
G1 X68.133 Y6.8
G3 X63.337 Y26.352 I-43.013 J-0.187
G2 X63.486 Y26.733 I0.242 J0.125
G3 X71.921 Y30.887 I-14.489 J40.067
G2 X72.194 Y30.737 I0.096 J-0.15
G1 X72.149 Y6.8
X72.155 Y-4.9
G3 X72.656 Y-5.4 I0.5 J0.
G1 X75.095 Y-5.395
G3 X75.594 Y-4.895 I-0.001 J0.5
G1 Y37.645
G3 X75.336 Y37.759 I-0.154 J0.
G2 X62.66 Y30.052 I-26.339 J29.041
X61.998 Y30.413 I-0.174 J0.469
G1 X61.481 Y32.756
G2 X61.79 Y33.33 I0.488 J0.108
G3 X78.763 Y46.9 I-12.909 J33.548
G1 X78.79 Y46.929
X78.825 Y46.948
X78.865 Y46.956
X78.905 Y46.95
X78.941 Y46.933
X78.969 Y46.905
X78.988 Y46.869
X78.994 Y46.83
Y-4.897
G3 X79.496 Y-5.397 I0.5 J0.
G1 X81.873 Y-5.387
G3 X82.371 Y-4.887 I-0.002 J0.5
G1 X82.35 Y71.8
X82.352 Y76.697
G3 X81.895 Y77.153 I-0.455 J0.
X81.442 Y76.694 I0.002 J-0.455
G1 Y76.687
X81.447 Y66.8
G2 X59.363 Y36.05 I-32.45 J0.
G3 X59.027 Y35.513 I0.16 J-0.474
G1 X60.427 Y24.642
X60.445 Y24.559
X60.477 Y24.48
G2 X64.733 Y6.8 I-35.224 J-17.831
G1 X64.727 Y-4.891
G2 X64.227 Y-5.391 I-0.5 J0.
G1 X61.826
G2 X61.326 Y-4.891 I0. J0.5
G1 X61.332 Y6.8
G3 X57.634 Y22.657 I-35.85 J0.
X57.206 Y22.936 I-0.448 J-0.221
G1 X54.445 Y23.049
G3 X53.985 Y22.31 I-0.02 J-0.5
G2 X57.932 Y6.8 I-28.503 J-15.51
G1 X57.926 Y-4.891
G2 X57.426 Y-5.391 I-0.5 J0.
G1 X55.027
G2 X54.526 Y-4.891 I0. J0.5
G1 X54.532 Y6.8
G3 X48.426 Y24.617 I-29.05 J0.
G2 X53.725 Y38.137 I6.674 J5.183
G3 X78.047 Y66.8 I-4.728 J28.663
G1 X78.042 Y76.698
G3 X77.541 Y77.197 I-0.5 J0.
G1 X75.142 Y77.193
G3 X74.642 Y76.693 I0.001 J-0.5
G1 X74.647 Y66.8
G2 X53.171 Y41.492 I-25.65 J0.
G3 X45.741 Y22.532 I1.929 J-11.692
G2 X51.132 Y6.8 I-20.259 J-15.732
G1 X51.127 Y-4.891
G2 X50.627 Y-5.391 I-0.5 J0.
G1 X48.227
G2 X47.727 Y-4.891 I0. J0.5
G1 X47.732 Y6.8
G3 X43.055 Y20.447 I-22.25 J0.
G2 X52.618 Y44.847 I12.045 J9.353
G3 X71.247 Y66.8 I-3.621 J21.953
G1 X71.243 Y76.688
G3 X70.745 Y77.188 I-0.5 J0.
G1 X68.345 Y77.199
G3 X67.843 Y76.699 I-0.002 J-0.5
G1 X67.847 Y66.8
G2 X52.065 Y48.201 I-18.85 J0.
G3 X40.37 Y18.361 I3.035 J-18.401
G2 X44.332 Y6.8 I-14.888 J-11.561
G1 X44.327 Y-4.891
G2 X43.827 Y-5.391 I-0.5 J0.
G1 X41.427
G2 X40.927 Y-4.891 I0. J0.5
G1 X40.932 Y6.8
G3 X37.684 Y16.276 I-15.45 J0.
G2 X51.511 Y51.556 I17.416 J13.524
G3 X64.447 Y66.8 I-2.515 J15.244
G1 X64.443 Y76.694
G3 X63.942 Y77.194 I-0.5 J0.
G1 X61.542 Y77.19
G3 X61.043 Y76.69 I0.001 J-0.5
G1 X61.047 Y66.8
G2 X50.958 Y54.911 I-12.05 J0.
G3 X34.999 Y14.191 I4.142 J-25.111
G2 X37.532 Y6.8 I-9.517 J-7.391
G1 X37.527 Y-4.891
G2 X37.027 Y-5.391 I-0.5 J0.
G1 X34.627
G2 X34.127 Y-4.891 I0. J0.5
G1 X34.132 Y6.8
G3 X32.314 Y12.105 I-8.65 J0.
G2 X50.405 Y58.265 I22.786 J17.695
G3 X57.647 Y66.8 I-1.408 J8.535
G1 X57.643 Y76.685
G3 X57.145 Y77.185 I-0.5 J0.
G1 X54.699 Y77.194
G3 X54.197 Y76.694 I-0.002 J-0.5
G1 Y66.8
G2 X49.843 Y61.669 I-5.2 J0.
G3 X29.589 Y9.989 I5.257 J-31.869
G2 X30.682 Y6.8 I-4.107 J-3.189
G1 Y0.
Y-4.897
X30.674 Y-4.935
X30.652 Y-4.968
X30.62 Y-4.99
X30.582 Y-4.997
X30.543 Y-4.99
X30.511 Y-4.968
X30.489 Y-4.935
X30.482 Y-4.897
Y6.8
G3 X29.431 Y9.867 I-5. J0.
G2 X49.81 Y61.867 I25.669 J19.933
G3 X53.997 Y66.8 I-0.814 J4.933
G1 Y71.8
Y76.691
G2 X54.497 Y77.191 I0.5 J0.
G1 X85.295
G2 X85.795 Y76.691 I0. J-0.5
G1 Y-4.898
G3 X86.296 Y-5.398 I0.5 J0.
G1 X88.696 Y-5.393
G3 X89.195 Y-4.893 I-0.001 J0.5
G1 Y76.696
G2 X89.695 Y77.196 I0.5 J0.
G1 X92.052 Y77.197
G2 X92.552 Y76.697 I0. J-0.5
G1 X92.55 Y71.8
X92.57 Y-4.888
G3 X93.068 Y-5.388 I0.5 J0.
G1 X95.493 Y-5.399
G3 X95.995 Y-4.899 I0.002 J0.5
G1 Y76.69
G2 X96.494 Y77.19 I0.5 J0.
G1 X98.894 Y77.195
G2 X99.395 Y76.695 I0.001 J-0.5
G1 Y-4.894
G3 X99.896 Y-5.394 I0.5 J0.
G1 X102.27 Y-5.39
G3 X102.769 Y-4.89 I-0.001 J0.5
G1 X102.75 Y71.8
X102.752 Y76.697
G2 X103.254 Y77.197 I0.5 J0.
G1 X105.697 Y77.189
G2 X106.195 Y76.689 I-0.002 J-0.5
G1 Y-4.885
G3 X106.693 Y-5.385 I0.5 J0.
G1 X109.098 Y-5.394
G3 X109.6 Y-4.894 I0.002 J0.5
G1 Y76.697
X109.608 Y76.735
X109.629 Y76.768
X109.662 Y76.79
X109.7 Y76.797
X109.738 Y76.79
X109.771 Y76.768
X109.792 Y76.735
X109.8 Y76.697
Y0.
Y-4.891
G2 X109.32 Y-5.391 I-0.5 J0.
G1 X72.676 Y-6.867
G2 X72.156 Y-6.367 I-0.02 J0.5
G1 Y-6.254 Z-4.206
Y-6.142 Z-4.226
Y-6.033 Z-4.258
X72.155 Y-5.928 Z-4.302
Y-5.829 Z-4.357
Y-5.737 Z-4.424
Y-5.653 Z-4.5
Y-5.569 Z-4.576
Y-5.477 Z-4.643
Y-5.378 Z-4.698
Y-5.273 Z-4.742
Y-5.164 Z-4.774
Y-5.052 Z-4.794
Y-4.939 Z-4.8
Y-4.9
X72.149 Y6.8
X72.179 Y22.813
G3 X70.486 Y23.715 I-1.086 J0.002
G2 X68.793 Y24.618 I-0.606 J0.902
G1 Y24.961
G3 X68.514 Y25.138 I-0.196 J0.
G1 X68.1 Y24.947
G3 X67.936 Y24.527 I0.134 J-0.295
G2 X68.583 Y22.889 I-42.454 J-17.727
G1 X68.602 Y22.857
X68.631 Y22.833
X68.667 Y22.82
X68.704 Y22.821
X68.739 Y22.834
X68.768 Y22.858
X68.787 Y22.89
X68.793 Y22.927
Y24.618
G3 X68.282 Y25.117 I-0.5 J0.
X67.794 Y24.595 I0.011 J-0.5
G1 X69.126 Y-4.869
G2 X68.638 Y-5.391 I-0.499 J-0.023
X68.127 Y-4.891 I-0.011 J0.5
G1 X68.133 Y6.8
G3 X63.337 Y26.352 I-43.013 J-0.187
G2 X63.486 Y26.733 I0.242 J0.125
G3 X71.921 Y30.887 I-14.489 J40.067
G2 X72.194 Y30.737 I0.096 J-0.15
G1 X72.149 Y6.8
X72.155 Y-4.9
G3 X72.656 Y-5.4 I0.5 J0.
G1 X75.095 Y-5.395
G3 X75.594 Y-4.895 I-0.001 J0.5
G1 Y37.645
G3 X75.336 Y37.759 I-0.154 J0.
G2 X62.66 Y30.052 I-26.339 J29.041
X61.998 Y30.413 I-0.174 J0.469
G1 X61.481 Y32.756
G2 X61.79 Y33.33 I0.488 J0.108
G3 X78.763 Y46.9 I-12.909 J33.548
G1 X78.79 Y46.929
X78.825 Y46.948
X78.865 Y46.956
X78.905 Y46.95
X78.941 Y46.933
X78.969 Y46.905
X78.988 Y46.869
X78.994 Y46.83
Y-4.897
G3 X79.496 Y-5.397 I0.5 J0.
G1 X81.873 Y-5.387
G3 X82.371 Y-4.887 I-0.002 J0.5
G1 X82.35 Y71.8
X82.352 Y76.697
G3 X81.895 Y77.153 I-0.455 J0.
X81.442 Y76.694 I0.002 J-0.455
G1 Y76.687
X81.447 Y66.8
G2 X59.363 Y36.05 I-32.45 J0.
G3 X59.027 Y35.513 I0.16 J-0.474
G1 X60.427 Y24.642
X60.445 Y24.559
X60.477 Y24.48
G2 X64.733 Y6.8 I-35.224 J-17.831
G1 X64.727 Y-4.891
G2 X64.227 Y-5.391 I-0.5 J0.
G1 X61.826
G2 X61.326 Y-4.891 I0. J0.5
G1 X61.332 Y6.8
G3 X57.634 Y22.657 I-35.85 J0.
X57.206 Y22.936 I-0.448 J-0.221
G1 X54.445 Y23.049
G3 X53.985 Y22.31 I-0.02 J-0.5
G2 X57.932 Y6.8 I-28.503 J-15.51
G1 X57.926 Y-4.891
G2 X57.426 Y-5.391 I-0.5 J0.
G1 X55.027
G2 X54.526 Y-4.891 I0. J0.5
G1 X54.532 Y6.8
G3 X48.426 Y24.617 I-29.05 J0.
G2 X53.725 Y38.137 I6.674 J5.183
G3 X78.047 Y66.8 I-4.728 J28.663
G1 X78.042 Y76.698
G3 X77.541 Y77.197 I-0.5 J0.
G1 X75.142 Y77.193
G3 X74.642 Y76.693 I0.001 J-0.5
G1 X74.647 Y66.8
G2 X53.171 Y41.492 I-25.65 J0.
G3 X45.741 Y22.532 I1.929 J-11.692
G2 X51.132 Y6.8 I-20.259 J-15.732
G1 X51.127 Y-4.891
G2 X50.627 Y-5.391 I-0.5 J0.
G1 X48.227
G2 X47.727 Y-4.891 I0. J0.5
G1 X47.732 Y6.8
G3 X43.055 Y20.447 I-22.25 J0.
G2 X52.618 Y44.847 I12.045 J9.353
G3 X71.247 Y66.8 I-3.621 J21.953
G1 X71.243 Y76.688
G3 X70.745 Y77.188 I-0.5 J0.
G1 X68.345 Y77.199
G3 X67.843 Y76.699 I-0.002 J-0.5
G1 X67.847 Y66.8
G2 X52.065 Y48.201 I-18.85 J0.
G3 X40.37 Y18.361 I3.035 J-18.401
G2 X44.332 Y6.8 I-14.888 J-11.561
G1 X44.327 Y-4.891
G2 X43.827 Y-5.391 I-0.5 J0.
G1 X41.427
G2 X40.927 Y-4.891 I0. J0.5
G1 X40.932 Y6.8
G3 X37.684 Y16.276 I-15.45 J0.
G2 X51.511 Y51.556 I17.416 J13.524
G3 X64.447 Y66.8 I-2.515 J15.244
G1 X64.443 Y76.694
G3 X63.942 Y77.194 I-0.5 J0.
G1 X61.542 Y77.19
G3 X61.043 Y76.69 I0.001 J-0.5
G1 X61.047 Y66.8
G2 X50.958 Y54.911 I-12.05 J0.
G3 X34.999 Y14.191 I4.142 J-25.111
G2 X37.532 Y6.8 I-9.517 J-7.391
G1 X37.527 Y-4.891
G2 X37.027 Y-5.391 I-0.5 J0.
G1 X34.627
G2 X34.127 Y-4.891 I0. J0.5
G1 X34.132 Y6.8
G3 X32.314 Y12.105 I-8.65 J0.
G2 X50.405 Y58.265 I22.786 J17.695
G3 X57.647 Y66.8 I-1.408 J8.535
G1 X57.643 Y76.685
G3 X57.145 Y77.185 I-0.5 J0.
G1 X54.699 Y77.194
G3 X54.197 Y76.694 I-0.002 J-0.5
G1 Y66.8
G2 X49.843 Y61.669 I-5.2 J0.
G3 X29.589 Y9.989 I5.257 J-31.869
G2 X30.682 Y6.8 I-4.107 J-3.189
G1 Y0.
Y-4.897
X30.674 Y-4.935
X30.652 Y-4.968
X30.62 Y-4.99
X30.582 Y-4.997
X30.543 Y-4.99
X30.511 Y-4.968
X30.489 Y-4.935
X30.482 Y-4.897
Y6.8
G3 X29.431 Y9.867 I-5. J0.
G2 X49.81 Y61.867 I25.669 J19.933
G3 X53.997 Y66.8 I-0.814 J4.933
G1 Y71.8
Y76.691
G2 X54.497 Y77.191 I0.5 J0.
G1 X85.295
G2 X85.795 Y76.691 I0. J-0.5
G1 Y-4.898
G3 X86.296 Y-5.398 I0.5 J0.
G1 X88.696 Y-5.393
G3 X89.195 Y-4.893 I-0.001 J0.5
G1 Y76.696
G2 X89.695 Y77.196 I0.5 J0.
G1 X92.052 Y77.197
G2 X92.552 Y76.697 I0. J-0.5
G1 X92.55 Y71.8
X92.57 Y-4.888
G3 X93.068 Y-5.388 I0.5 J0.
G1 X95.493 Y-5.399
G3 X95.995 Y-4.899 I0.002 J0.5
G1 Y76.69
G2 X96.494 Y77.19 I0.5 J0.
G1 X98.894 Y77.195
G2 X99.395 Y76.695 I0.001 J-0.5
G1 Y-4.894
G3 X99.896 Y-5.394 I0.5 J0.
G1 X102.27 Y-5.39
G3 X102.769 Y-4.89 I-0.001 J0.5
G1 X102.75 Y71.8
X102.752 Y76.697
G2 X103.254 Y77.197 I0.5 J0.
G1 X105.697 Y77.189
G2 X106.195 Y76.689 I-0.002 J-0.5
G1 Y-4.885
G3 X106.693 Y-5.385 I0.5 J0.
G1 X109.098 Y-5.394
G3 X109.6 Y-4.894 I0.002 J0.5
G1 Y76.697
X109.608 Y76.735
X109.629 Y76.768
X109.662 Y76.79
X109.7 Y76.797
X109.738 Y76.79
X109.771 Y76.768
X109.792 Y76.735
X109.8 Y76.697
Y0.
Y-4.891
G2 X109.313 Y-5.391 I-0.5 J0.
G1 X72.668 Y-6.31
G2 X72.155 Y-5.811 I-0.013 J0.5
G1 Y-5.698 Z-4.806
Y-5.587 Z-4.825
Y-5.479 Z-4.857
Y-5.375 Z-4.9
Y-5.271 Z-4.943
Y-5.163 Z-4.975
Y-5.052 Z-4.994
Y-4.939 Z-5.
Y-4.9
X72.149 Y6.8
X72.179 Y22.813
G3 X70.486 Y23.715 I-1.086 J0.002
G2 X68.793 Y24.618 I-0.606 J0.902
G1 Y24.961
G3 X68.514 Y25.138 I-0.196 J0.
G1 X68.1 Y24.947
G3 X67.936 Y24.527 I0.134 J-0.295
G2 X68.583 Y22.889 I-42.454 J-17.727
G1 X68.602 Y22.857
X68.631 Y22.833
X68.667 Y22.82
X68.704 Y22.821
X68.739 Y22.834
X68.768 Y22.858
X68.787 Y22.89
X68.793 Y22.927
Y24.618
G3 X68.282 Y25.117 I-0.5 J0.
X67.794 Y24.595 I0.011 J-0.5
G1 X69.126 Y-4.869
G2 X68.638 Y-5.391 I-0.499 J-0.023
X68.127 Y-4.891 I-0.011 J0.5
G1 X68.133 Y6.8
G3 X63.337 Y26.352 I-43.013 J-0.187
G2 X63.486 Y26.733 I0.242 J0.125
G3 X71.921 Y30.887 I-14.489 J40.067
G2 X72.194 Y30.737 I0.096 J-0.15
G1 X72.149 Y6.8
X72.155 Y-4.9
G3 X72.656 Y-5.4 I0.5 J0.
G1 X75.095 Y-5.395
G3 X75.594 Y-4.895 I-0.001 J0.5
G1 Y37.645
G3 X75.336 Y37.759 I-0.154 J0.
G2 X62.66 Y30.052 I-26.339 J29.041
X61.998 Y30.413 I-0.174 J0.469
G1 X61.481 Y32.756
G2 X61.79 Y33.33 I0.488 J0.108
G3 X78.763 Y46.9 I-12.909 J33.548
G1 X78.79 Y46.929
X78.825 Y46.948
X78.865 Y46.956
X78.905 Y46.95
X78.941 Y46.933
X78.969 Y46.905
X78.988 Y46.869
X78.994 Y46.83
Y-4.897
G3 X79.496 Y-5.397 I0.5 J0.
G1 X81.873 Y-5.387
G3 X82.371 Y-4.887 I-0.002 J0.5
G1 X82.35 Y71.8
X82.352 Y76.697
G3 X81.895 Y77.153 I-0.455 J0.
X81.442 Y76.694 I0.002 J-0.455
G1 Y76.687
X81.447 Y66.8
G2 X59.363 Y36.05 I-32.45 J0.
G3 X59.027 Y35.513 I0.16 J-0.474
G1 X60.427 Y24.642
X60.445 Y24.559
X60.477 Y24.48
G2 X64.733 Y6.8 I-35.224 J-17.831
G1 X64.727 Y-4.891
G2 X64.227 Y-5.391 I-0.5 J0.
G1 X61.826
G2 X61.326 Y-4.891 I0. J0.5
G1 X61.332 Y6.8
G3 X57.634 Y22.657 I-35.85 J0.
X57.206 Y22.936 I-0.448 J-0.221
G1 X54.445 Y23.049
G3 X53.985 Y22.31 I-0.02 J-0.5
G2 X57.932 Y6.8 I-28.503 J-15.51
G1 X57.926 Y-4.891
G2 X57.426 Y-5.391 I-0.5 J0.
G1 X55.027
G2 X54.526 Y-4.891 I0. J0.5
G1 X54.532 Y6.8
G3 X48.426 Y24.617 I-29.05 J0.
G2 X53.725 Y38.137 I6.674 J5.183
G3 X78.047 Y66.8 I-4.728 J28.663
G1 X78.042 Y76.698
G3 X77.541 Y77.197 I-0.5 J0.
G1 X75.142 Y77.193
G3 X74.642 Y76.693 I0.001 J-0.5
G1 X74.647 Y66.8
G2 X53.171 Y41.492 I-25.65 J0.
G3 X45.741 Y22.532 I1.929 J-11.692
G2 X51.132 Y6.8 I-20.259 J-15.732
G1 X51.127 Y-4.891
G2 X50.627 Y-5.391 I-0.5 J0.
G1 X48.227
G2 X47.727 Y-4.891 I0. J0.5
G1 X47.732 Y6.8
G3 X43.055 Y20.447 I-22.25 J0.
G2 X52.618 Y44.847 I12.045 J9.353
G3 X71.247 Y66.8 I-3.621 J21.953
G1 X71.243 Y76.688
G3 X70.745 Y77.188 I-0.5 J0.
G1 X68.345 Y77.199
G3 X67.843 Y76.699 I-0.002 J-0.5
G1 X67.847 Y66.8
G2 X52.065 Y48.201 I-18.85 J0.
G3 X40.37 Y18.361 I3.035 J-18.401
G2 X44.332 Y6.8 I-14.888 J-11.561
G1 X44.327 Y-4.891
G2 X43.827 Y-5.391 I-0.5 J0.
G1 X41.427
G2 X40.927 Y-4.891 I0. J0.5
G1 X40.932 Y6.8
G3 X37.684 Y16.276 I-15.45 J0.
G2 X51.511 Y51.556 I17.416 J13.524
G3 X64.447 Y66.8 I-2.515 J15.244
G1 X64.443 Y76.694
G3 X63.942 Y77.194 I-0.5 J0.
G1 X61.542 Y77.19
G3 X61.043 Y76.69 I0.001 J-0.5
G1 X61.047 Y66.8
G2 X50.958 Y54.911 I-12.05 J0.
G3 X34.999 Y14.191 I4.142 J-25.111
G2 X37.532 Y6.8 I-9.517 J-7.391
G1 X37.527 Y-4.891
G2 X37.027 Y-5.391 I-0.5 J0.
G1 X34.627
G2 X34.127 Y-4.891 I0. J0.5
G1 X34.132 Y6.8
G3 X32.314 Y12.105 I-8.65 J0.
G2 X50.405 Y58.265 I22.786 J17.695
G3 X57.647 Y66.8 I-1.408 J8.535
G1 X57.643 Y76.685
G3 X57.145 Y77.185 I-0.5 J0.
G1 X54.699 Y77.194
G3 X54.197 Y76.694 I-0.002 J-0.5
G1 Y66.8
G2 X49.843 Y61.669 I-5.2 J0.
G3 X29.589 Y9.989 I5.257 J-31.869
G2 X30.682 Y6.8 I-4.107 J-3.189
G1 Y0.
Y-4.897
X30.674 Y-4.935
X30.652 Y-4.968
X30.62 Y-4.99
X30.582 Y-4.997
X30.543 Y-4.99
X30.511 Y-4.968
X30.489 Y-4.935
X30.482 Y-4.897
Y6.8
G3 X29.431 Y9.867 I-5. J0.
G2 X49.81 Y61.867 I25.669 J19.933
G3 X53.997 Y66.8 I-0.814 J4.933
G1 Y71.8
Y76.691
G2 X54.497 Y77.191 I0.5 J0.
G1 X85.295
G2 X85.795 Y76.691 I0. J-0.5
G1 Y-4.898
G3 X86.296 Y-5.398 I0.5 J0.
G1 X88.696 Y-5.393
G3 X89.195 Y-4.893 I-0.001 J0.5
G1 Y76.696
G2 X89.695 Y77.196 I0.5 J0.
G1 X92.052 Y77.197
G2 X92.552 Y76.697 I0. J-0.5
G1 X92.55 Y71.8
X92.57 Y-4.888
G3 X93.068 Y-5.388 I0.5 J0.
G1 X95.493 Y-5.399
G3 X95.995 Y-4.899 I0.002 J0.5
G1 Y76.69
G2 X96.494 Y77.19 I0.5 J0.
G1 X98.894 Y77.195
G2 X99.395 Y76.695 I0.001 J-0.5
G1 Y-4.894
G3 X99.896 Y-5.394 I0.5 J0.
G1 X102.27 Y-5.39
G3 X102.769 Y-4.89 I-0.001 J0.5
G1 X102.75 Y71.8
X102.752 Y76.697
G2 X103.254 Y77.197 I0.5 J0.
G1 X105.697 Y77.189
G2 X106.195 Y76.689 I-0.002 J-0.5
G1 Y-4.885
G3 X106.693 Y-5.385 I0.5 J0.
G1 X109.098 Y-5.394
G3 X109.6 Y-4.894 I0.002 J0.5
G1 Y76.697
X109.608 Y76.735
X109.629 Y76.768
X109.662 Y76.79
X109.7 Y76.797
X109.738 Y76.79
X109.771 Y76.768
X109.792 Y76.735
X109.8 Y76.697
Y0.
Y-4.891
X109.797 Y-4.97
X109.788 Y-5.048
X109.714 Y-5.511
X109.696 Y-5.63 Z-4.993
X109.677 Y-5.747 Z-4.971
X109.659 Y-5.861 Z-4.935
X109.642 Y-5.97 Z-4.885
X109.625 Y-6.072 Z-4.823
X109.611 Y-6.166 Z-4.749
X109.597 Y-6.25 Z-4.663
X109.586 Y-6.324 Z-4.568
X109.576 Y-6.385 Z-4.465
X109.568 Y-6.434 Z-4.355
X109.562 Y-6.47 Z-4.239
X109.559 Y-6.491 Z-4.121
X109.558 Y-6.499 Z-4.
G0 Z10.

M9
M30
