(1001)
(T1  D=10. CR=0. - ZMIN=-5. - FLAT END MILL)
G90 G94 G91.1 G40 G49 G17
G21

(2D POCKET1)
M5
M9
T1 M6
S9700 M3
G54
M8
G0 X62.386 Y44.914
G43 Z10. H1
Z5.
G1 Z1.6 F2328.
Z0.4
X62.392 Y44.918 Z0.279
X62.41 Y44.93 Z0.161
X62.44 Y44.949 Z0.045
X62.482 Y44.976 Z-0.065
X62.534 Y45.011 Z-0.168
X62.596 Y45.051 Z-0.263
X62.668 Y45.098 Z-0.349
X62.747 Y45.15 Z-0.423
X62.834 Y45.207 Z-0.485
X62.926 Y45.267 Z-0.535
X63.022 Y45.33 Z-0.571
X63.122 Y45.395 Z-0.593
X63.222 Y45.461 Z-0.6
G2 X67.964 Y44.47 I1.875 J-2.866
G1 X68.002 Y44.423
X68.048 Y44.383
X68.1 Y44.353
X68.514 Y44.162
G3 X68.793 Y44.339 I0.083 J0.177
G1 Y46.373
X68.787 Y46.41
X68.768 Y46.442
X68.739 Y46.466
X68.704 Y46.479
X68.667 Y46.48
X68.631 Y46.467
X68.602 Y46.443
X68.583 Y46.411
G2 X67.936 Y44.773 I-43.102 J16.089
G3 X67.964 Y44.47 I0.299 J-0.125
G2 X67.67 Y43.712 I-0.418 J-0.274
G1 X64.899 Y43.
G3 X64.837 Y42.052 I0.124 J-0.484
G2 X71.921 Y38.413 I-15.84 J-39.552
G3 X72.194 Y38.563 I0.096 J0.15
G1 Y74.196
G2 X72.695 Y74.696 I0.5 J0.
G1 X75.095 Y74.691
G2 X75.594 Y74.191 I-0.001 J-0.5
G1 Y31.655
G2 X75.336 Y31.541 I-0.154 J0.
G3 X65.089 Y38.251 I-26.339 J-29.041
X64.397 Y37.908 I-0.205 J-0.456
G1 X63.854 Y35.56
G3 X64.129 Y34.994 I0.487 J-0.113
G2 X78.763 Y22.4 I-15.11 J-32.357
G1 X78.79 Y22.371
X78.825 Y22.352
X78.865 Y22.344
X78.905 Y22.35
X78.941 Y22.367
X78.969 Y22.395
X78.988 Y22.431
X78.994 Y22.47
X78.95 Y69.3
X78.952 Y74.197
G2 X79.452 Y74.697 I0.5 J0.
G1 X81.895
G2 X82.395 Y74.197 I0. J-0.5
G1 Y-4.889
G2 X81.917 Y-5.365 I-0.476 J0.
X81.443 Y-4.885 I0.002 J0.476
G1 X81.447 Y2.5
G3 X62.052 Y32.208 I-32.45 J0.
X61.667 Y32.215 I-0.201 J-0.458
G1 X58.386 Y30.921
G3 X58.408 Y29.983 I0.183 J-0.465
G2 X78.047 Y2.5 I-9.411 J-27.483
G1 X78.043 Y-4.885
G3 X78.542 Y-5.385 I0.5 J0.
G1 X85.294 Y-5.4
G3 X85.795 Y-4.9 I0.001 J0.5
G1 Y74.186
G2 X86.294 Y74.686 I0.5 J0.
G1 X88.694 Y74.691
G2 X89.195 Y74.191 I0.001 J-0.5
G1 Y-4.895
G3 X89.696 Y-5.395 I0.5 J0.
G1 X92.096 Y-5.39
G3 X92.595 Y-4.89 I-0.001 J0.5
G1 Y74.196
G2 X93.097 Y74.696 I0.5 J0.
G1 X95.497 Y74.685
G2 X95.995 Y74.185 I-0.002 J-0.5
G1 Y-4.885
G3 X96.493 Y-5.385 I0.5 J0.
G1 X98.893 Y-5.396
G3 X99.395 Y-4.896 I0.002 J0.5
G1 Y74.19
G2 X99.894 Y74.69 I0.5 J0.
G1 X102.294 Y74.694
G2 X102.795 Y74.194 I0.001 J-0.5
G1 Y-4.891
G3 X103.296 Y-5.391 I0.5 J0.
G1 X105.696 Y-5.387
G3 X106.195 Y-4.887 I-0.001 J0.5
G1 Y74.199
G2 X106.695 Y74.699 I0.5 J0.
G1 X109.1 Y74.697
G2 X109.6 Y74.197 I0. J-0.5
G1 Y0.
Y-4.895
X109.608 Y-4.933
X109.63 Y-4.965
X109.663 Y-4.986
X109.701 Y-4.993
X109.739 Y-4.985
X109.771 Y-4.964
X109.792 Y-4.931
X109.8 Y-4.893
Y74.197
G3 X109.3 Y74.697 I-0.5 J0.
G1 X68.626 Y74.687
G3 X68.127 Y74.186 I0. J-0.5
G1 X68.133 Y62.5
G2 X63.987 Y44.248 I-42.251 J0.
X63.105 Y44.21 I-0.451 J0.216
G1 X61.623 Y46.726
G2 X61.594 Y47.176 I0.431 J0.254
G3 X64.733 Y62.5 I-35.842 J15.324
G1 X64.727 Y74.197
G3 X64.227 Y74.697 I-0.5 J0.
G1 X61.827 Y74.699
G3 X61.326 Y74.199 I0. J-0.5
G1 X61.332 Y62.5
G2 X58.659 Y48.918 I-35.85 J0.
X58.143 Y48.61 I-0.463 J0.189
G1 X55.652 Y48.88
G2 X55.247 Y49.576 I0.054 J0.497
G3 X57.932 Y62.5 I-29.765 J12.924
G1 X57.926 Y74.189
G3 X57.429 Y74.688 I-0.5 J0.
G1 X55.029 Y74.7
G3 X54.526 Y74.2 I-0.002 J-0.5
G1 X54.532 Y62.5
G2 X51.052 Y48.713 I-29.05 J0.
G3 X51.932 Y48.239 I0.44 J-0.237
X51.992 Y48.473 I-0.44 J0.237
G1 X52.127 Y74.192
G3 X51.628 Y74.695 I-0.5 J0.003
X51.127 Y74.195 I-0.001 J-0.5
G1 X51.132 Y62.5
G2 X45.741 Y46.768 I-25.65 J0.
G3 X53.171 Y27.808 I9.359 J-7.268
G2 X74.647 Y2.5 I-4.175 J-25.308
G1 X74.643 Y-4.885
G2 X74.143 Y-5.384 I-0.5 J0.
G1 X71.744 Y-5.385
G2 X71.243 Y-4.885 I0. J0.5
G1 X71.247 Y2.5
G3 X52.618 Y24.453 I-22.25 J0.
G2 X43.055 Y48.853 I2.482 J15.047
G3 X47.732 Y62.5 I-17.574 J13.647
G1 X47.727 Y74.19
G3 X47.226 Y74.69 I-0.5 J0.
G1 X44.826 Y74.686
G3 X44.327 Y74.185 I0.001 J-0.5
G1 X44.332 Y62.5
G2 X40.37 Y50.939 I-18.85 J0.
G3 X52.065 Y21.099 I14.73 J-11.439
G2 X67.847 Y2.5 I-3.068 J-18.599
G1 X67.844 Y-4.885
G2 X67.344 Y-5.384 I-0.5 J0.
G1 X64.944 Y-5.385
G2 X64.444 Y-4.885 I0. J0.5
G1 X64.447 Y2.5
G3 X51.511 Y17.744 I-15.45 J0.
G2 X37.684 Y53.024 I3.589 J21.756
G3 X40.932 Y62.5 I-12.203 J9.476
G1 X40.927 Y74.196
G3 X40.426 Y74.696 I-0.5 J0.
G1 X38.026 Y74.692
G3 X37.527 Y74.191 I0.001 J-0.5
G1 X37.532 Y62.5
G2 X34.999 Y55.109 I-12.05 J0.
G3 X50.958 Y14.389 I20.101 J-15.609
G2 X61.047 Y2.5 I-1.961 J-11.889
G1 X61.044 Y-4.885
G2 X60.544 Y-5.384 I-0.5 J0.
G1 X58.144 Y-5.385
G2 X57.644 Y-4.885 I0. J0.5
G1 X57.647 Y2.5
G3 X50.405 Y11.035 I-8.65 J0.
G2 X32.314 Y57.195 I4.695 J28.465
G3 X34.132 Y62.5 I-6.832 J5.305
G1 X34.127 Y74.187
G3 X33.629 Y74.687 I-0.5 J0.
G1 X31.183 Y74.695
G3 X30.682 Y74.195 I-0.002 J-0.5
G1 Y62.5
G2 X29.589 Y59.311 I-5.2 J0.
G3 X49.843 Y7.631 I25.511 J-19.811
G2 X54.197 Y2.5 I-0.846 J-5.131
G1 Y-4.897
X54.189 Y-4.935
X54.167 Y-4.968
X54.135 Y-4.99
X54.097 Y-4.997
X54.058 Y-4.99
X54.026 Y-4.968
X54.004 Y-4.935
X53.997 Y-4.897
Y0.
Y2.5
G3 X49.81 Y7.433 I-5. J0.
G2 X29.431 Y59.433 I5.29 J32.067
G3 X30.482 Y62.5 I-3.949 J3.067
G1 Y69.3
Y74.193
G2 X31.334 Y74.548 I0.5 J0.
G1 X61.402 Y44.742
G3 X62.027 Y44.679 I0.352 J0.355
G1 X62.122 Y44.741 Z-0.606
X62.216 Y44.802 Z-0.626
X62.307 Y44.862 Z-0.658
X62.395 Y44.92 Z-0.702
X62.478 Y44.974 Z-0.757
X62.555 Y45.024 Z-0.824
X62.625 Y45.07 Z-0.9
X62.695 Y45.116 Z-0.976
X62.772 Y45.167 Z-1.043
X62.855 Y45.221 Z-1.098
X62.943 Y45.278 Z-1.142
X63.034 Y45.338 Z-1.174
X63.128 Y45.399 Z-1.194
X63.222 Y45.461 Z-1.2
G2 X67.964 Y44.47 I1.875 J-2.866
G1 X68.002 Y44.423
X68.048 Y44.383
X68.1 Y44.353
X68.514 Y44.162
G3 X68.793 Y44.339 I0.083 J0.177
G1 Y46.373
X68.787 Y46.41
X68.768 Y46.442
X68.739 Y46.466
X68.704 Y46.479
X68.667 Y46.48
X68.631 Y46.467
X68.602 Y46.443
X68.583 Y46.411
G2 X67.936 Y44.773 I-43.102 J16.089
G3 X67.964 Y44.47 I0.299 J-0.125
G2 X67.67 Y43.712 I-0.418 J-0.274
G1 X64.899 Y43.
G3 X64.837 Y42.052 I0.124 J-0.484
G2 X71.921 Y38.413 I-15.84 J-39.552
G3 X72.194 Y38.563 I0.096 J0.15
G1 Y74.196
G2 X72.695 Y74.696 I0.5 J0.
G1 X75.095 Y74.691
G2 X75.594 Y74.191 I-0.001 J-0.5
G1 Y31.655
G2 X75.336 Y31.541 I-0.154 J0.
G3 X65.089 Y38.251 I-26.339 J-29.041
X64.397 Y37.908 I-0.205 J-0.456
G1 X63.854 Y35.56
G3 X64.129 Y34.994 I0.487 J-0.113
G2 X78.763 Y22.4 I-15.11 J-32.357
G1 X78.79 Y22.371
X78.825 Y22.352
X78.865 Y22.344
X78.905 Y22.35
X78.941 Y22.367
X78.969 Y22.395
X78.988 Y22.431
X78.994 Y22.47
X78.95 Y69.3
X78.952 Y74.197
G2 X79.452 Y74.697 I0.5 J0.
G1 X81.895
G2 X82.395 Y74.197 I0. J-0.5
G1 Y-4.889
G2 X81.917 Y-5.365 I-0.476 J0.
X81.443 Y-4.885 I0.002 J0.476
G1 X81.447 Y2.5
G3 X62.052 Y32.208 I-32.45 J0.
X61.667 Y32.215 I-0.201 J-0.458
G1 X58.386 Y30.921
G3 X58.408 Y29.983 I0.183 J-0.465
G2 X78.047 Y2.5 I-9.411 J-27.483
G1 X78.043 Y-4.885
G3 X78.542 Y-5.385 I0.5 J0.
G1 X85.294 Y-5.4
G3 X85.795 Y-4.9 I0.001 J0.5
G1 Y74.186
G2 X86.294 Y74.686 I0.5 J0.
G1 X88.694 Y74.691
G2 X89.195 Y74.191 I0.001 J-0.5
G1 Y-4.895
G3 X89.696 Y-5.395 I0.5 J0.
G1 X92.096 Y-5.39
G3 X92.595 Y-4.89 I-0.001 J0.5
G1 Y74.196
G2 X93.097 Y74.696 I0.5 J0.
G1 X95.497 Y74.685
G2 X95.995 Y74.185 I-0.002 J-0.5
G1 Y-4.885
G3 X96.493 Y-5.385 I0.5 J0.
G1 X98.893 Y-5.396
G3 X99.395 Y-4.896 I0.002 J0.5
G1 Y74.19
G2 X99.894 Y74.69 I0.5 J0.
G1 X102.294 Y74.694
G2 X102.795 Y74.194 I0.001 J-0.5
G1 Y-4.891
G3 X103.296 Y-5.391 I0.5 J0.
G1 X105.696 Y-5.387
G3 X106.195 Y-4.887 I-0.001 J0.5
G1 Y74.199
G2 X106.695 Y74.699 I0.5 J0.
G1 X109.1 Y74.697
G2 X109.6 Y74.197 I0. J-0.5
G1 Y0.
Y-4.895
X109.608 Y-4.933
X109.63 Y-4.965
X109.663 Y-4.986
X109.701 Y-4.993
X109.739 Y-4.985
X109.771 Y-4.964
X109.792 Y-4.931
X109.8 Y-4.893
Y74.197
G3 X109.3 Y74.697 I-0.5 J0.
G1 X68.626 Y74.687
G3 X68.127 Y74.186 I0. J-0.5
G1 X68.133 Y62.5
G2 X63.987 Y44.248 I-42.251 J0.
X63.105 Y44.21 I-0.451 J0.216
G1 X61.623 Y46.726
G2 X61.594 Y47.176 I0.431 J0.254
G3 X64.733 Y62.5 I-35.842 J15.324
G1 X64.727 Y74.197
G3 X64.227 Y74.697 I-0.5 J0.
G1 X61.827 Y74.699
G3 X61.326 Y74.199 I0. J-0.5
G1 X61.332 Y62.5
G2 X58.659 Y48.918 I-35.85 J0.
X58.143 Y48.61 I-0.463 J0.189
G1 X55.652 Y48.88
G2 X55.247 Y49.576 I0.054 J0.497
G3 X57.932 Y62.5 I-29.765 J12.924
G1 X57.926 Y74.189
G3 X57.429 Y74.688 I-0.5 J0.
G1 X55.029 Y74.7
G3 X54.526 Y74.2 I-0.002 J-0.5
G1 X54.532 Y62.5
G2 X51.052 Y48.713 I-29.05 J0.
G3 X51.932 Y48.239 I0.44 J-0.237
X51.992 Y48.473 I-0.44 J0.237
G1 X52.127 Y74.192
G3 X51.628 Y74.695 I-0.5 J0.003
X51.127 Y74.195 I-0.001 J-0.5
G1 X51.132 Y62.5
G2 X45.741 Y46.768 I-25.65 J0.
G3 X53.171 Y27.808 I9.359 J-7.268
G2 X74.647 Y2.5 I-4.175 J-25.308
G1 X74.643 Y-4.885
G2 X74.143 Y-5.384 I-0.5 J0.
G1 X71.744 Y-5.385
G2 X71.243 Y-4.885 I0. J0.5
G1 X71.247 Y2.5
G3 X52.618 Y24.453 I-22.25 J0.
G2 X43.055 Y48.853 I2.482 J15.047
G3 X47.732 Y62.5 I-17.574 J13.647
G1 X47.727 Y74.19
G3 X47.226 Y74.69 I-0.5 J0.
G1 X44.826 Y74.686
G3 X44.327 Y74.185 I0.001 J-0.5
G1 X44.332 Y62.5
G2 X40.37 Y50.939 I-18.85 J0.
G3 X52.065 Y21.099 I14.73 J-11.439
G2 X67.847 Y2.5 I-3.068 J-18.599
G1 X67.844 Y-4.885
G2 X67.344 Y-5.384 I-0.5 J0.
G1 X64.944 Y-5.385
G2 X64.444 Y-4.885 I0. J0.5
G1 X64.447 Y2.5
G3 X51.511 Y17.744 I-15.45 J0.
G2 X37.684 Y53.024 I3.589 J21.756
G3 X40.932 Y62.5 I-12.203 J9.476
G1 X40.927 Y74.196
G3 X40.426 Y74.696 I-0.5 J0.
G1 X38.026 Y74.692
G3 X37.527 Y74.191 I0.001 J-0.5
G1 X37.532 Y62.5
G2 X34.999 Y55.109 I-12.05 J0.
G3 X50.958 Y14.389 I20.101 J-15.609
G2 X61.047 Y2.5 I-1.961 J-11.889
G1 X61.044 Y-4.885
G2 X60.544 Y-5.384 I-0.5 J0.
G1 X58.144 Y-5.385
G2 X57.644 Y-4.885 I0. J0.5
G1 X57.647 Y2.5
G3 X50.405 Y11.035 I-8.65 J0.
G2 X32.314 Y57.195 I4.695 J28.465
G3 X34.132 Y62.5 I-6.832 J5.305
G1 X34.127 Y74.187
G3 X33.629 Y74.687 I-0.5 J0.
G1 X31.183 Y74.695
G3 X30.682 Y74.195 I-0.002 J-0.5
G1 Y62.5
G2 X29.589 Y59.311 I-5.2 J0.
G3 X49.843 Y7.631 I25.511 J-19.811
G2 X54.197 Y2.5 I-0.846 J-5.131
G1 Y-4.897
X54.189 Y-4.935
X54.167 Y-4.968
X54.135 Y-4.99
X54.097 Y-4.997
X54.058 Y-4.99
X54.026 Y-4.968
X54.004 Y-4.935
X53.997 Y-4.897
Y0.
Y2.5
G3 X49.81 Y7.433 I-5. J0.
G2 X29.431 Y59.433 I5.29 J32.067
G3 X30.482 Y62.5 I-3.949 J3.067
G1 Y69.3
Y74.193
G2 X31.334 Y74.548 I0.5 J0.
G1 X61.402 Y44.742
G3 X62.027 Y44.679 I0.352 J0.355
G1 X62.122 Y44.741 Z-1.206
X62.216 Y44.802 Z-1.226
X62.307 Y44.862 Z-1.258
X62.395 Y44.92 Z-1.302
X62.478 Y44.974 Z-1.357
X62.555 Y45.024 Z-1.424
X62.625 Y45.07 Z-1.5
X62.695 Y45.116 Z-1.576
X62.772 Y45.167 Z-1.643
X62.855 Y45.221 Z-1.698
X62.943 Y45.278 Z-1.742
X63.034 Y45.338 Z-1.774
X63.128 Y45.399 Z-1.794
X63.222 Y45.461 Z-1.8
G2 X67.964 Y44.47 I1.875 J-2.866
G1 X68.002 Y44.423
X68.048 Y44.383
X68.1 Y44.353
X68.514 Y44.162
G3 X68.793 Y44.339 I0.083 J0.177
G1 Y46.373
X68.787 Y46.41
X68.768 Y46.442
X68.739 Y46.466
X68.704 Y46.479
X68.667 Y46.48
X68.631 Y46.467
X68.602 Y46.443
X68.583 Y46.411
G2 X67.936 Y44.773 I-43.102 J16.089
G3 X67.964 Y44.47 I0.299 J-0.125
G2 X67.67 Y43.712 I-0.418 J-0.274
G1 X64.899 Y43.
G3 X64.837 Y42.052 I0.124 J-0.484
G2 X71.921 Y38.413 I-15.84 J-39.552
G3 X72.194 Y38.563 I0.096 J0.15
G1 Y74.196
G2 X72.695 Y74.696 I0.5 J0.
G1 X75.095 Y74.691
G2 X75.594 Y74.191 I-0.001 J-0.5
G1 Y31.655
G2 X75.336 Y31.541 I-0.154 J0.
G3 X65.089 Y38.251 I-26.339 J-29.041
X64.397 Y37.908 I-0.205 J-0.456
G1 X63.854 Y35.56
G3 X64.129 Y34.994 I0.487 J-0.113
G2 X78.763 Y22.4 I-15.11 J-32.357
G1 X78.79 Y22.371
X78.825 Y22.352
X78.865 Y22.344
X78.905 Y22.35
X78.941 Y22.367
X78.969 Y22.395
X78.988 Y22.431
X78.994 Y22.47
X78.95 Y69.3
X78.952 Y74.197
G2 X79.452 Y74.697 I0.5 J0.
G1 X81.895
G2 X82.395 Y74.197 I0. J-0.5
G1 Y-4.889
G2 X81.917 Y-5.365 I-0.476 J0.
X81.443 Y-4.885 I0.002 J0.476
G1 X81.447 Y2.5
G3 X62.052 Y32.208 I-32.45 J0.
X61.667 Y32.215 I-0.201 J-0.458
G1 X58.386 Y30.921
G3 X58.408 Y29.983 I0.183 J-0.465
G2 X78.047 Y2.5 I-9.411 J-27.483
G1 X78.043 Y-4.885
G3 X78.542 Y-5.385 I0.5 J0.
G1 X85.294 Y-5.4
G3 X85.795 Y-4.9 I0.001 J0.5
G1 Y74.186
G2 X86.294 Y74.686 I0.5 J0.
G1 X88.694 Y74.691
G2 X89.195 Y74.191 I0.001 J-0.5
G1 Y-4.895
G3 X89.696 Y-5.395 I0.5 J0.
G1 X92.096 Y-5.39
G3 X92.595 Y-4.89 I-0.001 J0.5
G1 Y74.196
G2 X93.097 Y74.696 I0.5 J0.
G1 X95.497 Y74.685
G2 X95.995 Y74.185 I-0.002 J-0.5
G1 Y-4.885
G3 X96.493 Y-5.385 I0.5 J0.
G1 X98.893 Y-5.396
G3 X99.395 Y-4.896 I0.002 J0.5
G1 Y74.19
G2 X99.894 Y74.69 I0.5 J0.
G1 X102.294 Y74.694
G2 X102.795 Y74.194 I0.001 J-0.5
G1 Y-4.891
G3 X103.296 Y-5.391 I0.5 J0.
G1 X105.696 Y-5.387
G3 X106.195 Y-4.887 I-0.001 J0.5
G1 Y74.199
G2 X106.695 Y74.699 I0.5 J0.
G1 X109.1 Y74.697
G2 X109.6 Y74.197 I0. J-0.5
G1 Y0.
Y-4.895
X109.608 Y-4.933
X109.63 Y-4.965
X109.663 Y-4.986
X109.701 Y-4.993
X109.739 Y-4.985
X109.771 Y-4.964
X109.792 Y-4.931
X109.8 Y-4.893
Y74.197
G3 X109.3 Y74.697 I-0.5 J0.
G1 X68.626 Y74.687
G3 X68.127 Y74.186 I0. J-0.5
G1 X68.133 Y62.5
G2 X63.987 Y44.248 I-42.251 J0.
X63.105 Y44.21 I-0.451 J0.216
G1 X61.623 Y46.726
G2 X61.594 Y47.176 I0.431 J0.254
G3 X64.733 Y62.5 I-35.842 J15.324
G1 X64.727 Y74.197
G3 X64.227 Y74.697 I-0.5 J0.
G1 X61.827 Y74.699
G3 X61.326 Y74.199 I0. J-0.5
G1 X61.332 Y62.5
G2 X58.659 Y48.918 I-35.85 J0.
X58.143 Y48.61 I-0.463 J0.189
G1 X55.652 Y48.88
G2 X55.247 Y49.576 I0.054 J0.497
G3 X57.932 Y62.5 I-29.765 J12.924
G1 X57.926 Y74.189
G3 X57.429 Y74.688 I-0.5 J0.
G1 X55.029 Y74.7
G3 X54.526 Y74.2 I-0.002 J-0.5
G1 X54.532 Y62.5
G2 X51.052 Y48.713 I-29.05 J0.
G3 X51.932 Y48.239 I0.44 J-0.237
X51.992 Y48.473 I-0.44 J0.237
G1 X52.127 Y74.192
G3 X51.628 Y74.695 I-0.5 J0.003
X51.127 Y74.195 I-0.001 J-0.5
G1 X51.132 Y62.5
G2 X45.741 Y46.768 I-25.65 J0.
G3 X53.171 Y27.808 I9.359 J-7.268
G2 X74.647 Y2.5 I-4.175 J-25.308
G1 X74.643 Y-4.885
G2 X74.143 Y-5.384 I-0.5 J0.
G1 X71.744 Y-5.385
G2 X71.243 Y-4.885 I0. J0.5
G1 X71.247 Y2.5
G3 X52.618 Y24.453 I-22.25 J0.
G2 X43.055 Y48.853 I2.482 J15.047
G3 X47.732 Y62.5 I-17.574 J13.647
G1 X47.727 Y74.19
G3 X47.226 Y74.69 I-0.5 J0.
G1 X44.826 Y74.686
G3 X44.327 Y74.185 I0.001 J-0.5
G1 X44.332 Y62.5
G2 X40.37 Y50.939 I-18.85 J0.
G3 X52.065 Y21.099 I14.73 J-11.439
G2 X67.847 Y2.5 I-3.068 J-18.599
G1 X67.844 Y-4.885
G2 X67.344 Y-5.384 I-0.5 J0.
G1 X64.944 Y-5.385
G2 X64.444 Y-4.885 I0. J0.5
G1 X64.447 Y2.5
G3 X51.511 Y17.744 I-15.45 J0.
G2 X37.684 Y53.024 I3.589 J21.756
G3 X40.932 Y62.5 I-12.203 J9.476
G1 X40.927 Y74.196
G3 X40.426 Y74.696 I-0.5 J0.
G1 X38.026 Y74.692
G3 X37.527 Y74.191 I0.001 J-0.5
G1 X37.532 Y62.5
G2 X34.999 Y55.109 I-12.05 J0.
G3 X50.958 Y14.389 I20.101 J-15.609
G2 X61.047 Y2.5 I-1.961 J-11.889
G1 X61.044 Y-4.885
G2 X60.544 Y-5.384 I-0.5 J0.
G1 X58.144 Y-5.385
G2 X57.644 Y-4.885 I0. J0.5
G1 X57.647 Y2.5
G3 X50.405 Y11.035 I-8.65 J0.
G2 X32.314 Y57.195 I4.695 J28.465
G3 X34.132 Y62.5 I-6.832 J5.305
G1 X34.127 Y74.187
G3 X33.629 Y74.687 I-0.5 J0.
G1 X31.183 Y74.695
G3 X30.682 Y74.195 I-0.002 J-0.5
G1 Y62.5
G2 X29.589 Y59.311 I-5.2 J0.
G3 X49.843 Y7.631 I25.511 J-19.811
G2 X54.197 Y2.5 I-0.846 J-5.131
G1 Y-4.897
X54.189 Y-4.935
X54.167 Y-4.968
X54.135 Y-4.99
X54.097 Y-4.997
X54.058 Y-4.99
X54.026 Y-4.968
X54.004 Y-4.935
X53.997 Y-4.897
Y0.
Y2.5
G3 X49.81 Y7.433 I-5. J0.
G2 X29.431 Y59.433 I5.29 J32.067
G3 X30.482 Y62.5 I-3.949 J3.067
G1 Y69.3
Y74.193
G2 X31.334 Y74.548 I0.5 J0.
G1 X61.402 Y44.742
G3 X62.027 Y44.679 I0.352 J0.355
G1 X62.122 Y44.741 Z-1.806
X62.216 Y44.802 Z-1.826
X62.307 Y44.862 Z-1.858
X62.395 Y44.92 Z-1.902
X62.478 Y44.974 Z-1.957
X62.555 Y45.024 Z-2.024
X62.625 Y45.07 Z-2.1
X62.695 Y45.116 Z-2.176
X62.772 Y45.167 Z-2.243
X62.855 Y45.221 Z-2.298
X62.943 Y45.278 Z-2.342
X63.034 Y45.338 Z-2.374
X63.128 Y45.399 Z-2.394
X63.222 Y45.461 Z-2.4
G2 X67.964 Y44.47 I1.875 J-2.866
G1 X68.002 Y44.423
X68.048 Y44.383
X68.1 Y44.353
X68.514 Y44.162
G3 X68.793 Y44.339 I0.083 J0.177
G1 Y46.373
X68.787 Y46.41
X68.768 Y46.442
X68.739 Y46.466
X68.704 Y46.479
X68.667 Y46.48
X68.631 Y46.467
X68.602 Y46.443
X68.583 Y46.411
G2 X67.936 Y44.773 I-43.102 J16.089
G3 X67.964 Y44.47 I0.299 J-0.125
G2 X67.67 Y43.712 I-0.418 J-0.274
G1 X64.899 Y43.
G3 X64.837 Y42.052 I0.124 J-0.484
G2 X71.921 Y38.413 I-15.84 J-39.552
G3 X72.194 Y38.563 I0.096 J0.15
G1 Y74.196
G2 X72.695 Y74.696 I0.5 J0.
G1 X75.095 Y74.691
G2 X75.594 Y74.191 I-0.001 J-0.5
G1 Y31.655
G2 X75.336 Y31.541 I-0.154 J0.
G3 X65.089 Y38.251 I-26.339 J-29.041
X64.397 Y37.908 I-0.205 J-0.456
G1 X63.854 Y35.56
G3 X64.129 Y34.994 I0.487 J-0.113
G2 X78.763 Y22.4 I-15.11 J-32.357
G1 X78.79 Y22.371
X78.825 Y22.352
X78.865 Y22.344
X78.905 Y22.35
X78.941 Y22.367
X78.969 Y22.395
X78.988 Y22.431
X78.994 Y22.47
X78.95 Y69.3
X78.952 Y74.197
G2 X79.452 Y74.697 I0.5 J0.
G1 X81.895
G2 X82.395 Y74.197 I0. J-0.5
G1 Y-4.889
G2 X81.917 Y-5.365 I-0.476 J0.
X81.443 Y-4.885 I0.002 J0.476
G1 X81.447 Y2.5
G3 X62.052 Y32.208 I-32.45 J0.
X61.667 Y32.215 I-0.201 J-0.458
G1 X58.386 Y30.921
G3 X58.408 Y29.983 I0.183 J-0.465
G2 X78.047 Y2.5 I-9.411 J-27.483
G1 X78.043 Y-4.885
G3 X78.542 Y-5.385 I0.5 J0.
G1 X85.294 Y-5.4
G3 X85.795 Y-4.9 I0.001 J0.5
G1 Y74.186
G2 X86.294 Y74.686 I0.5 J0.
G1 X88.694 Y74.691
G2 X89.195 Y74.191 I0.001 J-0.5
G1 Y-4.895
G3 X89.696 Y-5.395 I0.5 J0.
G1 X92.096 Y-5.39
G3 X92.595 Y-4.89 I-0.001 J0.5
G1 Y74.196
G2 X93.097 Y74.696 I0.5 J0.
G1 X95.497 Y74.685
G2 X95.995 Y74.185 I-0.002 J-0.5
G1 Y-4.885
G3 X96.493 Y-5.385 I0.5 J0.
G1 X98.893 Y-5.396
G3 X99.395 Y-4.896 I0.002 J0.5
G1 Y74.19
G2 X99.894 Y74.69 I0.5 J0.
G1 X102.294 Y74.694
G2 X102.795 Y74.194 I0.001 J-0.5
G1 Y-4.891
G3 X103.296 Y-5.391 I0.5 J0.
G1 X105.696 Y-5.387
G3 X106.195 Y-4.887 I-0.001 J0.5
G1 Y74.199
G2 X106.695 Y74.699 I0.5 J0.
G1 X109.1 Y74.697
G2 X109.6 Y74.197 I0. J-0.5
G1 Y0.
Y-4.895
X109.608 Y-4.933
X109.63 Y-4.965
X109.663 Y-4.986
X109.701 Y-4.993
X109.739 Y-4.985
X109.771 Y-4.964
X109.792 Y-4.931
X109.8 Y-4.893
Y74.197
G3 X109.3 Y74.697 I-0.5 J0.
G1 X68.626 Y74.687
G3 X68.127 Y74.186 I0. J-0.5
G1 X68.133 Y62.5
G2 X63.987 Y44.248 I-42.251 J0.
X63.105 Y44.21 I-0.451 J0.216
G1 X61.623 Y46.726
G2 X61.594 Y47.176 I0.431 J0.254
G3 X64.733 Y62.5 I-35.842 J15.324
G1 X64.727 Y74.197
G3 X64.227 Y74.697 I-0.5 J0.
G1 X61.827 Y74.699
G3 X61.326 Y74.199 I0. J-0.5
G1 X61.332 Y62.5
G2 X58.659 Y48.918 I-35.85 J0.
X58.143 Y48.61 I-0.463 J0.189
G1 X55.652 Y48.88
G2 X55.247 Y49.576 I0.054 J0.497
G3 X57.932 Y62.5 I-29.765 J12.924
G1 X57.926 Y74.189
G3 X57.429 Y74.688 I-0.5 J0.
G1 X55.029 Y74.7
G3 X54.526 Y74.2 I-0.002 J-0.5
G1 X54.532 Y62.5
G2 X51.052 Y48.713 I-29.05 J0.
G3 X51.932 Y48.239 I0.44 J-0.237
X51.992 Y48.473 I-0.44 J0.237
G1 X52.127 Y74.192
G3 X51.628 Y74.695 I-0.5 J0.003
X51.127 Y74.195 I-0.001 J-0.5
G1 X51.132 Y62.5
G2 X45.741 Y46.768 I-25.65 J0.
G3 X53.171 Y27.808 I9.359 J-7.268
G2 X74.647 Y2.5 I-4.175 J-25.308
G1 X74.643 Y-4.885
G2 X74.143 Y-5.384 I-0.5 J0.
G1 X71.744 Y-5.385
G2 X71.243 Y-4.885 I0. J0.5
G1 X71.247 Y2.5
G3 X52.618 Y24.453 I-22.25 J0.
G2 X43.055 Y48.853 I2.482 J15.047
G3 X47.732 Y62.5 I-17.574 J13.647
G1 X47.727 Y74.19
G3 X47.226 Y74.69 I-0.5 J0.
G1 X44.826 Y74.686
G3 X44.327 Y74.185 I0.001 J-0.5
G1 X44.332 Y62.5
G2 X40.37 Y50.939 I-18.85 J0.
G3 X52.065 Y21.099 I14.73 J-11.439
G2 X67.847 Y2.5 I-3.068 J-18.599
G1 X67.844 Y-4.885
G2 X67.344 Y-5.384 I-0.5 J0.
G1 X64.944 Y-5.385
G2 X64.444 Y-4.885 I0. J0.5
G1 X64.447 Y2.5
G3 X51.511 Y17.744 I-15.45 J0.
G2 X37.684 Y53.024 I3.589 J21.756
G3 X40.932 Y62.5 I-12.203 J9.476
G1 X40.927 Y74.196
G3 X40.426 Y74.696 I-0.5 J0.
G1 X38.026 Y74.692
G3 X37.527 Y74.191 I0.001 J-0.5
G1 X37.532 Y62.5
G2 X34.999 Y55.109 I-12.05 J0.
G3 X50.958 Y14.389 I20.101 J-15.609
G2 X61.047 Y2.5 I-1.961 J-11.889
G1 X61.044 Y-4.885
G2 X60.544 Y-5.384 I-0.5 J0.
G1 X58.144 Y-5.385
G2 X57.644 Y-4.885 I0. J0.5
G1 X57.647 Y2.5
G3 X50.405 Y11.035 I-8.65 J0.
G2 X32.314 Y57.195 I4.695 J28.465
G3 X34.132 Y62.5 I-6.832 J5.305
G1 X34.127 Y74.187
G3 X33.629 Y74.687 I-0.5 J0.
G1 X31.183 Y74.695
G3 X30.682 Y74.195 I-0.002 J-0.5
G1 Y62.5
G2 X29.589 Y59.311 I-5.2 J0.
G3 X49.843 Y7.631 I25.511 J-19.811
G2 X54.197 Y2.5 I-0.846 J-5.131
G1 Y-4.897
X54.189 Y-4.935
X54.167 Y-4.968
X54.135 Y-4.99
X54.097 Y-4.997
X54.058 Y-4.99
X54.026 Y-4.968
X54.004 Y-4.935
X53.997 Y-4.897
Y0.
Y2.5
G3 X49.81 Y7.433 I-5. J0.
G2 X29.431 Y59.433 I5.29 J32.067
G3 X30.482 Y62.5 I-3.949 J3.067
G1 Y69.3
Y74.193
G2 X31.334 Y74.548 I0.5 J0.
G1 X61.402 Y44.742
G3 X62.027 Y44.679 I0.352 J0.355
G1 X62.122 Y44.741 Z-2.406
X62.216 Y44.802 Z-2.426
X62.307 Y44.862 Z-2.458
X62.395 Y44.92 Z-2.502
X62.478 Y44.974 Z-2.557
X62.555 Y45.024 Z-2.624
X62.625 Y45.07 Z-2.7
X62.695 Y45.116 Z-2.776
X62.772 Y45.167 Z-2.843
X62.855 Y45.221 Z-2.898
X62.943 Y45.278 Z-2.942
X63.034 Y45.338 Z-2.974
X63.128 Y45.399 Z-2.994
X63.222 Y45.461 Z-3.
G2 X67.964 Y44.47 I1.875 J-2.866
G1 X68.002 Y44.423
X68.048 Y44.383
X68.1 Y44.353
X68.514 Y44.162
G3 X68.793 Y44.339 I0.083 J0.177
G1 Y46.373
X68.787 Y46.41
X68.768 Y46.442
X68.739 Y46.466
X68.704 Y46.479
X68.667 Y46.48
X68.631 Y46.467
X68.602 Y46.443
X68.583 Y46.411
G2 X67.936 Y44.773 I-43.102 J16.089
G3 X67.964 Y44.47 I0.299 J-0.125
G2 X67.67 Y43.712 I-0.418 J-0.274
G1 X64.899 Y43.
G3 X64.837 Y42.052 I0.124 J-0.484
G2 X71.921 Y38.413 I-15.84 J-39.552
G3 X72.194 Y38.563 I0.096 J0.15
G1 Y74.196
G2 X72.695 Y74.696 I0.5 J0.
G1 X75.095 Y74.691
G2 X75.594 Y74.191 I-0.001 J-0.5
G1 Y31.655
G2 X75.336 Y31.541 I-0.154 J0.
G3 X65.089 Y38.251 I-26.339 J-29.041
X64.397 Y37.908 I-0.205 J-0.456
G1 X63.854 Y35.56
G3 X64.129 Y34.994 I0.487 J-0.113
G2 X78.763 Y22.4 I-15.11 J-32.357
G1 X78.79 Y22.371
X78.825 Y22.352
X78.865 Y22.344
X78.905 Y22.35
X78.941 Y22.367
X78.969 Y22.395
X78.988 Y22.431
X78.994 Y22.47
X78.95 Y69.3
X78.952 Y74.197
G2 X79.452 Y74.697 I0.5 J0.
G1 X81.895
G2 X82.395 Y74.197 I0. J-0.5
G1 Y-4.889
G2 X81.917 Y-5.365 I-0.476 J0.
X81.443 Y-4.885 I0.002 J0.476
G1 X81.447 Y2.5
G3 X62.052 Y32.208 I-32.45 J0.
X61.667 Y32.215 I-0.201 J-0.458
G1 X58.386 Y30.921
G3 X58.408 Y29.983 I0.183 J-0.465
G2 X78.047 Y2.5 I-9.411 J-27.483
G1 X78.043 Y-4.885
G3 X78.542 Y-5.385 I0.5 J0.
G1 X85.294 Y-5.4
G3 X85.795 Y-4.9 I0.001 J0.5
G1 Y74.186
G2 X86.294 Y74.686 I0.5 J0.
G1 X88.694 Y74.691
G2 X89.195 Y74.191 I0.001 J-0.5
G1 Y-4.895
G3 X89.696 Y-5.395 I0.5 J0.
G1 X92.096 Y-5.39
G3 X92.595 Y-4.89 I-0.001 J0.5
G1 Y74.196
G2 X93.097 Y74.696 I0.5 J0.
G1 X95.497 Y74.685
G2 X95.995 Y74.185 I-0.002 J-0.5
G1 Y-4.885
G3 X96.493 Y-5.385 I0.5 J0.
G1 X98.893 Y-5.396
G3 X99.395 Y-4.896 I0.002 J0.5
G1 Y74.19
G2 X99.894 Y74.69 I0.5 J0.
G1 X102.294 Y74.694
G2 X102.795 Y74.194 I0.001 J-0.5
G1 Y-4.891
G3 X103.296 Y-5.391 I0.5 J0.
G1 X105.696 Y-5.387
G3 X106.195 Y-4.887 I-0.001 J0.5
G1 Y74.199
G2 X106.695 Y74.699 I0.5 J0.
G1 X109.1 Y74.697
G2 X109.6 Y74.197 I0. J-0.5
G1 Y0.
Y-4.895
X109.608 Y-4.933
X109.63 Y-4.965
X109.663 Y-4.986
X109.701 Y-4.993
X109.739 Y-4.985
X109.771 Y-4.964
X109.792 Y-4.931
X109.8 Y-4.893
Y74.197
G3 X109.3 Y74.697 I-0.5 J0.
G1 X68.626 Y74.687
G3 X68.127 Y74.186 I0. J-0.5
G1 X68.133 Y62.5
G2 X63.987 Y44.248 I-42.251 J0.
X63.105 Y44.21 I-0.451 J0.216
G1 X61.623 Y46.726
G2 X61.594 Y47.176 I0.431 J0.254
G3 X64.733 Y62.5 I-35.842 J15.324
G1 X64.727 Y74.197
G3 X64.227 Y74.697 I-0.5 J0.
G1 X61.827 Y74.699
G3 X61.326 Y74.199 I0. J-0.5
G1 X61.332 Y62.5
G2 X58.659 Y48.918 I-35.85 J0.
X58.143 Y48.61 I-0.463 J0.189
G1 X55.652 Y48.88
G2 X55.247 Y49.576 I0.054 J0.497
G3 X57.932 Y62.5 I-29.765 J12.924
G1 X57.926 Y74.189
G3 X57.429 Y74.688 I-0.5 J0.
G1 X55.029 Y74.7
G3 X54.526 Y74.2 I-0.002 J-0.5
G1 X54.532 Y62.5
G2 X51.052 Y48.713 I-29.05 J0.
G3 X51.932 Y48.239 I0.44 J-0.237
X51.992 Y48.473 I-0.44 J0.237
G1 X52.127 Y74.192
G3 X51.628 Y74.695 I-0.5 J0.003
X51.127 Y74.195 I-0.001 J-0.5
G1 X51.132 Y62.5
G2 X45.741 Y46.768 I-25.65 J0.
G3 X53.171 Y27.808 I9.359 J-7.268
G2 X74.647 Y2.5 I-4.175 J-25.308
G1 X74.643 Y-4.885
G2 X74.143 Y-5.384 I-0.5 J0.
G1 X71.744 Y-5.385
G2 X71.243 Y-4.885 I0. J0.5
G1 X71.247 Y2.5
G3 X52.618 Y24.453 I-22.25 J0.
G2 X43.055 Y48.853 I2.482 J15.047
G3 X47.732 Y62.5 I-17.574 J13.647
G1 X47.727 Y74.19
G3 X47.226 Y74.69 I-0.5 J0.
G1 X44.826 Y74.686
G3 X44.327 Y74.185 I0.001 J-0.5
G1 X44.332 Y62.5
G2 X40.37 Y50.939 I-18.85 J0.
G3 X52.065 Y21.099 I14.73 J-11.439
G2 X67.847 Y2.5 I-3.068 J-18.599
G1 X67.844 Y-4.885
G2 X67.344 Y-5.384 I-0.5 J0.
G1 X64.944 Y-5.385
G2 X64.444 Y-4.885 I0. J0.5
G1 X64.447 Y2.5
G3 X51.511 Y17.744 I-15.45 J0.
G2 X37.684 Y53.024 I3.589 J21.756
G3 X40.932 Y62.5 I-12.203 J9.476
G1 X40.927 Y74.196
G3 X40.426 Y74.696 I-0.5 J0.
G1 X38.026 Y74.692
G3 X37.527 Y74.191 I0.001 J-0.5
G1 X37.532 Y62.5
G2 X34.999 Y55.109 I-12.05 J0.
G3 X50.958 Y14.389 I20.101 J-15.609
G2 X61.047 Y2.5 I-1.961 J-11.889
G1 X61.044 Y-4.885
G2 X60.544 Y-5.384 I-0.5 J0.
G1 X58.144 Y-5.385
G2 X57.644 Y-4.885 I0. J0.5
G1 X57.647 Y2.5
G3 X50.405 Y11.035 I-8.65 J0.
G2 X32.314 Y57.195 I4.695 J28.465
G3 X34.132 Y62.5 I-6.832 J5.305
G1 X34.127 Y74.187
G3 X33.629 Y74.687 I-0.5 J0.
G1 X31.183 Y74.695
G3 X30.682 Y74.195 I-0.002 J-0.5
G1 Y62.5
G2 X29.589 Y59.311 I-5.2 J0.
G3 X49.843 Y7.631 I25.511 J-19.811
G2 X54.197 Y2.5 I-0.846 J-5.131
G1 Y-4.897
X54.189 Y-4.935
X54.167 Y-4.968
X54.135 Y-4.99
X54.097 Y-4.997
X54.058 Y-4.99
X54.026 Y-4.968
X54.004 Y-4.935
X53.997 Y-4.897
Y0.
Y2.5
G3 X49.81 Y7.433 I-5. J0.
G2 X29.431 Y59.433 I5.29 J32.067
G3 X30.482 Y62.5 I-3.949 J3.067
G1 Y69.3
Y74.193
G2 X31.334 Y74.548 I0.5 J0.
G1 X61.402 Y44.742
G3 X62.027 Y44.679 I0.352 J0.355
G1 X62.122 Y44.741 Z-3.006
X62.216 Y44.802 Z-3.026
X62.307 Y44.862 Z-3.058
X62.395 Y44.92 Z-3.102
X62.478 Y44.974 Z-3.157
X62.555 Y45.024 Z-3.224
X62.625 Y45.07 Z-3.3
X62.695 Y45.116 Z-3.376
X62.772 Y45.167 Z-3.443
X62.855 Y45.221 Z-3.498
X62.943 Y45.278 Z-3.542
X63.034 Y45.338 Z-3.574
X63.128 Y45.399 Z-3.594
X63.222 Y45.461 Z-3.6
G2 X67.964 Y44.47 I1.875 J-2.866
G1 X68.002 Y44.423
X68.048 Y44.383
X68.1 Y44.353
X68.514 Y44.162
G3 X68.793 Y44.339 I0.083 J0.177
G1 Y46.373
X68.787 Y46.41
X68.768 Y46.442
X68.739 Y46.466
X68.704 Y46.479
X68.667 Y46.48
X68.631 Y46.467
X68.602 Y46.443
X68.583 Y46.411
G2 X67.936 Y44.773 I-43.102 J16.089
G3 X67.964 Y44.47 I0.299 J-0.125
G2 X67.67 Y43.712 I-0.418 J-0.274
G1 X64.899 Y43.
G3 X64.837 Y42.052 I0.124 J-0.484
G2 X71.921 Y38.413 I-15.84 J-39.552
G3 X72.194 Y38.563 I0.096 J0.15
G1 Y74.196
G2 X72.695 Y74.696 I0.5 J0.
G1 X75.095 Y74.691
G2 X75.594 Y74.191 I-0.001 J-0.5
G1 Y31.655
G2 X75.336 Y31.541 I-0.154 J0.
G3 X65.089 Y38.251 I-26.339 J-29.041
X64.397 Y37.908 I-0.205 J-0.456
G1 X63.854 Y35.56
G3 X64.129 Y34.994 I0.487 J-0.113
G2 X78.763 Y22.4 I-15.11 J-32.357
G1 X78.79 Y22.371
X78.825 Y22.352
X78.865 Y22.344
X78.905 Y22.35
X78.941 Y22.367
X78.969 Y22.395
X78.988 Y22.431
X78.994 Y22.47
X78.95 Y69.3
X78.952 Y74.197
G2 X79.452 Y74.697 I0.5 J0.
G1 X81.895
G2 X82.395 Y74.197 I0. J-0.5
G1 Y-4.889
G2 X81.917 Y-5.365 I-0.476 J0.
X81.443 Y-4.885 I0.002 J0.476
G1 X81.447 Y2.5
G3 X62.052 Y32.208 I-32.45 J0.
X61.667 Y32.215 I-0.201 J-0.458
G1 X58.386 Y30.921
G3 X58.408 Y29.983 I0.183 J-0.465
G2 X78.047 Y2.5 I-9.411 J-27.483
G1 X78.043 Y-4.885
G3 X78.542 Y-5.385 I0.5 J0.
G1 X85.294 Y-5.4
G3 X85.795 Y-4.9 I0.001 J0.5
G1 Y74.186
G2 X86.294 Y74.686 I0.5 J0.
G1 X88.694 Y74.691
G2 X89.195 Y74.191 I0.001 J-0.5
G1 Y-4.895
G3 X89.696 Y-5.395 I0.5 J0.
G1 X92.096 Y-5.39
G3 X92.595 Y-4.89 I-0.001 J0.5
G1 Y74.196
G2 X93.097 Y74.696 I0.5 J0.
G1 X95.497 Y74.685
G2 X95.995 Y74.185 I-0.002 J-0.5
G1 Y-4.885
G3 X96.493 Y-5.385 I0.5 J0.
G1 X98.893 Y-5.396
G3 X99.395 Y-4.896 I0.002 J0.5
G1 Y74.19
G2 X99.894 Y74.69 I0.5 J0.
G1 X102.294 Y74.694
G2 X102.795 Y74.194 I0.001 J-0.5
G1 Y-4.891
G3 X103.296 Y-5.391 I0.5 J0.
G1 X105.696 Y-5.387
G3 X106.195 Y-4.887 I-0.001 J0.5
G1 Y74.199
G2 X106.695 Y74.699 I0.5 J0.
G1 X109.1 Y74.697
G2 X109.6 Y74.197 I0. J-0.5
G1 Y0.
Y-4.895
X109.608 Y-4.933
X109.63 Y-4.965
X109.663 Y-4.986
X109.701 Y-4.993
X109.739 Y-4.985
X109.771 Y-4.964
X109.792 Y-4.931
X109.8 Y-4.893
Y74.197
G3 X109.3 Y74.697 I-0.5 J0.
G1 X68.626 Y74.687
G3 X68.127 Y74.186 I0. J-0.5
G1 X68.133 Y62.5
G2 X63.987 Y44.248 I-42.251 J0.
X63.105 Y44.21 I-0.451 J0.216
G1 X61.623 Y46.726
G2 X61.594 Y47.176 I0.431 J0.254
G3 X64.733 Y62.5 I-35.842 J15.324
G1 X64.727 Y74.197
G3 X64.227 Y74.697 I-0.5 J0.
G1 X61.827 Y74.699
G3 X61.326 Y74.199 I0. J-0.5
G1 X61.332 Y62.5
G2 X58.659 Y48.918 I-35.85 J0.
X58.143 Y48.61 I-0.463 J0.189
G1 X55.652 Y48.88
G2 X55.247 Y49.576 I0.054 J0.497
G3 X57.932 Y62.5 I-29.765 J12.924
G1 X57.926 Y74.189
G3 X57.429 Y74.688 I-0.5 J0.
G1 X55.029 Y74.7
G3 X54.526 Y74.2 I-0.002 J-0.5
G1 X54.532 Y62.5
G2 X51.052 Y48.713 I-29.05 J0.
G3 X51.932 Y48.239 I0.44 J-0.237
X51.992 Y48.473 I-0.44 J0.237
G1 X52.127 Y74.192
G3 X51.628 Y74.695 I-0.5 J0.003
X51.127 Y74.195 I-0.001 J-0.5
G1 X51.132 Y62.5
G2 X45.741 Y46.768 I-25.65 J0.
G3 X53.171 Y27.808 I9.359 J-7.268
G2 X74.647 Y2.5 I-4.175 J-25.308
G1 X74.643 Y-4.885
G2 X74.143 Y-5.384 I-0.5 J0.
G1 X71.744 Y-5.385
G2 X71.243 Y-4.885 I0. J0.5
G1 X71.247 Y2.5
G3 X52.618 Y24.453 I-22.25 J0.
G2 X43.055 Y48.853 I2.482 J15.047
G3 X47.732 Y62.5 I-17.574 J13.647
G1 X47.727 Y74.19
G3 X47.226 Y74.69 I-0.5 J0.
G1 X44.826 Y74.686
G3 X44.327 Y74.185 I0.001 J-0.5
G1 X44.332 Y62.5
G2 X40.37 Y50.939 I-18.85 J0.
G3 X52.065 Y21.099 I14.73 J-11.439
G2 X67.847 Y2.5 I-3.068 J-18.599
G1 X67.844 Y-4.885
G2 X67.344 Y-5.384 I-0.5 J0.
G1 X64.944 Y-5.385
G2 X64.444 Y-4.885 I0. J0.5
G1 X64.447 Y2.5
G3 X51.511 Y17.744 I-15.45 J0.
G2 X37.684 Y53.024 I3.589 J21.756
G3 X40.932 Y62.5 I-12.203 J9.476
G1 X40.927 Y74.196
G3 X40.426 Y74.696 I-0.5 J0.
G1 X38.026 Y74.692
G3 X37.527 Y74.191 I0.001 J-0.5
G1 X37.532 Y62.5
G2 X34.999 Y55.109 I-12.05 J0.
G3 X50.958 Y14.389 I20.101 J-15.609
G2 X61.047 Y2.5 I-1.961 J-11.889
G1 X61.044 Y-4.885
G2 X60.544 Y-5.384 I-0.5 J0.
G1 X58.144 Y-5.385
G2 X57.644 Y-4.885 I0. J0.5
G1 X57.647 Y2.5
G3 X50.405 Y11.035 I-8.65 J0.
G2 X32.314 Y57.195 I4.695 J28.465
G3 X34.132 Y62.5 I-6.832 J5.305
G1 X34.127 Y74.187
G3 X33.629 Y74.687 I-0.5 J0.
G1 X31.183 Y74.695
G3 X30.682 Y74.195 I-0.002 J-0.5
G1 Y62.5
G2 X29.589 Y59.311 I-5.2 J0.
G3 X49.843 Y7.631 I25.511 J-19.811
G2 X54.197 Y2.5 I-0.846 J-5.131
G1 Y-4.897
X54.189 Y-4.935
X54.167 Y-4.968
X54.135 Y-4.99
X54.097 Y-4.997
X54.058 Y-4.99
X54.026 Y-4.968
X54.004 Y-4.935
X53.997 Y-4.897
Y0.
Y2.5
G3 X49.81 Y7.433 I-5. J0.
G2 X29.431 Y59.433 I5.29 J32.067
G3 X30.482 Y62.5 I-3.949 J3.067
G1 Y69.3
Y74.193
G2 X31.334 Y74.548 I0.5 J0.
G1 X61.402 Y44.742
G3 X62.027 Y44.679 I0.352 J0.355
G1 X62.122 Y44.741 Z-3.606
X62.216 Y44.802 Z-3.626
X62.307 Y44.862 Z-3.658
X62.395 Y44.92 Z-3.702
X62.478 Y44.974 Z-3.757
X62.555 Y45.024 Z-3.824
X62.625 Y45.07 Z-3.9
X62.695 Y45.116 Z-3.976
X62.772 Y45.167 Z-4.043
X62.855 Y45.221 Z-4.098
X62.943 Y45.278 Z-4.142
X63.034 Y45.338 Z-4.174
X63.128 Y45.399 Z-4.194
X63.222 Y45.461 Z-4.2
G2 X67.964 Y44.47 I1.875 J-2.866
G1 X68.002 Y44.423
X68.048 Y44.383
X68.1 Y44.353
X68.514 Y44.162
G3 X68.793 Y44.339 I0.083 J0.177
G1 Y46.373
X68.787 Y46.41
X68.768 Y46.442
X68.739 Y46.466
X68.704 Y46.479
X68.667 Y46.48
X68.631 Y46.467
X68.602 Y46.443
X68.583 Y46.411
G2 X67.936 Y44.773 I-43.102 J16.089
G3 X67.964 Y44.47 I0.299 J-0.125
G2 X67.67 Y43.712 I-0.418 J-0.274
G1 X64.899 Y43.
G3 X64.837 Y42.052 I0.124 J-0.484
G2 X71.921 Y38.413 I-15.84 J-39.552
G3 X72.194 Y38.563 I0.096 J0.15
G1 Y74.196
G2 X72.695 Y74.696 I0.5 J0.
G1 X75.095 Y74.691
G2 X75.594 Y74.191 I-0.001 J-0.5
G1 Y31.655
G2 X75.336 Y31.541 I-0.154 J0.
G3 X65.089 Y38.251 I-26.339 J-29.041
X64.397 Y37.908 I-0.205 J-0.456
G1 X63.854 Y35.56
G3 X64.129 Y34.994 I0.487 J-0.113
G2 X78.763 Y22.4 I-15.11 J-32.357
G1 X78.79 Y22.371
X78.825 Y22.352
X78.865 Y22.344
X78.905 Y22.35
X78.941 Y22.367
X78.969 Y22.395
X78.988 Y22.431
X78.994 Y22.47
X78.95 Y69.3
X78.952 Y74.197
G2 X79.452 Y74.697 I0.5 J0.
G1 X81.895
G2 X82.395 Y74.197 I0. J-0.5
G1 Y-4.889
G2 X81.917 Y-5.365 I-0.476 J0.
X81.443 Y-4.885 I0.002 J0.476
G1 X81.447 Y2.5
G3 X62.052 Y32.208 I-32.45 J0.
X61.667 Y32.215 I-0.201 J-0.458
G1 X58.386 Y30.921
G3 X58.408 Y29.983 I0.183 J-0.465
G2 X78.047 Y2.5 I-9.411 J-27.483
G1 X78.043 Y-4.885
G3 X78.542 Y-5.385 I0.5 J0.
G1 X85.294 Y-5.4
G3 X85.795 Y-4.9 I0.001 J0.5
G1 Y74.186
G2 X86.294 Y74.686 I0.5 J0.
G1 X88.694 Y74.691
G2 X89.195 Y74.191 I0.001 J-0.5
G1 Y-4.895
G3 X89.696 Y-5.395 I0.5 J0.
G1 X92.096 Y-5.39
G3 X92.595 Y-4.89 I-0.001 J0.5
G1 Y74.196
G2 X93.097 Y74.696 I0.5 J0.
G1 X95.497 Y74.685
G2 X95.995 Y74.185 I-0.002 J-0.5
G1 Y-4.885
G3 X96.493 Y-5.385 I0.5 J0.
G1 X98.893 Y-5.396
G3 X99.395 Y-4.896 I0.002 J0.5
G1 Y74.19
G2 X99.894 Y74.69 I0.5 J0.
G1 X102.294 Y74.694
G2 X102.795 Y74.194 I0.001 J-0.5
G1 Y-4.891
G3 X103.296 Y-5.391 I0.5 J0.
G1 X105.696 Y-5.387
G3 X106.195 Y-4.887 I-0.001 J0.5
G1 Y74.199
G2 X106.695 Y74.699 I0.5 J0.
G1 X109.1 Y74.697
G2 X109.6 Y74.197 I0. J-0.5
G1 Y0.
Y-4.895
X109.608 Y-4.933
X109.63 Y-4.965
X109.663 Y-4.986
X109.701 Y-4.993
X109.739 Y-4.985
X109.771 Y-4.964
X109.792 Y-4.931
X109.8 Y-4.893
Y74.197
G3 X109.3 Y74.697 I-0.5 J0.
G1 X68.626 Y74.687
G3 X68.127 Y74.186 I0. J-0.5
G1 X68.133 Y62.5
G2 X63.987 Y44.248 I-42.251 J0.
X63.105 Y44.21 I-0.451 J0.216
G1 X61.623 Y46.726
G2 X61.594 Y47.176 I0.431 J0.254
G3 X64.733 Y62.5 I-35.842 J15.324
G1 X64.727 Y74.197
G3 X64.227 Y74.697 I-0.5 J0.
G1 X61.827 Y74.699
G3 X61.326 Y74.199 I0. J-0.5
G1 X61.332 Y62.5
G2 X58.659 Y48.918 I-35.85 J0.
X58.143 Y48.61 I-0.463 J0.189
G1 X55.652 Y48.88
G2 X55.247 Y49.576 I0.054 J0.497
G3 X57.932 Y62.5 I-29.765 J12.924
G1 X57.926 Y74.189
G3 X57.429 Y74.688 I-0.5 J0.
G1 X55.029 Y74.7
G3 X54.526 Y74.2 I-0.002 J-0.5
G1 X54.532 Y62.5
G2 X51.052 Y48.713 I-29.05 J0.
G3 X51.932 Y48.239 I0.44 J-0.237
X51.992 Y48.473 I-0.44 J0.237
G1 X52.127 Y74.192
G3 X51.628 Y74.695 I-0.5 J0.003
X51.127 Y74.195 I-0.001 J-0.5
G1 X51.132 Y62.5
G2 X45.741 Y46.768 I-25.65 J0.
G3 X53.171 Y27.808 I9.359 J-7.268
G2 X74.647 Y2.5 I-4.175 J-25.308
G1 X74.643 Y-4.885
G2 X74.143 Y-5.384 I-0.5 J0.
G1 X71.744 Y-5.385
G2 X71.243 Y-4.885 I0. J0.5
G1 X71.247 Y2.5
G3 X52.618 Y24.453 I-22.25 J0.
G2 X43.055 Y48.853 I2.482 J15.047
G3 X47.732 Y62.5 I-17.574 J13.647
G1 X47.727 Y74.19
G3 X47.226 Y74.69 I-0.5 J0.
G1 X44.826 Y74.686
G3 X44.327 Y74.185 I0.001 J-0.5
G1 X44.332 Y62.5
G2 X40.37 Y50.939 I-18.85 J0.
G3 X52.065 Y21.099 I14.73 J-11.439
G2 X67.847 Y2.5 I-3.068 J-18.599
G1 X67.844 Y-4.885
G2 X67.344 Y-5.384 I-0.5 J0.
G1 X64.944 Y-5.385
G2 X64.444 Y-4.885 I0. J0.5
G1 X64.447 Y2.5
G3 X51.511 Y17.744 I-15.45 J0.
G2 X37.684 Y53.024 I3.589 J21.756
G3 X40.932 Y62.5 I-12.203 J9.476
G1 X40.927 Y74.196
G3 X40.426 Y74.696 I-0.5 J0.
G1 X38.026 Y74.692
G3 X37.527 Y74.191 I0.001 J-0.5
G1 X37.532 Y62.5
G2 X34.999 Y55.109 I-12.05 J0.
G3 X50.958 Y14.389 I20.101 J-15.609
G2 X61.047 Y2.5 I-1.961 J-11.889
G1 X61.044 Y-4.885
G2 X60.544 Y-5.384 I-0.5 J0.
G1 X58.144 Y-5.385
G2 X57.644 Y-4.885 I0. J0.5
G1 X57.647 Y2.5
G3 X50.405 Y11.035 I-8.65 J0.
G2 X32.314 Y57.195 I4.695 J28.465
G3 X34.132 Y62.5 I-6.832 J5.305
G1 X34.127 Y74.187
G3 X33.629 Y74.687 I-0.5 J0.
G1 X31.183 Y74.695
G3 X30.682 Y74.195 I-0.002 J-0.5
G1 Y62.5
G2 X29.589 Y59.311 I-5.2 J0.
G3 X49.843 Y7.631 I25.511 J-19.811
G2 X54.197 Y2.5 I-0.846 J-5.131
G1 Y-4.897
X54.189 Y-4.935
X54.167 Y-4.968
X54.135 Y-4.99
X54.097 Y-4.997
X54.058 Y-4.99
X54.026 Y-4.968
X54.004 Y-4.935
X53.997 Y-4.897
Y0.
Y2.5
G3 X49.81 Y7.433 I-5. J0.
G2 X29.431 Y59.433 I5.29 J32.067
G3 X30.482 Y62.5 I-3.949 J3.067
G1 Y69.3
Y74.193
G2 X31.334 Y74.548 I0.5 J0.
G1 X61.402 Y44.742
G3 X62.027 Y44.679 I0.352 J0.355
G1 X62.122 Y44.741 Z-4.206
X62.216 Y44.802 Z-4.226
X62.307 Y44.862 Z-4.258
X62.395 Y44.92 Z-4.302
X62.478 Y44.974 Z-4.357
X62.555 Y45.024 Z-4.424
X62.625 Y45.07 Z-4.5
X62.695 Y45.116 Z-4.576
X62.772 Y45.167 Z-4.643
X62.855 Y45.221 Z-4.698
X62.943 Y45.278 Z-4.742
X63.034 Y45.338 Z-4.774
X63.128 Y45.399 Z-4.794
X63.222 Y45.461 Z-4.8
G2 X67.964 Y44.47 I1.875 J-2.866
G1 X68.002 Y44.423
X68.048 Y44.383
X68.1 Y44.353
X68.514 Y44.162
G3 X68.793 Y44.339 I0.083 J0.177
G1 Y46.373
X68.787 Y46.41
X68.768 Y46.442
X68.739 Y46.466
X68.704 Y46.479
X68.667 Y46.48
X68.631 Y46.467
X68.602 Y46.443
X68.583 Y46.411
G2 X67.936 Y44.773 I-43.102 J16.089
G3 X67.964 Y44.47 I0.299 J-0.125
G2 X67.67 Y43.712 I-0.418 J-0.274
G1 X64.899 Y43.
G3 X64.837 Y42.052 I0.124 J-0.484
G2 X71.921 Y38.413 I-15.84 J-39.552
G3 X72.194 Y38.563 I0.096 J0.15
G1 Y74.196
G2 X72.695 Y74.696 I0.5 J0.
G1 X75.095 Y74.691
G2 X75.594 Y74.191 I-0.001 J-0.5
G1 Y31.655
G2 X75.336 Y31.541 I-0.154 J0.
G3 X65.089 Y38.251 I-26.339 J-29.041
X64.397 Y37.908 I-0.205 J-0.456
G1 X63.854 Y35.56
G3 X64.129 Y34.994 I0.487 J-0.113
G2 X78.763 Y22.4 I-15.11 J-32.357
G1 X78.79 Y22.371
X78.825 Y22.352
X78.865 Y22.344
X78.905 Y22.35
X78.941 Y22.367
X78.969 Y22.395
X78.988 Y22.431
X78.994 Y22.47
X78.95 Y69.3
X78.952 Y74.197
G2 X79.452 Y74.697 I0.5 J0.
G1 X81.895
G2 X82.395 Y74.197 I0. J-0.5
G1 Y-4.889
G2 X81.917 Y-5.365 I-0.476 J0.
X81.443 Y-4.885 I0.002 J0.476
G1 X81.447 Y2.5
G3 X62.052 Y32.208 I-32.45 J0.
X61.667 Y32.215 I-0.201 J-0.458
G1 X58.386 Y30.921
G3 X58.408 Y29.983 I0.183 J-0.465
G2 X78.047 Y2.5 I-9.411 J-27.483
G1 X78.043 Y-4.885
G3 X78.542 Y-5.385 I0.5 J0.
G1 X85.294 Y-5.4
G3 X85.795 Y-4.9 I0.001 J0.5
G1 Y74.186
G2 X86.294 Y74.686 I0.5 J0.
G1 X88.694 Y74.691
G2 X89.195 Y74.191 I0.001 J-0.5
G1 Y-4.895
G3 X89.696 Y-5.395 I0.5 J0.
G1 X92.096 Y-5.39
G3 X92.595 Y-4.89 I-0.001 J0.5
G1 Y74.196
G2 X93.097 Y74.696 I0.5 J0.
G1 X95.497 Y74.685
G2 X95.995 Y74.185 I-0.002 J-0.5
G1 Y-4.885
G3 X96.493 Y-5.385 I0.5 J0.
G1 X98.893 Y-5.396
G3 X99.395 Y-4.896 I0.002 J0.5
G1 Y74.19
G2 X99.894 Y74.69 I0.5 J0.
G1 X102.294 Y74.694
G2 X102.795 Y74.194 I0.001 J-0.5
G1 Y-4.891
G3 X103.296 Y-5.391 I0.5 J0.
G1 X105.696 Y-5.387
G3 X106.195 Y-4.887 I-0.001 J0.5
G1 Y74.199
G2 X106.695 Y74.699 I0.5 J0.
G1 X109.1 Y74.697
G2 X109.6 Y74.197 I0. J-0.5
G1 Y0.
Y-4.895
X109.608 Y-4.933
X109.63 Y-4.965
X109.663 Y-4.986
X109.701 Y-4.993
X109.739 Y-4.985
X109.771 Y-4.964
X109.792 Y-4.931
X109.8 Y-4.893
Y74.197
G3 X109.3 Y74.697 I-0.5 J0.
G1 X68.626 Y74.687
G3 X68.127 Y74.186 I0. J-0.5
G1 X68.133 Y62.5
G2 X63.987 Y44.248 I-42.251 J0.
X63.105 Y44.21 I-0.451 J0.216
G1 X61.623 Y46.726
G2 X61.594 Y47.176 I0.431 J0.254
G3 X64.733 Y62.5 I-35.842 J15.324
G1 X64.727 Y74.197
G3 X64.227 Y74.697 I-0.5 J0.
G1 X61.827 Y74.699
G3 X61.326 Y74.199 I0. J-0.5
G1 X61.332 Y62.5
G2 X58.659 Y48.918 I-35.85 J0.
X58.143 Y48.61 I-0.463 J0.189
G1 X55.652 Y48.88
G2 X55.247 Y49.576 I0.054 J0.497
G3 X57.932 Y62.5 I-29.765 J12.924
G1 X57.926 Y74.189
G3 X57.429 Y74.688 I-0.5 J0.
G1 X55.029 Y74.7
G3 X54.526 Y74.2 I-0.002 J-0.5
G1 X54.532 Y62.5
G2 X51.052 Y48.713 I-29.05 J0.
G3 X51.932 Y48.239 I0.44 J-0.237
X51.992 Y48.473 I-0.44 J0.237
G1 X52.127 Y74.192
G3 X51.628 Y74.695 I-0.5 J0.003
X51.127 Y74.195 I-0.001 J-0.5
G1 X51.132 Y62.5
G2 X45.741 Y46.768 I-25.65 J0.
G3 X53.171 Y27.808 I9.359 J-7.268
G2 X74.647 Y2.5 I-4.175 J-25.308
G1 X74.643 Y-4.885
G2 X74.143 Y-5.384 I-0.5 J0.
G1 X71.744 Y-5.385
G2 X71.243 Y-4.885 I0. J0.5
G1 X71.247 Y2.5
G3 X52.618 Y24.453 I-22.25 J0.
G2 X43.055 Y48.853 I2.482 J15.047
G3 X47.732 Y62.5 I-17.574 J13.647
G1 X47.727 Y74.19
G3 X47.226 Y74.69 I-0.5 J0.
G1 X44.826 Y74.686
G3 X44.327 Y74.185 I0.001 J-0.5
G1 X44.332 Y62.5
G2 X40.37 Y50.939 I-18.85 J0.
G3 X52.065 Y21.099 I14.73 J-11.439
G2 X67.847 Y2.5 I-3.068 J-18.599
G1 X67.844 Y-4.885
G2 X67.344 Y-5.384 I-0.5 J0.
G1 X64.944 Y-5.385
G2 X64.444 Y-4.885 I0. J0.5
G1 X64.447 Y2.5
G3 X51.511 Y17.744 I-15.45 J0.
G2 X37.684 Y53.024 I3.589 J21.756
G3 X40.932 Y62.5 I-12.203 J9.476
G1 X40.927 Y74.196
G3 X40.426 Y74.696 I-0.5 J0.
G1 X38.026 Y74.692
G3 X37.527 Y74.191 I0.001 J-0.5
G1 X37.532 Y62.5
G2 X34.999 Y55.109 I-12.05 J0.
G3 X50.958 Y14.389 I20.101 J-15.609
G2 X61.047 Y2.5 I-1.961 J-11.889
G1 X61.044 Y-4.885
G2 X60.544 Y-5.384 I-0.5 J0.
G1 X58.144 Y-5.385
G2 X57.644 Y-4.885 I0. J0.5
G1 X57.647 Y2.5
G3 X50.405 Y11.035 I-8.65 J0.
G2 X32.314 Y57.195 I4.695 J28.465
G3 X34.132 Y62.5 I-6.832 J5.305
G1 X34.127 Y74.187
G3 X33.629 Y74.687 I-0.5 J0.
G1 X31.183 Y74.695
G3 X30.682 Y74.195 I-0.002 J-0.5
G1 Y62.5
G2 X29.589 Y59.311 I-5.2 J0.
G3 X49.843 Y7.631 I25.511 J-19.811
G2 X54.197 Y2.5 I-0.846 J-5.131
G1 Y-4.897
X54.189 Y-4.935
X54.167 Y-4.968
X54.135 Y-4.99
X54.097 Y-4.997
X54.058 Y-4.99
X54.026 Y-4.968
X54.004 Y-4.935
X53.997 Y-4.897
Y0.
Y2.5
G3 X49.81 Y7.433 I-5. J0.
G2 X29.431 Y59.433 I5.29 J32.067
G3 X30.482 Y62.5 I-3.949 J3.067
G1 Y69.3
Y74.193
G2 X31.329 Y74.553 I0.5 J0.
G1 X61.872 Y45.043
G3 X62.493 Y44.984 I0.347 J0.36
G1 X62.587 Y45.045 Z-4.806
X62.68 Y45.106 Z-4.825
X62.771 Y45.166 Z-4.857
X62.858 Y45.222 Z-4.9
X62.945 Y45.279 Z-4.943
X63.035 Y45.339 Z-4.975
X63.128 Y45.4 Z-4.994
X63.222 Y45.461 Z-5.
G2 X67.964 Y44.47 I1.875 J-2.866
G1 X68.002 Y44.423
X68.048 Y44.383
X68.1 Y44.353
X68.514 Y44.162
G3 X68.793 Y44.339 I0.083 J0.177
G1 Y46.373
X68.787 Y46.41
X68.768 Y46.442
X68.739 Y46.466
X68.704 Y46.479
X68.667 Y46.48
X68.631 Y46.467
X68.602 Y46.443
X68.583 Y46.411
G2 X67.936 Y44.773 I-43.102 J16.089
G3 X67.964 Y44.47 I0.299 J-0.125
G2 X67.67 Y43.712 I-0.418 J-0.274
G1 X64.899 Y43.
G3 X64.837 Y42.052 I0.124 J-0.484
G2 X71.921 Y38.413 I-15.84 J-39.552
G3 X72.194 Y38.563 I0.096 J0.15
G1 Y74.196
G2 X72.695 Y74.696 I0.5 J0.
G1 X75.095 Y74.691
G2 X75.594 Y74.191 I-0.001 J-0.5
G1 Y31.655
G2 X75.336 Y31.541 I-0.154 J0.
G3 X65.089 Y38.251 I-26.339 J-29.041
X64.397 Y37.908 I-0.205 J-0.456
G1 X63.854 Y35.56
G3 X64.129 Y34.994 I0.487 J-0.113
G2 X78.763 Y22.4 I-15.11 J-32.357
G1 X78.79 Y22.371
X78.825 Y22.352
X78.865 Y22.344
X78.905 Y22.35
X78.941 Y22.367
X78.969 Y22.395
X78.988 Y22.431
X78.994 Y22.47
X78.95 Y69.3
X78.952 Y74.197
G2 X79.452 Y74.697 I0.5 J0.
G1 X81.895
G2 X82.395 Y74.197 I0. J-0.5
G1 Y-4.889
G2 X81.917 Y-5.365 I-0.476 J0.
X81.443 Y-4.885 I0.002 J0.476
G1 X81.447 Y2.5
G3 X62.052 Y32.208 I-32.45 J0.
X61.667 Y32.215 I-0.201 J-0.458
G1 X58.386 Y30.921
G3 X58.408 Y29.983 I0.183 J-0.465
G2 X78.047 Y2.5 I-9.411 J-27.483
G1 X78.043 Y-4.885
G3 X78.542 Y-5.385 I0.5 J0.
G1 X85.294 Y-5.4
G3 X85.795 Y-4.9 I0.001 J0.5
G1 Y74.186
G2 X86.294 Y74.686 I0.5 J0.
G1 X88.694 Y74.691
G2 X89.195 Y74.191 I0.001 J-0.5
G1 Y-4.895
G3 X89.696 Y-5.395 I0.5 J0.
G1 X92.096 Y-5.39
G3 X92.595 Y-4.89 I-0.001 J0.5
G1 Y74.196
G2 X93.097 Y74.696 I0.5 J0.
G1 X95.497 Y74.685
G2 X95.995 Y74.185 I-0.002 J-0.5
G1 Y-4.885
G3 X96.493 Y-5.385 I0.5 J0.
G1 X98.893 Y-5.396
G3 X99.395 Y-4.896 I0.002 J0.5
G1 Y74.19
G2 X99.894 Y74.69 I0.5 J0.
G1 X102.294 Y74.694
G2 X102.795 Y74.194 I0.001 J-0.5
G1 Y-4.891
G3 X103.296 Y-5.391 I0.5 J0.
G1 X105.696 Y-5.387
G3 X106.195 Y-4.887 I-0.001 J0.5
G1 Y74.199
G2 X106.695 Y74.699 I0.5 J0.
G1 X109.1 Y74.697
G2 X109.6 Y74.197 I0. J-0.5
G1 Y0.
Y-4.895
X109.608 Y-4.933
X109.63 Y-4.965
X109.663 Y-4.986
X109.701 Y-4.993
X109.739 Y-4.985
X109.771 Y-4.964
X109.792 Y-4.931
X109.8 Y-4.893
Y74.197
G3 X109.3 Y74.697 I-0.5 J0.
G1 X68.626 Y74.687
G3 X68.127 Y74.186 I0. J-0.5
G1 X68.133 Y62.5
G2 X63.987 Y44.248 I-42.251 J0.
X63.105 Y44.21 I-0.451 J0.216
G1 X61.623 Y46.726
G2 X61.594 Y47.176 I0.431 J0.254
G3 X64.733 Y62.5 I-35.842 J15.324
G1 X64.727 Y74.197
G3 X64.227 Y74.697 I-0.5 J0.
G1 X61.827 Y74.699
G3 X61.326 Y74.199 I0. J-0.5
G1 X61.332 Y62.5
G2 X58.659 Y48.918 I-35.85 J0.
X58.143 Y48.61 I-0.463 J0.189
G1 X55.652 Y48.88
G2 X55.247 Y49.576 I0.054 J0.497
G3 X57.932 Y62.5 I-29.765 J12.924
G1 X57.926 Y74.189
G3 X57.429 Y74.688 I-0.5 J0.
G1 X55.029 Y74.7
G3 X54.526 Y74.2 I-0.002 J-0.5
G1 X54.532 Y62.5
G2 X51.052 Y48.713 I-29.05 J0.
G3 X51.932 Y48.239 I0.44 J-0.237
X51.992 Y48.473 I-0.44 J0.237
G1 X52.127 Y74.192
G3 X51.628 Y74.695 I-0.5 J0.003
X51.127 Y74.195 I-0.001 J-0.5
G1 X51.132 Y62.5
G2 X45.741 Y46.768 I-25.65 J0.
G3 X53.171 Y27.808 I9.359 J-7.268
G2 X74.647 Y2.5 I-4.175 J-25.308
G1 X74.643 Y-4.885
G2 X74.143 Y-5.384 I-0.5 J0.
G1 X71.744 Y-5.385
G2 X71.243 Y-4.885 I0. J0.5
G1 X71.247 Y2.5
G3 X52.618 Y24.453 I-22.25 J0.
G2 X43.055 Y48.853 I2.482 J15.047
G3 X47.732 Y62.5 I-17.574 J13.647
G1 X47.727 Y74.19
G3 X47.226 Y74.69 I-0.5 J0.
G1 X44.826 Y74.686
G3 X44.327 Y74.185 I0.001 J-0.5
G1 X44.332 Y62.5
G2 X40.37 Y50.939 I-18.85 J0.
G3 X52.065 Y21.099 I14.73 J-11.439
G2 X67.847 Y2.5 I-3.068 J-18.599
G1 X67.844 Y-4.885
G2 X67.344 Y-5.384 I-0.5 J0.
G1 X64.944 Y-5.385
G2 X64.444 Y-4.885 I0. J0.5
G1 X64.447 Y2.5
G3 X51.511 Y17.744 I-15.45 J0.
G2 X37.684 Y53.024 I3.589 J21.756
G3 X40.932 Y62.5 I-12.203 J9.476
G1 X40.927 Y74.196
G3 X40.426 Y74.696 I-0.5 J0.
G1 X38.026 Y74.692
G3 X37.527 Y74.191 I0.001 J-0.5
G1 X37.532 Y62.5
G2 X34.999 Y55.109 I-12.05 J0.
G3 X50.958 Y14.389 I20.101 J-15.609
G2 X61.047 Y2.5 I-1.961 J-11.889
G1 X61.044 Y-4.885
G2 X60.544 Y-5.384 I-0.5 J0.
G1 X58.144 Y-5.385
G2 X57.644 Y-4.885 I0. J0.5
G1 X57.647 Y2.5
G3 X50.405 Y11.035 I-8.65 J0.
G2 X32.314 Y57.195 I4.695 J28.465
G3 X34.132 Y62.5 I-6.832 J5.305
G1 X34.127 Y74.187
G3 X33.629 Y74.687 I-0.5 J0.
G1 X31.183 Y74.695
G3 X30.682 Y74.195 I-0.002 J-0.5
G1 Y62.5
G2 X29.589 Y59.311 I-5.2 J0.
G3 X49.843 Y7.631 I25.511 J-19.811
G2 X54.197 Y2.5 I-0.846 J-5.131
G1 Y-4.897
X54.189 Y-4.935
X54.167 Y-4.968
X54.135 Y-4.99
X54.097 Y-4.997
X54.058 Y-4.99
X54.026 Y-4.968
X54.004 Y-4.935
X53.997 Y-4.897
Y0.
Y2.5
G3 X49.81 Y7.433 I-5. J0.
G2 X29.431 Y59.433 I5.29 J32.067
G3 X30.482 Y62.5 I-3.949 J3.067
G1 Y69.3
Y74.193
X30.485 Y74.272
X30.494 Y74.35
X30.567 Y74.813
X30.586 Y74.932 Z-4.993
X30.605 Y75.049 Z-4.971
X30.623 Y75.163 Z-4.935
X30.64 Y75.272 Z-4.885
X30.656 Y75.374 Z-4.823
X30.671 Y75.468 Z-4.749
X30.684 Y75.552 Z-4.663
X30.696 Y75.626 Z-4.568
X30.706 Y75.687 Z-4.465
X30.714 Y75.736 Z-4.355
X30.719 Y75.772 Z-4.239
X30.723 Y75.793 Z-4.121
X30.724 Y75.8 Z-4.
G0 Z10.

M9
M30
