(1001)
(T1  D=10. CR=0. - ZMIN=-5. - FLAT END MILL)
G90 G94 G91.1 G40 G49 G17
G21

(2D POCKET1 2)
M5
M9
T1 M6
S9700 M3
G54
M8
G0 X64.283 Y29.168
G43 Z10. H1
Z5.
G1 Z1.6 F2328.
Z0.4
X64.289 Y29.163 Z0.279
X64.306 Y29.15 Z0.161
X64.334 Y29.127 Z0.045
X64.372 Y29.096 Z-0.065
X64.421 Y29.057 Z-0.168
X64.479 Y29.011 Z-0.263
X64.546 Y28.957 Z-0.349
X64.62 Y28.898 Z-0.423
X64.701 Y28.834 Z-0.485
X64.787 Y28.765 Z-0.535
X64.877 Y28.693 Z-0.571
X64.97 Y28.619 Z-0.593
X65.064 Y28.543 Z-0.6
G2 X67.93 Y24.542 I-5.661 J-7.082
G1 X67.936 Y24.527
G2 X68.583 Y22.889 I-42.454 J-17.727
G1 X68.602 Y22.857
X68.631 Y22.833
X68.667 Y22.82
X68.704 Y22.821
X68.739 Y22.834
X68.768 Y22.858
X68.787 Y22.89
X68.793 Y22.927
Y24.961
G3 X68.514 Y25.138 I-0.196 J0.
G1 X68.1 Y24.947
G3 X67.93 Y24.542 I0.134 J-0.295
G2 X67.175 Y23.962 I-0.47 J-0.17
G1 X64.722 Y25.667
G3 X63.985 Y25.042 I-0.285 J-0.411
G2 X68.133 Y6.8 I-38.865 J-18.429
G1 X68.127 Y-4.891
G2 X67.627 Y-5.391 I-0.5 J0.
G1 X65.227
G2 X64.727 Y-4.891 I0. J0.5
G1 X64.733 Y6.8
G3 X61.585 Y22.098 I-39.48 J-0.151
X60.849 Y22.32 I-0.46 J-0.196
G1 X58.843 Y20.997
G3 X58.656 Y20.39 I0.275 J-0.417
G2 X61.332 Y6.8 I-33.174 J-13.59
G1 X61.326 Y-4.891
G2 X60.826 Y-5.391 I-0.5 J0.
G1 X58.426
G2 X57.926 Y-4.891 I0. J0.5
G1 X57.932 Y6.8
G3 X55.246 Y19.726 I-32.45 J0.
X54.97 Y19.992 I-0.459 J-0.199
G1 X51.676 Y21.286
G3 X51.053 Y20.584 I-0.183 J-0.465
G2 X54.532 Y6.8 I-25.572 J-13.784
G1 X54.526 Y-4.891
G3 X55.027 Y-5.391 I0.5 J0.
G1 X71.694 Y-5.386
G3 X72.194 Y-4.886 I0. J0.5
G1 Y30.737
G3 X71.921 Y30.887 I-0.178 J0.
G2 X64.83 Y27.245 I-22.924 J35.913
X64.157 Y27.82 I-0.186 J0.464
G1 X64.808 Y30.704
G2 X65.09 Y31.049 I0.488 J-0.11
G3 X75.336 Y37.759 I-16.094 J35.751
G2 X75.594 Y37.645 I0.104 J-0.114
G1 Y-4.897
G3 X76.094 Y-5.397 I0.5 J0.
G1 X78.455 Y-5.399
G3 X78.955 Y-4.899 I0. J0.5
G1 X78.95 Y6.8
X78.994 Y46.83
X78.988 Y46.869
X78.969 Y46.905
X78.941 Y46.933
X78.905 Y46.95
X78.865 Y46.956
X78.825 Y46.948
X78.79 Y46.929
X78.763 Y46.9
G2 X64.121 Y34.323 I-29.883 J19.978
X63.534 Y34.444 I-0.212 J0.453
G1 X61.885 Y36.306
G2 X62.058 Y37.095 I0.374 J0.332
G3 X81.447 Y66.8 I-13.061 J29.705
G1 X81.443 Y74.189
Y74.194
G2 X81.917 Y74.673 I0.476 J0.003
X82.395 Y74.197 I0.002 J-0.476
G1 Y-4.889
G3 X82.893 Y-5.389 I0.5 J0.
G1 X85.293 Y-5.4
G3 X85.795 Y-4.9 I0.002 J0.5
G1 Y74.186
G2 X86.293 Y74.686 I0.5 J0.
G1 X88.65 Y74.697
G2 X89.152 Y74.197 I0.002 J-0.5
G1 X89.15 Y69.3
X89.17 Y-4.895
G3 X89.671 Y-5.395 I0.5 J0.
G1 X92.071 Y-5.39
G3 X92.57 Y-4.89 I-0.001 J0.5
G1 X92.55 Y69.3
X92.552 Y74.197
G2 X93.052 Y74.697 I0.5 J0.
G1 X95.452
G2 X95.952 Y74.197 I0. J-0.5
G1 X95.95 Y69.3
X95.969 Y-4.885
G3 X96.467 Y-5.385 I0.5 J0.
G1 X98.893 Y-5.396
G3 X99.395 Y-4.896 I0.002 J0.5
G1 Y74.19
G2 X99.894 Y74.69 I0.5 J0.
G1 X102.294 Y74.694
G2 X102.795 Y74.194 I0.001 J-0.5
G1 Y-4.891
G3 X103.296 Y-5.391 I0.5 J0.
G1 X105.696 Y-5.387
G3 X106.195 Y-4.887 I-0.001 J0.5
G1 Y74.199
G2 X106.695 Y74.699 I0.5 J0.
G1 X109.1 Y74.697
G2 X109.6 Y74.197 I0. J-0.5
G1 Y0.
Y-4.895
X109.608 Y-4.933
X109.63 Y-4.965
X109.663 Y-4.986
X109.701 Y-4.993
X109.739 Y-4.985
X109.771 Y-4.964
X109.792 Y-4.931
X109.8 Y-4.893
Y74.197
G3 X109.3 Y74.697 I-0.5 J0.
G1 X78.543 Y74.7
G3 X78.043 Y74.2 I0. J-0.5
G1 X78.047 Y66.8
G2 X58.403 Y39.315 I-29.05 J0.
G3 X58.599 Y38.343 I0.162 J-0.473
G1 X64.993 Y38.778
G3 X65.421 Y39.084 I-0.034 J0.499
G1 X77.988 Y69.176
G3 X77.975 Y69.59 I-0.461 J0.193
G1 X75.592 Y74.416
G3 X74.643 Y74.195 I-0.448 J-0.221
G1 X74.647 Y66.8
G2 X53.171 Y41.492 I-25.65 J0.
G3 X45.741 Y22.532 I1.929 J-11.692
G2 X51.132 Y6.8 I-20.259 J-15.732
G1 X51.127 Y-4.891
G2 X50.627 Y-5.391 I-0.5 J0.
G1 X48.227
G2 X47.727 Y-4.891 I0. J0.5
G1 X47.732 Y6.8
G3 X43.055 Y20.447 I-22.25 J0.
G2 X52.618 Y44.847 I12.045 J9.353
G3 X71.247 Y66.8 I-3.621 J21.953
G1 X71.243 Y74.19
G3 X70.743 Y74.69 I-0.5 J0.
G1 X68.343 Y74.686
G3 X67.844 Y74.185 I0.001 J-0.5
G1 X67.847 Y66.8
G2 X52.065 Y48.201 I-18.85 J0.
G3 X40.37 Y18.361 I3.035 J-18.401
G2 X44.332 Y6.8 I-14.888 J-11.561
G1 X44.327 Y-4.891
G2 X43.827 Y-5.391 I-0.5 J0.
G1 X41.427
G2 X40.927 Y-4.891 I0. J0.5
G1 X40.932 Y6.8
G3 X37.684 Y16.276 I-15.45 J0.
G2 X51.511 Y51.556 I17.416 J13.524
G3 X64.447 Y66.8 I-2.515 J15.244
G1 X64.444 Y74.196
G3 X63.943 Y74.696 I-0.5 J0.
G1 X61.543 Y74.692
G3 X61.044 Y74.191 I0.001 J-0.5
G1 X61.047 Y66.8
G2 X50.958 Y54.911 I-12.05 J0.
G3 X34.999 Y14.191 I4.142 J-25.111
G2 X37.532 Y6.8 I-9.517 J-7.391
G1 X37.527 Y-4.891
G2 X37.027 Y-5.391 I-0.5 J0.
G1 X34.627
G2 X34.127 Y-4.891 I0. J0.5
G1 X34.132 Y6.8
G3 X32.314 Y12.105 I-8.65 J0.
G2 X50.405 Y58.265 I22.786 J17.695
G3 X57.647 Y66.8 I-1.408 J8.535
G1 X57.644 Y74.187
G3 X57.146 Y74.687 I-0.5 J0.
G1 X54.699 Y74.695
G3 X54.197 Y74.195 I-0.002 J-0.5
G1 Y69.3
Y66.8
G2 X49.843 Y61.669 I-5.2 J0.
G3 X29.589 Y9.989 I5.257 J-31.869
G2 X30.682 Y6.8 I-4.107 J-3.189
G1 Y0.
Y-4.897
X30.674 Y-4.935
X30.652 Y-4.968
X30.62 Y-4.99
X30.582 Y-4.997
X30.543 Y-4.99
X30.511 Y-4.968
X30.489 Y-4.935
X30.482 Y-4.897
Y6.8
G3 X29.431 Y9.867 I-5. J0.
G2 X49.81 Y61.867 I25.669 J19.933
G3 X53.997 Y66.8 I-0.814 J4.933
G1 Y74.193
X54. Y74.272
X54.009 Y74.35
X54.082 Y74.813
X54.101 Y74.932 Z-0.593
X54.12 Y75.049 Z-0.571
X54.138 Y75.163 Z-0.535
X54.155 Y75.272 Z-0.485
X54.171 Y75.374 Z-0.423
X54.186 Y75.468 Z-0.349
X54.199 Y75.552 Z-0.263
X54.211 Y75.626 Z-0.168
X54.221 Y75.687 Z-0.065
X54.229 Y75.736 Z0.045
X54.234 Y75.772 Z0.161
X54.238 Y75.793 Z0.279
X54.239 Y75.8 Z0.4
Z1.
X64.283 Y29.168
Z-0.2
X64.289 Y29.163 Z-0.321
X64.306 Y29.15 Z-0.439
X64.334 Y29.127 Z-0.555
X64.372 Y29.096 Z-0.665
X64.421 Y29.057 Z-0.768
X64.479 Y29.011 Z-0.863
X64.546 Y28.957 Z-0.949
X64.62 Y28.898 Z-1.023
X64.701 Y28.834 Z-1.085
X64.787 Y28.765 Z-1.135
X64.877 Y28.693 Z-1.171
X64.97 Y28.619 Z-1.193
X65.064 Y28.543 Z-1.2
G2 X67.93 Y24.542 I-5.661 J-7.082
G1 X67.936 Y24.527
G2 X68.583 Y22.889 I-42.454 J-17.727
G1 X68.602 Y22.857
X68.631 Y22.833
X68.667 Y22.82
X68.704 Y22.821
X68.739 Y22.834
X68.768 Y22.858
X68.787 Y22.89
X68.793 Y22.927
Y24.961
G3 X68.514 Y25.138 I-0.196 J0.
G1 X68.1 Y24.947
G3 X67.93 Y24.542 I0.134 J-0.295
G2 X67.175 Y23.962 I-0.47 J-0.17
G1 X64.722 Y25.667
G3 X63.985 Y25.042 I-0.285 J-0.411
G2 X68.133 Y6.8 I-38.865 J-18.429
G1 X68.127 Y-4.891
G2 X67.627 Y-5.391 I-0.5 J0.
G1 X65.227
G2 X64.727 Y-4.891 I0. J0.5
G1 X64.733 Y6.8
G3 X61.585 Y22.098 I-39.48 J-0.151
X60.849 Y22.32 I-0.46 J-0.196
G1 X58.843 Y20.997
G3 X58.656 Y20.39 I0.275 J-0.417
G2 X61.332 Y6.8 I-33.174 J-13.59
G1 X61.326 Y-4.891
G2 X60.826 Y-5.391 I-0.5 J0.
G1 X58.426
G2 X57.926 Y-4.891 I0. J0.5
G1 X57.932 Y6.8
G3 X55.246 Y19.726 I-32.45 J0.
X54.97 Y19.992 I-0.459 J-0.199
G1 X51.676 Y21.286
G3 X51.053 Y20.584 I-0.183 J-0.465
G2 X54.532 Y6.8 I-25.572 J-13.784
G1 X54.526 Y-4.891
G3 X55.027 Y-5.391 I0.5 J0.
G1 X71.694 Y-5.386
G3 X72.194 Y-4.886 I0. J0.5
G1 Y30.737
G3 X71.921 Y30.887 I-0.178 J0.
G2 X64.83 Y27.245 I-22.924 J35.913
X64.157 Y27.82 I-0.186 J0.464
G1 X64.808 Y30.704
G2 X65.09 Y31.049 I0.488 J-0.11
G3 X75.336 Y37.759 I-16.094 J35.751
G2 X75.594 Y37.645 I0.104 J-0.114
G1 Y-4.897
G3 X76.094 Y-5.397 I0.5 J0.
G1 X78.455 Y-5.399
G3 X78.955 Y-4.899 I0. J0.5
G1 X78.95 Y6.8
X78.994 Y46.83
X78.988 Y46.869
X78.969 Y46.905
X78.941 Y46.933
X78.905 Y46.95
X78.865 Y46.956
X78.825 Y46.948
X78.79 Y46.929
X78.763 Y46.9
G2 X64.121 Y34.323 I-29.883 J19.978
X63.534 Y34.444 I-0.212 J0.453
G1 X61.885 Y36.306
G2 X62.058 Y37.095 I0.374 J0.332
G3 X81.447 Y66.8 I-13.061 J29.705
G1 X81.443 Y74.189
Y74.194
G2 X81.917 Y74.673 I0.476 J0.003
X82.395 Y74.197 I0.002 J-0.476
G1 Y-4.889
G3 X82.893 Y-5.389 I0.5 J0.
G1 X85.293 Y-5.4
G3 X85.795 Y-4.9 I0.002 J0.5
G1 Y74.186
G2 X86.293 Y74.686 I0.5 J0.
G1 X88.65 Y74.697
G2 X89.152 Y74.197 I0.002 J-0.5
G1 X89.15 Y69.3
X89.17 Y-4.895
G3 X89.671 Y-5.395 I0.5 J0.
G1 X92.071 Y-5.39
G3 X92.57 Y-4.89 I-0.001 J0.5
G1 X92.55 Y69.3
X92.552 Y74.197
G2 X93.052 Y74.697 I0.5 J0.
G1 X95.452
G2 X95.952 Y74.197 I0. J-0.5
G1 X95.95 Y69.3
X95.969 Y-4.885
G3 X96.467 Y-5.385 I0.5 J0.
G1 X98.893 Y-5.396
G3 X99.395 Y-4.896 I0.002 J0.5
G1 Y74.19
G2 X99.894 Y74.69 I0.5 J0.
G1 X102.294 Y74.694
G2 X102.795 Y74.194 I0.001 J-0.5
G1 Y-4.891
G3 X103.296 Y-5.391 I0.5 J0.
G1 X105.696 Y-5.387
G3 X106.195 Y-4.887 I-0.001 J0.5
G1 Y74.199
G2 X106.695 Y74.699 I0.5 J0.
G1 X109.1 Y74.697
G2 X109.6 Y74.197 I0. J-0.5
G1 Y0.
Y-4.895
X109.608 Y-4.933
X109.63 Y-4.965
X109.663 Y-4.986
X109.701 Y-4.993
X109.739 Y-4.985
X109.771 Y-4.964
X109.792 Y-4.931
X109.8 Y-4.893
Y74.197
G3 X109.3 Y74.697 I-0.5 J0.
G1 X78.543 Y74.7
G3 X78.043 Y74.2 I0. J-0.5
G1 X78.047 Y66.8
G2 X58.403 Y39.315 I-29.05 J0.
G3 X58.599 Y38.343 I0.162 J-0.473
G1 X64.993 Y38.778
G3 X65.421 Y39.084 I-0.034 J0.499
G1 X77.988 Y69.176
G3 X77.975 Y69.59 I-0.461 J0.193
G1 X75.592 Y74.416
G3 X74.643 Y74.195 I-0.448 J-0.221
G1 X74.647 Y66.8
G2 X53.171 Y41.492 I-25.65 J0.
G3 X45.741 Y22.532 I1.929 J-11.692
G2 X51.132 Y6.8 I-20.259 J-15.732
G1 X51.127 Y-4.891
G2 X50.627 Y-5.391 I-0.5 J0.
G1 X48.227
G2 X47.727 Y-4.891 I0. J0.5
G1 X47.732 Y6.8
G3 X43.055 Y20.447 I-22.25 J0.
G2 X52.618 Y44.847 I12.045 J9.353
G3 X71.247 Y66.8 I-3.621 J21.953
G1 X71.243 Y74.19
G3 X70.743 Y74.69 I-0.5 J0.
G1 X68.343 Y74.686
G3 X67.844 Y74.185 I0.001 J-0.5
G1 X67.847 Y66.8
G2 X52.065 Y48.201 I-18.85 J0.
G3 X40.37 Y18.361 I3.035 J-18.401
G2 X44.332 Y6.8 I-14.888 J-11.561
G1 X44.327 Y-4.891
G2 X43.827 Y-5.391 I-0.5 J0.
G1 X41.427
G2 X40.927 Y-4.891 I0. J0.5
G1 X40.932 Y6.8
G3 X37.684 Y16.276 I-15.45 J0.
G2 X51.511 Y51.556 I17.416 J13.524
G3 X64.447 Y66.8 I-2.515 J15.244
G1 X64.444 Y74.196
G3 X63.943 Y74.696 I-0.5 J0.
G1 X61.543 Y74.692
G3 X61.044 Y74.191 I0.001 J-0.5
G1 X61.047 Y66.8
G2 X50.958 Y54.911 I-12.05 J0.
G3 X34.999 Y14.191 I4.142 J-25.111
G2 X37.532 Y6.8 I-9.517 J-7.391
G1 X37.527 Y-4.891
G2 X37.027 Y-5.391 I-0.5 J0.
G1 X34.627
G2 X34.127 Y-4.891 I0. J0.5
G1 X34.132 Y6.8
G3 X32.314 Y12.105 I-8.65 J0.
G2 X50.405 Y58.265 I22.786 J17.695
G3 X57.647 Y66.8 I-1.408 J8.535
G1 X57.644 Y74.187
G3 X57.146 Y74.687 I-0.5 J0.
G1 X54.699 Y74.695
G3 X54.197 Y74.195 I-0.002 J-0.5
G1 Y69.3
Y66.8
G2 X49.843 Y61.669 I-5.2 J0.
G3 X29.589 Y9.989 I5.257 J-31.869
G2 X30.682 Y6.8 I-4.107 J-3.189
G1 Y0.
Y-4.897
X30.674 Y-4.935
X30.652 Y-4.968
X30.62 Y-4.99
X30.582 Y-4.997
X30.543 Y-4.99
X30.511 Y-4.968
X30.489 Y-4.935
X30.482 Y-4.897
Y6.8
G3 X29.431 Y9.867 I-5. J0.
G2 X49.81 Y61.867 I25.669 J19.933
G3 X53.997 Y66.8 I-0.814 J4.933
G1 Y74.193
X54. Y74.272
X54.009 Y74.35
X54.082 Y74.813
X54.101 Y74.932 Z-1.193
X54.12 Y75.049 Z-1.171
X54.138 Y75.163 Z-1.135
X54.155 Y75.272 Z-1.085
X54.171 Y75.374 Z-1.023
X54.186 Y75.468 Z-0.949
X54.199 Y75.552 Z-0.863
X54.211 Y75.626 Z-0.768
X54.221 Y75.687 Z-0.665
X54.229 Y75.736 Z-0.555
X54.234 Y75.772 Z-0.439
X54.238 Y75.793 Z-0.321
X54.239 Y75.8 Z-0.2
Z0.4
X64.283 Y29.168
Z-0.8
X64.289 Y29.163 Z-0.921
X64.306 Y29.15 Z-1.039
X64.334 Y29.127 Z-1.155
X64.372 Y29.096 Z-1.265
X64.421 Y29.057 Z-1.368
X64.479 Y29.011 Z-1.463
X64.546 Y28.957 Z-1.549
X64.62 Y28.898 Z-1.623
X64.701 Y28.834 Z-1.685
X64.787 Y28.765 Z-1.735
X64.877 Y28.693 Z-1.771
X64.97 Y28.619 Z-1.793
X65.064 Y28.543 Z-1.8
G2 X67.93 Y24.542 I-5.661 J-7.082
G1 X67.936 Y24.527
G2 X68.583 Y22.889 I-42.454 J-17.727
G1 X68.602 Y22.857
X68.631 Y22.833
X68.667 Y22.82
X68.704 Y22.821
X68.739 Y22.834
X68.768 Y22.858
X68.787 Y22.89
X68.793 Y22.927
Y24.961
G3 X68.514 Y25.138 I-0.196 J0.
G1 X68.1 Y24.947
G3 X67.93 Y24.542 I0.134 J-0.295
G2 X67.175 Y23.962 I-0.47 J-0.17
G1 X64.722 Y25.667
G3 X63.985 Y25.042 I-0.285 J-0.411
G2 X68.133 Y6.8 I-38.865 J-18.429
G1 X68.127 Y-4.891
G2 X67.627 Y-5.391 I-0.5 J0.
G1 X65.227
G2 X64.727 Y-4.891 I0. J0.5
G1 X64.733 Y6.8
G3 X61.585 Y22.098 I-39.48 J-0.151
X60.849 Y22.32 I-0.46 J-0.196
G1 X58.843 Y20.997
G3 X58.656 Y20.39 I0.275 J-0.417
G2 X61.332 Y6.8 I-33.174 J-13.59
G1 X61.326 Y-4.891
G2 X60.826 Y-5.391 I-0.5 J0.
G1 X58.426
G2 X57.926 Y-4.891 I0. J0.5
G1 X57.932 Y6.8
G3 X55.246 Y19.726 I-32.45 J0.
X54.97 Y19.992 I-0.459 J-0.199
G1 X51.676 Y21.286
G3 X51.053 Y20.584 I-0.183 J-0.465
G2 X54.532 Y6.8 I-25.572 J-13.784
G1 X54.526 Y-4.891
G3 X55.027 Y-5.391 I0.5 J0.
G1 X71.694 Y-5.386
G3 X72.194 Y-4.886 I0. J0.5
G1 Y30.737
G3 X71.921 Y30.887 I-0.178 J0.
G2 X64.83 Y27.245 I-22.924 J35.913
X64.157 Y27.82 I-0.186 J0.464
G1 X64.808 Y30.704
G2 X65.09 Y31.049 I0.488 J-0.11
G3 X75.336 Y37.759 I-16.094 J35.751
G2 X75.594 Y37.645 I0.104 J-0.114
G1 Y-4.897
G3 X76.094 Y-5.397 I0.5 J0.
G1 X78.455 Y-5.399
G3 X78.955 Y-4.899 I0. J0.5
G1 X78.95 Y6.8
X78.994 Y46.83
X78.988 Y46.869
X78.969 Y46.905
X78.941 Y46.933
X78.905 Y46.95
X78.865 Y46.956
X78.825 Y46.948
X78.79 Y46.929
X78.763 Y46.9
G2 X64.121 Y34.323 I-29.883 J19.978
X63.534 Y34.444 I-0.212 J0.453
G1 X61.885 Y36.306
G2 X62.058 Y37.095 I0.374 J0.332
G3 X81.447 Y66.8 I-13.061 J29.705
G1 X81.443 Y74.189
Y74.194
G2 X81.917 Y74.673 I0.476 J0.003
X82.395 Y74.197 I0.002 J-0.476
G1 Y-4.889
G3 X82.893 Y-5.389 I0.5 J0.
G1 X85.293 Y-5.4
G3 X85.795 Y-4.9 I0.002 J0.5
G1 Y74.186
G2 X86.293 Y74.686 I0.5 J0.
G1 X88.65 Y74.697
G2 X89.152 Y74.197 I0.002 J-0.5
G1 X89.15 Y69.3
X89.17 Y-4.895
G3 X89.671 Y-5.395 I0.5 J0.
G1 X92.071 Y-5.39
G3 X92.57 Y-4.89 I-0.001 J0.5
G1 X92.55 Y69.3
X92.552 Y74.197
G2 X93.052 Y74.697 I0.5 J0.
G1 X95.452
G2 X95.952 Y74.197 I0. J-0.5
G1 X95.95 Y69.3
X95.969 Y-4.885
G3 X96.467 Y-5.385 I0.5 J0.
G1 X98.893 Y-5.396
G3 X99.395 Y-4.896 I0.002 J0.5
G1 Y74.19
G2 X99.894 Y74.69 I0.5 J0.
G1 X102.294 Y74.694
G2 X102.795 Y74.194 I0.001 J-0.5
G1 Y-4.891
G3 X103.296 Y-5.391 I0.5 J0.
G1 X105.696 Y-5.387
G3 X106.195 Y-4.887 I-0.001 J0.5
G1 Y74.199
G2 X106.695 Y74.699 I0.5 J0.
G1 X109.1 Y74.697
G2 X109.6 Y74.197 I0. J-0.5
G1 Y0.
Y-4.895
X109.608 Y-4.933
X109.63 Y-4.965
X109.663 Y-4.986
X109.701 Y-4.993
X109.739 Y-4.985
X109.771 Y-4.964
X109.792 Y-4.931
X109.8 Y-4.893
Y74.197
G3 X109.3 Y74.697 I-0.5 J0.
G1 X78.543 Y74.7
G3 X78.043 Y74.2 I0. J-0.5
G1 X78.047 Y66.8
G2 X58.403 Y39.315 I-29.05 J0.
G3 X58.599 Y38.343 I0.162 J-0.473
G1 X64.993 Y38.778
G3 X65.421 Y39.084 I-0.034 J0.499
G1 X77.988 Y69.176
G3 X77.975 Y69.59 I-0.461 J0.193
G1 X75.592 Y74.416
G3 X74.643 Y74.195 I-0.448 J-0.221
G1 X74.647 Y66.8
G2 X53.171 Y41.492 I-25.65 J0.
G3 X45.741 Y22.532 I1.929 J-11.692
G2 X51.132 Y6.8 I-20.259 J-15.732
G1 X51.127 Y-4.891
G2 X50.627 Y-5.391 I-0.5 J0.
G1 X48.227
G2 X47.727 Y-4.891 I0. J0.5
G1 X47.732 Y6.8
G3 X43.055 Y20.447 I-22.25 J0.
G2 X52.618 Y44.847 I12.045 J9.353
G3 X71.247 Y66.8 I-3.621 J21.953
G1 X71.243 Y74.19
G3 X70.743 Y74.69 I-0.5 J0.
G1 X68.343 Y74.686
G3 X67.844 Y74.185 I0.001 J-0.5
G1 X67.847 Y66.8
G2 X52.065 Y48.201 I-18.85 J0.
G3 X40.37 Y18.361 I3.035 J-18.401
G2 X44.332 Y6.8 I-14.888 J-11.561
G1 X44.327 Y-4.891
G2 X43.827 Y-5.391 I-0.5 J0.
G1 X41.427
G2 X40.927 Y-4.891 I0. J0.5
G1 X40.932 Y6.8
G3 X37.684 Y16.276 I-15.45 J0.
G2 X51.511 Y51.556 I17.416 J13.524
G3 X64.447 Y66.8 I-2.515 J15.244
G1 X64.444 Y74.196
G3 X63.943 Y74.696 I-0.5 J0.
G1 X61.543 Y74.692
G3 X61.044 Y74.191 I0.001 J-0.5
G1 X61.047 Y66.8
G2 X50.958 Y54.911 I-12.05 J0.
G3 X34.999 Y14.191 I4.142 J-25.111
G2 X37.532 Y6.8 I-9.517 J-7.391
G1 X37.527 Y-4.891
G2 X37.027 Y-5.391 I-0.5 J0.
G1 X34.627
G2 X34.127 Y-4.891 I0. J0.5
G1 X34.132 Y6.8
G3 X32.314 Y12.105 I-8.65 J0.
G2 X50.405 Y58.265 I22.786 J17.695
G3 X57.647 Y66.8 I-1.408 J8.535
G1 X57.644 Y74.187
G3 X57.146 Y74.687 I-0.5 J0.
G1 X54.699 Y74.695
G3 X54.197 Y74.195 I-0.002 J-0.5
G1 Y69.3
Y66.8
G2 X49.843 Y61.669 I-5.2 J0.
G3 X29.589 Y9.989 I5.257 J-31.869
G2 X30.682 Y6.8 I-4.107 J-3.189
G1 Y0.
Y-4.897
X30.674 Y-4.935
X30.652 Y-4.968
X30.62 Y-4.99
X30.582 Y-4.997
X30.543 Y-4.99
X30.511 Y-4.968
X30.489 Y-4.935
X30.482 Y-4.897
Y6.8
G3 X29.431 Y9.867 I-5. J0.
G2 X49.81 Y61.867 I25.669 J19.933
G3 X53.997 Y66.8 I-0.814 J4.933
G1 Y74.193
X54. Y74.272
X54.009 Y74.35
X54.082 Y74.813
X54.101 Y74.932 Z-1.793
X54.12 Y75.049 Z-1.771
X54.138 Y75.163 Z-1.735
X54.155 Y75.272 Z-1.685
X54.171 Y75.374 Z-1.623
X54.186 Y75.468 Z-1.549
X54.199 Y75.552 Z-1.463
X54.211 Y75.626 Z-1.368
X54.221 Y75.687 Z-1.265
X54.229 Y75.736 Z-1.155
X54.234 Y75.772 Z-1.039
X54.238 Y75.793 Z-0.921
X54.239 Y75.8 Z-0.8
Z-0.2
X64.283 Y29.168
Z-1.4
X64.289 Y29.163 Z-1.521
X64.306 Y29.15 Z-1.639
X64.334 Y29.127 Z-1.755
X64.372 Y29.096 Z-1.865
X64.421 Y29.057 Z-1.968
X64.479 Y29.011 Z-2.063
X64.546 Y28.957 Z-2.149
X64.62 Y28.898 Z-2.223
X64.701 Y28.834 Z-2.285
X64.787 Y28.765 Z-2.335
X64.877 Y28.693 Z-2.371
X64.97 Y28.619 Z-2.393
X65.064 Y28.543 Z-2.4
G2 X67.93 Y24.542 I-5.661 J-7.082
G1 X67.936 Y24.527
G2 X68.583 Y22.889 I-42.454 J-17.727
G1 X68.602 Y22.857
X68.631 Y22.833
X68.667 Y22.82
X68.704 Y22.821
X68.739 Y22.834
X68.768 Y22.858
X68.787 Y22.89
X68.793 Y22.927
Y24.961
G3 X68.514 Y25.138 I-0.196 J0.
G1 X68.1 Y24.947
G3 X67.93 Y24.542 I0.134 J-0.295
G2 X67.175 Y23.962 I-0.47 J-0.17
G1 X64.722 Y25.667
G3 X63.985 Y25.042 I-0.285 J-0.411
G2 X68.133 Y6.8 I-38.865 J-18.429
G1 X68.127 Y-4.891
G2 X67.627 Y-5.391 I-0.5 J0.
G1 X65.227
G2 X64.727 Y-4.891 I0. J0.5
G1 X64.733 Y6.8
G3 X61.585 Y22.098 I-39.48 J-0.151
X60.849 Y22.32 I-0.46 J-0.196
G1 X58.843 Y20.997
G3 X58.656 Y20.39 I0.275 J-0.417
G2 X61.332 Y6.8 I-33.174 J-13.59
G1 X61.326 Y-4.891
G2 X60.826 Y-5.391 I-0.5 J0.
G1 X58.426
G2 X57.926 Y-4.891 I0. J0.5
G1 X57.932 Y6.8
G3 X55.246 Y19.726 I-32.45 J0.
X54.97 Y19.992 I-0.459 J-0.199
G1 X51.676 Y21.286
G3 X51.053 Y20.584 I-0.183 J-0.465
G2 X54.532 Y6.8 I-25.572 J-13.784
G1 X54.526 Y-4.891
G3 X55.027 Y-5.391 I0.5 J0.
G1 X71.694 Y-5.386
G3 X72.194 Y-4.886 I0. J0.5
G1 Y30.737
G3 X71.921 Y30.887 I-0.178 J0.
G2 X64.83 Y27.245 I-22.924 J35.913
X64.157 Y27.82 I-0.186 J0.464
G1 X64.808 Y30.704
G2 X65.09 Y31.049 I0.488 J-0.11
G3 X75.336 Y37.759 I-16.094 J35.751
G2 X75.594 Y37.645 I0.104 J-0.114
G1 Y-4.897
G3 X76.094 Y-5.397 I0.5 J0.
G1 X78.455 Y-5.399
G3 X78.955 Y-4.899 I0. J0.5
G1 X78.95 Y6.8
X78.994 Y46.83
X78.988 Y46.869
X78.969 Y46.905
X78.941 Y46.933
X78.905 Y46.95
X78.865 Y46.956
X78.825 Y46.948
X78.79 Y46.929
X78.763 Y46.9
G2 X64.121 Y34.323 I-29.883 J19.978
X63.534 Y34.444 I-0.212 J0.453
G1 X61.885 Y36.306
G2 X62.058 Y37.095 I0.374 J0.332
G3 X81.447 Y66.8 I-13.061 J29.705
G1 X81.443 Y74.189
Y74.194
G2 X81.917 Y74.673 I0.476 J0.003
X82.395 Y74.197 I0.002 J-0.476
G1 Y-4.889
G3 X82.893 Y-5.389 I0.5 J0.
G1 X85.293 Y-5.4
G3 X85.795 Y-4.9 I0.002 J0.5
G1 Y74.186
G2 X86.293 Y74.686 I0.5 J0.
G1 X88.65 Y74.697
G2 X89.152 Y74.197 I0.002 J-0.5
G1 X89.15 Y69.3
X89.17 Y-4.895
G3 X89.671 Y-5.395 I0.5 J0.
G1 X92.071 Y-5.39
G3 X92.57 Y-4.89 I-0.001 J0.5
G1 X92.55 Y69.3
X92.552 Y74.197
G2 X93.052 Y74.697 I0.5 J0.
G1 X95.452
G2 X95.952 Y74.197 I0. J-0.5
G1 X95.95 Y69.3
X95.969 Y-4.885
G3 X96.467 Y-5.385 I0.5 J0.
G1 X98.893 Y-5.396
G3 X99.395 Y-4.896 I0.002 J0.5
G1 Y74.19
G2 X99.894 Y74.69 I0.5 J0.
G1 X102.294 Y74.694
G2 X102.795 Y74.194 I0.001 J-0.5
G1 Y-4.891
G3 X103.296 Y-5.391 I0.5 J0.
G1 X105.696 Y-5.387
G3 X106.195 Y-4.887 I-0.001 J0.5
G1 Y74.199
G2 X106.695 Y74.699 I0.5 J0.
G1 X109.1 Y74.697
G2 X109.6 Y74.197 I0. J-0.5
G1 Y0.
Y-4.895
X109.608 Y-4.933
X109.63 Y-4.965
X109.663 Y-4.986
X109.701 Y-4.993
X109.739 Y-4.985
X109.771 Y-4.964
X109.792 Y-4.931
X109.8 Y-4.893
Y74.197
G3 X109.3 Y74.697 I-0.5 J0.
G1 X78.543 Y74.7
G3 X78.043 Y74.2 I0. J-0.5
G1 X78.047 Y66.8
G2 X58.403 Y39.315 I-29.05 J0.
G3 X58.599 Y38.343 I0.162 J-0.473
G1 X64.993 Y38.778
G3 X65.421 Y39.084 I-0.034 J0.499
G1 X77.988 Y69.176
G3 X77.975 Y69.59 I-0.461 J0.193
G1 X75.592 Y74.416
G3 X74.643 Y74.195 I-0.448 J-0.221
G1 X74.647 Y66.8
G2 X53.171 Y41.492 I-25.65 J0.
G3 X45.741 Y22.532 I1.929 J-11.692
G2 X51.132 Y6.8 I-20.259 J-15.732
G1 X51.127 Y-4.891
G2 X50.627 Y-5.391 I-0.5 J0.
G1 X48.227
G2 X47.727 Y-4.891 I0. J0.5
G1 X47.732 Y6.8
G3 X43.055 Y20.447 I-22.25 J0.
G2 X52.618 Y44.847 I12.045 J9.353
G3 X71.247 Y66.8 I-3.621 J21.953
G1 X71.243 Y74.19
G3 X70.743 Y74.69 I-0.5 J0.
G1 X68.343 Y74.686
G3 X67.844 Y74.185 I0.001 J-0.5
G1 X67.847 Y66.8
G2 X52.065 Y48.201 I-18.85 J0.
G3 X40.37 Y18.361 I3.035 J-18.401
G2 X44.332 Y6.8 I-14.888 J-11.561
G1 X44.327 Y-4.891
G2 X43.827 Y-5.391 I-0.5 J0.
G1 X41.427
G2 X40.927 Y-4.891 I0. J0.5
G1 X40.932 Y6.8
G3 X37.684 Y16.276 I-15.45 J0.
G2 X51.511 Y51.556 I17.416 J13.524
G3 X64.447 Y66.8 I-2.515 J15.244
G1 X64.444 Y74.196
G3 X63.943 Y74.696 I-0.5 J0.
G1 X61.543 Y74.692
G3 X61.044 Y74.191 I0.001 J-0.5
G1 X61.047 Y66.8
G2 X50.958 Y54.911 I-12.05 J0.
G3 X34.999 Y14.191 I4.142 J-25.111
G2 X37.532 Y6.8 I-9.517 J-7.391
G1 X37.527 Y-4.891
G2 X37.027 Y-5.391 I-0.5 J0.
G1 X34.627
G2 X34.127 Y-4.891 I0. J0.5
G1 X34.132 Y6.8
G3 X32.314 Y12.105 I-8.65 J0.
G2 X50.405 Y58.265 I22.786 J17.695
G3 X57.647 Y66.8 I-1.408 J8.535
G1 X57.644 Y74.187
G3 X57.146 Y74.687 I-0.5 J0.
G1 X54.699 Y74.695
G3 X54.197 Y74.195 I-0.002 J-0.5
G1 Y69.3
Y66.8
G2 X49.843 Y61.669 I-5.2 J0.
G3 X29.589 Y9.989 I5.257 J-31.869
G2 X30.682 Y6.8 I-4.107 J-3.189
G1 Y0.
Y-4.897
X30.674 Y-4.935
X30.652 Y-4.968
X30.62 Y-4.99
X30.582 Y-4.997
X30.543 Y-4.99
X30.511 Y-4.968
X30.489 Y-4.935
X30.482 Y-4.897
Y6.8
G3 X29.431 Y9.867 I-5. J0.
G2 X49.81 Y61.867 I25.669 J19.933
G3 X53.997 Y66.8 I-0.814 J4.933
G1 Y74.193
X54. Y74.272
X54.009 Y74.35
X54.082 Y74.813
X54.101 Y74.932 Z-2.393
X54.12 Y75.049 Z-2.371
X54.138 Y75.163 Z-2.335
X54.155 Y75.272 Z-2.285
X54.171 Y75.374 Z-2.223
X54.186 Y75.468 Z-2.149
X54.199 Y75.552 Z-2.063
X54.211 Y75.626 Z-1.968
X54.221 Y75.687 Z-1.865
X54.229 Y75.736 Z-1.755
X54.234 Y75.772 Z-1.639
X54.238 Y75.793 Z-1.521
X54.239 Y75.8 Z-1.4
Z-0.8
X64.283 Y29.168
Z-2.
X64.289 Y29.163 Z-2.121
X64.306 Y29.15 Z-2.239
X64.334 Y29.127 Z-2.355
X64.372 Y29.096 Z-2.465
X64.421 Y29.057 Z-2.568
X64.479 Y29.011 Z-2.663
X64.546 Y28.957 Z-2.749
X64.62 Y28.898 Z-2.823
X64.701 Y28.834 Z-2.885
X64.787 Y28.765 Z-2.935
X64.877 Y28.693 Z-2.971
X64.97 Y28.619 Z-2.993
X65.064 Y28.543 Z-3.
G2 X67.93 Y24.542 I-5.661 J-7.082
G1 X67.936 Y24.527
G2 X68.583 Y22.889 I-42.454 J-17.727
G1 X68.602 Y22.857
X68.631 Y22.833
X68.667 Y22.82
X68.704 Y22.821
X68.739 Y22.834
X68.768 Y22.858
X68.787 Y22.89
X68.793 Y22.927
Y24.961
G3 X68.514 Y25.138 I-0.196 J0.
G1 X68.1 Y24.947
G3 X67.93 Y24.542 I0.134 J-0.295
G2 X67.175 Y23.962 I-0.47 J-0.17
G1 X64.722 Y25.667
G3 X63.985 Y25.042 I-0.285 J-0.411
G2 X68.133 Y6.8 I-38.865 J-18.429
G1 X68.127 Y-4.891
G2 X67.627 Y-5.391 I-0.5 J0.
G1 X65.227
G2 X64.727 Y-4.891 I0. J0.5
G1 X64.733 Y6.8
G3 X61.585 Y22.098 I-39.48 J-0.151
X60.849 Y22.32 I-0.46 J-0.196
G1 X58.843 Y20.997
G3 X58.656 Y20.39 I0.275 J-0.417
G2 X61.332 Y6.8 I-33.174 J-13.59
G1 X61.326 Y-4.891
G2 X60.826 Y-5.391 I-0.5 J0.
G1 X58.426
G2 X57.926 Y-4.891 I0. J0.5
G1 X57.932 Y6.8
G3 X55.246 Y19.726 I-32.45 J0.
X54.97 Y19.992 I-0.459 J-0.199
G1 X51.676 Y21.286
G3 X51.053 Y20.584 I-0.183 J-0.465
G2 X54.532 Y6.8 I-25.572 J-13.784
G1 X54.526 Y-4.891
G3 X55.027 Y-5.391 I0.5 J0.
G1 X71.694 Y-5.386
G3 X72.194 Y-4.886 I0. J0.5
G1 Y30.737
G3 X71.921 Y30.887 I-0.178 J0.
G2 X64.83 Y27.245 I-22.924 J35.913
X64.157 Y27.82 I-0.186 J0.464
G1 X64.808 Y30.704
G2 X65.09 Y31.049 I0.488 J-0.11
G3 X75.336 Y37.759 I-16.094 J35.751
G2 X75.594 Y37.645 I0.104 J-0.114
G1 Y-4.897
G3 X76.094 Y-5.397 I0.5 J0.
G1 X78.455 Y-5.399
G3 X78.955 Y-4.899 I0. J0.5
G1 X78.95 Y6.8
X78.994 Y46.83
X78.988 Y46.869
X78.969 Y46.905
X78.941 Y46.933
X78.905 Y46.95
X78.865 Y46.956
X78.825 Y46.948
X78.79 Y46.929
X78.763 Y46.9
G2 X64.121 Y34.323 I-29.883 J19.978
X63.534 Y34.444 I-0.212 J0.453
G1 X61.885 Y36.306
G2 X62.058 Y37.095 I0.374 J0.332
G3 X81.447 Y66.8 I-13.061 J29.705
G1 X81.443 Y74.189
Y74.194
G2 X81.917 Y74.673 I0.476 J0.003
X82.395 Y74.197 I0.002 J-0.476
G1 Y-4.889
G3 X82.893 Y-5.389 I0.5 J0.
G1 X85.293 Y-5.4
G3 X85.795 Y-4.9 I0.002 J0.5
G1 Y74.186
G2 X86.293 Y74.686 I0.5 J0.
G1 X88.65 Y74.697
G2 X89.152 Y74.197 I0.002 J-0.5
G1 X89.15 Y69.3
X89.17 Y-4.895
G3 X89.671 Y-5.395 I0.5 J0.
G1 X92.071 Y-5.39
G3 X92.57 Y-4.89 I-0.001 J0.5
G1 X92.55 Y69.3
X92.552 Y74.197
G2 X93.052 Y74.697 I0.5 J0.
G1 X95.452
G2 X95.952 Y74.197 I0. J-0.5
G1 X95.95 Y69.3
X95.969 Y-4.885
G3 X96.467 Y-5.385 I0.5 J0.
G1 X98.893 Y-5.396
G3 X99.395 Y-4.896 I0.002 J0.5
G1 Y74.19
G2 X99.894 Y74.69 I0.5 J0.
G1 X102.294 Y74.694
G2 X102.795 Y74.194 I0.001 J-0.5
G1 Y-4.891
G3 X103.296 Y-5.391 I0.5 J0.
G1 X105.696 Y-5.387
G3 X106.195 Y-4.887 I-0.001 J0.5
G1 Y74.199
G2 X106.695 Y74.699 I0.5 J0.
G1 X109.1 Y74.697
G2 X109.6 Y74.197 I0. J-0.5
G1 Y0.
Y-4.895
X109.608 Y-4.933
X109.63 Y-4.965
X109.663 Y-4.986
X109.701 Y-4.993
X109.739 Y-4.985
X109.771 Y-4.964
X109.792 Y-4.931
X109.8 Y-4.893
Y74.197
G3 X109.3 Y74.697 I-0.5 J0.
G1 X78.543 Y74.7
G3 X78.043 Y74.2 I0. J-0.5
G1 X78.047 Y66.8
G2 X58.403 Y39.315 I-29.05 J0.
G3 X58.599 Y38.343 I0.162 J-0.473
G1 X64.993 Y38.778
G3 X65.421 Y39.084 I-0.034 J0.499
G1 X77.988 Y69.176
G3 X77.975 Y69.59 I-0.461 J0.193
G1 X75.592 Y74.416
G3 X74.643 Y74.195 I-0.448 J-0.221
G1 X74.647 Y66.8
G2 X53.171 Y41.492 I-25.65 J0.
G3 X45.741 Y22.532 I1.929 J-11.692
G2 X51.132 Y6.8 I-20.259 J-15.732
G1 X51.127 Y-4.891
G2 X50.627 Y-5.391 I-0.5 J0.
G1 X48.227
G2 X47.727 Y-4.891 I0. J0.5
G1 X47.732 Y6.8
G3 X43.055 Y20.447 I-22.25 J0.
G2 X52.618 Y44.847 I12.045 J9.353
G3 X71.247 Y66.8 I-3.621 J21.953
G1 X71.243 Y74.19
G3 X70.743 Y74.69 I-0.5 J0.
G1 X68.343 Y74.686
G3 X67.844 Y74.185 I0.001 J-0.5
G1 X67.847 Y66.8
G2 X52.065 Y48.201 I-18.85 J0.
G3 X40.37 Y18.361 I3.035 J-18.401
G2 X44.332 Y6.8 I-14.888 J-11.561
G1 X44.327 Y-4.891
G2 X43.827 Y-5.391 I-0.5 J0.
G1 X41.427
G2 X40.927 Y-4.891 I0. J0.5
G1 X40.932 Y6.8
G3 X37.684 Y16.276 I-15.45 J0.
G2 X51.511 Y51.556 I17.416 J13.524
G3 X64.447 Y66.8 I-2.515 J15.244
G1 X64.444 Y74.196
G3 X63.943 Y74.696 I-0.5 J0.
G1 X61.543 Y74.692
G3 X61.044 Y74.191 I0.001 J-0.5
G1 X61.047 Y66.8
G2 X50.958 Y54.911 I-12.05 J0.
G3 X34.999 Y14.191 I4.142 J-25.111
G2 X37.532 Y6.8 I-9.517 J-7.391
G1 X37.527 Y-4.891
G2 X37.027 Y-5.391 I-0.5 J0.
G1 X34.627
G2 X34.127 Y-4.891 I0. J0.5
G1 X34.132 Y6.8
G3 X32.314 Y12.105 I-8.65 J0.
G2 X50.405 Y58.265 I22.786 J17.695
G3 X57.647 Y66.8 I-1.408 J8.535
G1 X57.644 Y74.187
G3 X57.146 Y74.687 I-0.5 J0.
G1 X54.699 Y74.695
G3 X54.197 Y74.195 I-0.002 J-0.5
G1 Y69.3
Y66.8
G2 X49.843 Y61.669 I-5.2 J0.
G3 X29.589 Y9.989 I5.257 J-31.869
G2 X30.682 Y6.8 I-4.107 J-3.189
G1 Y0.
Y-4.897
X30.674 Y-4.935
X30.652 Y-4.968
X30.62 Y-4.99
X30.582 Y-4.997
X30.543 Y-4.99
X30.511 Y-4.968
X30.489 Y-4.935
X30.482 Y-4.897
Y6.8
G3 X29.431 Y9.867 I-5. J0.
G2 X49.81 Y61.867 I25.669 J19.933
G3 X53.997 Y66.8 I-0.814 J4.933
G1 Y74.193
X54. Y74.272
X54.009 Y74.35
X54.082 Y74.813
X54.101 Y74.932 Z-2.993
X54.12 Y75.049 Z-2.971
X54.138 Y75.163 Z-2.935
X54.155 Y75.272 Z-2.885
X54.171 Y75.374 Z-2.823
X54.186 Y75.468 Z-2.749
X54.199 Y75.552 Z-2.663
X54.211 Y75.626 Z-2.568
X54.221 Y75.687 Z-2.465
X54.229 Y75.736 Z-2.355
X54.234 Y75.772 Z-2.239
X54.238 Y75.793 Z-2.121
X54.239 Y75.8 Z-2.
Z-1.4
X64.283 Y29.168
Z-2.6
X64.289 Y29.163 Z-2.721
X64.306 Y29.15 Z-2.839
X64.334 Y29.127 Z-2.955
X64.372 Y29.096 Z-3.065
X64.421 Y29.057 Z-3.168
X64.479 Y29.011 Z-3.263
X64.546 Y28.957 Z-3.349
X64.62 Y28.898 Z-3.423
X64.701 Y28.834 Z-3.485
X64.787 Y28.765 Z-3.535
X64.877 Y28.693 Z-3.571
X64.97 Y28.619 Z-3.593
X65.064 Y28.543 Z-3.6
G2 X67.93 Y24.542 I-5.661 J-7.082
G1 X67.936 Y24.527
G2 X68.583 Y22.889 I-42.454 J-17.727
G1 X68.602 Y22.857
X68.631 Y22.833
X68.667 Y22.82
X68.704 Y22.821
X68.739 Y22.834
X68.768 Y22.858
X68.787 Y22.89
X68.793 Y22.927
Y24.961
G3 X68.514 Y25.138 I-0.196 J0.
G1 X68.1 Y24.947
G3 X67.93 Y24.542 I0.134 J-0.295
G2 X67.175 Y23.962 I-0.47 J-0.17
G1 X64.722 Y25.667
G3 X63.985 Y25.042 I-0.285 J-0.411
G2 X68.133 Y6.8 I-38.865 J-18.429
G1 X68.127 Y-4.891
G2 X67.627 Y-5.391 I-0.5 J0.
G1 X65.227
G2 X64.727 Y-4.891 I0. J0.5
G1 X64.733 Y6.8
G3 X61.585 Y22.098 I-39.48 J-0.151
X60.849 Y22.32 I-0.46 J-0.196
G1 X58.843 Y20.997
G3 X58.656 Y20.39 I0.275 J-0.417
G2 X61.332 Y6.8 I-33.174 J-13.59
G1 X61.326 Y-4.891
G2 X60.826 Y-5.391 I-0.5 J0.
G1 X58.426
G2 X57.926 Y-4.891 I0. J0.5
G1 X57.932 Y6.8
G3 X55.246 Y19.726 I-32.45 J0.
X54.97 Y19.992 I-0.459 J-0.199
G1 X51.676 Y21.286
G3 X51.053 Y20.584 I-0.183 J-0.465
G2 X54.532 Y6.8 I-25.572 J-13.784
G1 X54.526 Y-4.891
G3 X55.027 Y-5.391 I0.5 J0.
G1 X71.694 Y-5.386
G3 X72.194 Y-4.886 I0. J0.5
G1 Y30.737
G3 X71.921 Y30.887 I-0.178 J0.
G2 X64.83 Y27.245 I-22.924 J35.913
X64.157 Y27.82 I-0.186 J0.464
G1 X64.808 Y30.704
G2 X65.09 Y31.049 I0.488 J-0.11
G3 X75.336 Y37.759 I-16.094 J35.751
G2 X75.594 Y37.645 I0.104 J-0.114
G1 Y-4.897
G3 X76.094 Y-5.397 I0.5 J0.
G1 X78.455 Y-5.399
G3 X78.955 Y-4.899 I0. J0.5
G1 X78.95 Y6.8
X78.994 Y46.83
X78.988 Y46.869
X78.969 Y46.905
X78.941 Y46.933
X78.905 Y46.95
X78.865 Y46.956
X78.825 Y46.948
X78.79 Y46.929
X78.763 Y46.9
G2 X64.121 Y34.323 I-29.883 J19.978
X63.534 Y34.444 I-0.212 J0.453
G1 X61.885 Y36.306
G2 X62.058 Y37.095 I0.374 J0.332
G3 X81.447 Y66.8 I-13.061 J29.705
G1 X81.443 Y74.189
Y74.194
G2 X81.917 Y74.673 I0.476 J0.003
X82.395 Y74.197 I0.002 J-0.476
G1 Y-4.889
G3 X82.893 Y-5.389 I0.5 J0.
G1 X85.293 Y-5.4
G3 X85.795 Y-4.9 I0.002 J0.5
G1 Y74.186
G2 X86.293 Y74.686 I0.5 J0.
G1 X88.65 Y74.697
G2 X89.152 Y74.197 I0.002 J-0.5
G1 X89.15 Y69.3
X89.17 Y-4.895
G3 X89.671 Y-5.395 I0.5 J0.
G1 X92.071 Y-5.39
G3 X92.57 Y-4.89 I-0.001 J0.5
G1 X92.55 Y69.3
X92.552 Y74.197
G2 X93.052 Y74.697 I0.5 J0.
G1 X95.452
G2 X95.952 Y74.197 I0. J-0.5
G1 X95.95 Y69.3
X95.969 Y-4.885
G3 X96.467 Y-5.385 I0.5 J0.
G1 X98.893 Y-5.396
G3 X99.395 Y-4.896 I0.002 J0.5
G1 Y74.19
G2 X99.894 Y74.69 I0.5 J0.
G1 X102.294 Y74.694
G2 X102.795 Y74.194 I0.001 J-0.5
G1 Y-4.891
G3 X103.296 Y-5.391 I0.5 J0.
G1 X105.696 Y-5.387
G3 X106.195 Y-4.887 I-0.001 J0.5
G1 Y74.199
G2 X106.695 Y74.699 I0.5 J0.
G1 X109.1 Y74.697
G2 X109.6 Y74.197 I0. J-0.5
G1 Y0.
Y-4.895
X109.608 Y-4.933
X109.63 Y-4.965
X109.663 Y-4.986
X109.701 Y-4.993
X109.739 Y-4.985
X109.771 Y-4.964
X109.792 Y-4.931
X109.8 Y-4.893
Y74.197
G3 X109.3 Y74.697 I-0.5 J0.
G1 X78.543 Y74.7
G3 X78.043 Y74.2 I0. J-0.5
G1 X78.047 Y66.8
G2 X58.403 Y39.315 I-29.05 J0.
G3 X58.599 Y38.343 I0.162 J-0.473
G1 X64.993 Y38.778
G3 X65.421 Y39.084 I-0.034 J0.499
G1 X77.988 Y69.176
G3 X77.975 Y69.59 I-0.461 J0.193
G1 X75.592 Y74.416
G3 X74.643 Y74.195 I-0.448 J-0.221
G1 X74.647 Y66.8
G2 X53.171 Y41.492 I-25.65 J0.
G3 X45.741 Y22.532 I1.929 J-11.692
G2 X51.132 Y6.8 I-20.259 J-15.732
G1 X51.127 Y-4.891
G2 X50.627 Y-5.391 I-0.5 J0.
G1 X48.227
G2 X47.727 Y-4.891 I0. J0.5
G1 X47.732 Y6.8
G3 X43.055 Y20.447 I-22.25 J0.
G2 X52.618 Y44.847 I12.045 J9.353
G3 X71.247 Y66.8 I-3.621 J21.953
G1 X71.243 Y74.19
G3 X70.743 Y74.69 I-0.5 J0.
G1 X68.343 Y74.686
G3 X67.844 Y74.185 I0.001 J-0.5
G1 X67.847 Y66.8
G2 X52.065 Y48.201 I-18.85 J0.
G3 X40.37 Y18.361 I3.035 J-18.401
G2 X44.332 Y6.8 I-14.888 J-11.561
G1 X44.327 Y-4.891
G2 X43.827 Y-5.391 I-0.5 J0.
G1 X41.427
G2 X40.927 Y-4.891 I0. J0.5
G1 X40.932 Y6.8
G3 X37.684 Y16.276 I-15.45 J0.
G2 X51.511 Y51.556 I17.416 J13.524
G3 X64.447 Y66.8 I-2.515 J15.244
G1 X64.444 Y74.196
G3 X63.943 Y74.696 I-0.5 J0.
G1 X61.543 Y74.692
G3 X61.044 Y74.191 I0.001 J-0.5
G1 X61.047 Y66.8
G2 X50.958 Y54.911 I-12.05 J0.
G3 X34.999 Y14.191 I4.142 J-25.111
G2 X37.532 Y6.8 I-9.517 J-7.391
G1 X37.527 Y-4.891
G2 X37.027 Y-5.391 I-0.5 J0.
G1 X34.627
G2 X34.127 Y-4.891 I0. J0.5
G1 X34.132 Y6.8
G3 X32.314 Y12.105 I-8.65 J0.
G2 X50.405 Y58.265 I22.786 J17.695
G3 X57.647 Y66.8 I-1.408 J8.535
G1 X57.644 Y74.187
G3 X57.146 Y74.687 I-0.5 J0.
G1 X54.699 Y74.695
G3 X54.197 Y74.195 I-0.002 J-0.5
G1 Y69.3
Y66.8
G2 X49.843 Y61.669 I-5.2 J0.
G3 X29.589 Y9.989 I5.257 J-31.869
G2 X30.682 Y6.8 I-4.107 J-3.189
G1 Y0.
Y-4.897
X30.674 Y-4.935
X30.652 Y-4.968
X30.62 Y-4.99
X30.582 Y-4.997
X30.543 Y-4.99
X30.511 Y-4.968
X30.489 Y-4.935
X30.482 Y-4.897
Y6.8
G3 X29.431 Y9.867 I-5. J0.
G2 X49.81 Y61.867 I25.669 J19.933
G3 X53.997 Y66.8 I-0.814 J4.933
G1 Y74.193
X54. Y74.272
X54.009 Y74.35
X54.082 Y74.813
X54.101 Y74.932 Z-3.593
X54.12 Y75.049 Z-3.571
X54.138 Y75.163 Z-3.535
X54.155 Y75.272 Z-3.485
X54.171 Y75.374 Z-3.423
X54.186 Y75.468 Z-3.349
X54.199 Y75.552 Z-3.263
X54.211 Y75.626 Z-3.168
X54.221 Y75.687 Z-3.065
X54.229 Y75.736 Z-2.955
X54.234 Y75.772 Z-2.839
X54.238 Y75.793 Z-2.721
X54.239 Y75.8 Z-2.6
Z-2.
X64.283 Y29.168
Z-3.2
X64.289 Y29.163 Z-3.321
X64.306 Y29.15 Z-3.439
X64.334 Y29.127 Z-3.555
X64.372 Y29.096 Z-3.665
X64.421 Y29.057 Z-3.768
X64.479 Y29.011 Z-3.863
X64.546 Y28.957 Z-3.949
X64.62 Y28.898 Z-4.023
X64.701 Y28.834 Z-4.085
X64.787 Y28.765 Z-4.135
X64.877 Y28.693 Z-4.171
X64.97 Y28.619 Z-4.193
X65.064 Y28.543 Z-4.2
G2 X67.93 Y24.542 I-5.661 J-7.082
G1 X67.936 Y24.527
G2 X68.583 Y22.889 I-42.454 J-17.727
G1 X68.602 Y22.857
X68.631 Y22.833
X68.667 Y22.82
X68.704 Y22.821
X68.739 Y22.834
X68.768 Y22.858
X68.787 Y22.89
X68.793 Y22.927
Y24.961
G3 X68.514 Y25.138 I-0.196 J0.
G1 X68.1 Y24.947
G3 X67.93 Y24.542 I0.134 J-0.295
G2 X67.175 Y23.962 I-0.47 J-0.17
G1 X64.722 Y25.667
G3 X63.985 Y25.042 I-0.285 J-0.411
G2 X68.133 Y6.8 I-38.865 J-18.429
G1 X68.127 Y-4.891
G2 X67.627 Y-5.391 I-0.5 J0.
G1 X65.227
G2 X64.727 Y-4.891 I0. J0.5
G1 X64.733 Y6.8
G3 X61.585 Y22.098 I-39.48 J-0.151
X60.849 Y22.32 I-0.46 J-0.196
G1 X58.843 Y20.997
G3 X58.656 Y20.39 I0.275 J-0.417
G2 X61.332 Y6.8 I-33.174 J-13.59
G1 X61.326 Y-4.891
G2 X60.826 Y-5.391 I-0.5 J0.
G1 X58.426
G2 X57.926 Y-4.891 I0. J0.5
G1 X57.932 Y6.8
G3 X55.246 Y19.726 I-32.45 J0.
X54.97 Y19.992 I-0.459 J-0.199
G1 X51.676 Y21.286
G3 X51.053 Y20.584 I-0.183 J-0.465
G2 X54.532 Y6.8 I-25.572 J-13.784
G1 X54.526 Y-4.891
G3 X55.027 Y-5.391 I0.5 J0.
G1 X71.694 Y-5.386
G3 X72.194 Y-4.886 I0. J0.5
G1 Y30.737
G3 X71.921 Y30.887 I-0.178 J0.
G2 X64.83 Y27.245 I-22.924 J35.913
X64.157 Y27.82 I-0.186 J0.464
G1 X64.808 Y30.704
G2 X65.09 Y31.049 I0.488 J-0.11
G3 X75.336 Y37.759 I-16.094 J35.751
G2 X75.594 Y37.645 I0.104 J-0.114
G1 Y-4.897
G3 X76.094 Y-5.397 I0.5 J0.
G1 X78.455 Y-5.399
G3 X78.955 Y-4.899 I0. J0.5
G1 X78.95 Y6.8
X78.994 Y46.83
X78.988 Y46.869
X78.969 Y46.905
X78.941 Y46.933
X78.905 Y46.95
X78.865 Y46.956
X78.825 Y46.948
X78.79 Y46.929
X78.763 Y46.9
G2 X64.121 Y34.323 I-29.883 J19.978
X63.534 Y34.444 I-0.212 J0.453
G1 X61.885 Y36.306
G2 X62.058 Y37.095 I0.374 J0.332
G3 X81.447 Y66.8 I-13.061 J29.705
G1 X81.443 Y74.189
Y74.194
G2 X81.917 Y74.673 I0.476 J0.003
X82.395 Y74.197 I0.002 J-0.476
G1 Y-4.889
G3 X82.893 Y-5.389 I0.5 J0.
G1 X85.293 Y-5.4
G3 X85.795 Y-4.9 I0.002 J0.5
G1 Y74.186
G2 X86.293 Y74.686 I0.5 J0.
G1 X88.65 Y74.697
G2 X89.152 Y74.197 I0.002 J-0.5
G1 X89.15 Y69.3
X89.17 Y-4.895
G3 X89.671 Y-5.395 I0.5 J0.
G1 X92.071 Y-5.39
G3 X92.57 Y-4.89 I-0.001 J0.5
G1 X92.55 Y69.3
X92.552 Y74.197
G2 X93.052 Y74.697 I0.5 J0.
G1 X95.452
G2 X95.952 Y74.197 I0. J-0.5
G1 X95.95 Y69.3
X95.969 Y-4.885
G3 X96.467 Y-5.385 I0.5 J0.
G1 X98.893 Y-5.396
G3 X99.395 Y-4.896 I0.002 J0.5
G1 Y74.19
G2 X99.894 Y74.69 I0.5 J0.
G1 X102.294 Y74.694
G2 X102.795 Y74.194 I0.001 J-0.5
G1 Y-4.891
G3 X103.296 Y-5.391 I0.5 J0.
G1 X105.696 Y-5.387
G3 X106.195 Y-4.887 I-0.001 J0.5
G1 Y74.199
G2 X106.695 Y74.699 I0.5 J0.
G1 X109.1 Y74.697
G2 X109.6 Y74.197 I0. J-0.5
G1 Y0.
Y-4.895
X109.608 Y-4.933
X109.63 Y-4.965
X109.663 Y-4.986
X109.701 Y-4.993
X109.739 Y-4.985
X109.771 Y-4.964
X109.792 Y-4.931
X109.8 Y-4.893
Y74.197
G3 X109.3 Y74.697 I-0.5 J0.
G1 X78.543 Y74.7
G3 X78.043 Y74.2 I0. J-0.5
G1 X78.047 Y66.8
G2 X58.403 Y39.315 I-29.05 J0.
G3 X58.599 Y38.343 I0.162 J-0.473
G1 X64.993 Y38.778
G3 X65.421 Y39.084 I-0.034 J0.499
G1 X77.988 Y69.176
G3 X77.975 Y69.59 I-0.461 J0.193
G1 X75.592 Y74.416
G3 X74.643 Y74.195 I-0.448 J-0.221
G1 X74.647 Y66.8
G2 X53.171 Y41.492 I-25.65 J0.
G3 X45.741 Y22.532 I1.929 J-11.692
G2 X51.132 Y6.8 I-20.259 J-15.732
G1 X51.127 Y-4.891
G2 X50.627 Y-5.391 I-0.5 J0.
G1 X48.227
G2 X47.727 Y-4.891 I0. J0.5
G1 X47.732 Y6.8
G3 X43.055 Y20.447 I-22.25 J0.
G2 X52.618 Y44.847 I12.045 J9.353
G3 X71.247 Y66.8 I-3.621 J21.953
G1 X71.243 Y74.19
G3 X70.743 Y74.69 I-0.5 J0.
G1 X68.343 Y74.686
G3 X67.844 Y74.185 I0.001 J-0.5
G1 X67.847 Y66.8
G2 X52.065 Y48.201 I-18.85 J0.
G3 X40.37 Y18.361 I3.035 J-18.401
G2 X44.332 Y6.8 I-14.888 J-11.561
G1 X44.327 Y-4.891
G2 X43.827 Y-5.391 I-0.5 J0.
G1 X41.427
G2 X40.927 Y-4.891 I0. J0.5
G1 X40.932 Y6.8
G3 X37.684 Y16.276 I-15.45 J0.
G2 X51.511 Y51.556 I17.416 J13.524
G3 X64.447 Y66.8 I-2.515 J15.244
G1 X64.444 Y74.196
G3 X63.943 Y74.696 I-0.5 J0.
G1 X61.543 Y74.692
G3 X61.044 Y74.191 I0.001 J-0.5
G1 X61.047 Y66.8
G2 X50.958 Y54.911 I-12.05 J0.
G3 X34.999 Y14.191 I4.142 J-25.111
G2 X37.532 Y6.8 I-9.517 J-7.391
G1 X37.527 Y-4.891
G2 X37.027 Y-5.391 I-0.5 J0.
G1 X34.627
G2 X34.127 Y-4.891 I0. J0.5
G1 X34.132 Y6.8
G3 X32.314 Y12.105 I-8.65 J0.
G2 X50.405 Y58.265 I22.786 J17.695
G3 X57.647 Y66.8 I-1.408 J8.535
G1 X57.644 Y74.187
G3 X57.146 Y74.687 I-0.5 J0.
G1 X54.699 Y74.695
G3 X54.197 Y74.195 I-0.002 J-0.5
G1 Y69.3
Y66.8
G2 X49.843 Y61.669 I-5.2 J0.
G3 X29.589 Y9.989 I5.257 J-31.869
G2 X30.682 Y6.8 I-4.107 J-3.189
G1 Y0.
Y-4.897
X30.674 Y-4.935
X30.652 Y-4.968
X30.62 Y-4.99
X30.582 Y-4.997
X30.543 Y-4.99
X30.511 Y-4.968
X30.489 Y-4.935
X30.482 Y-4.897
Y6.8
G3 X29.431 Y9.867 I-5. J0.
G2 X49.81 Y61.867 I25.669 J19.933
G3 X53.997 Y66.8 I-0.814 J4.933
G1 Y74.193
X54. Y74.272
X54.009 Y74.35
X54.082 Y74.813
X54.101 Y74.932 Z-4.193
X54.12 Y75.049 Z-4.171
X54.138 Y75.163 Z-4.135
X54.155 Y75.272 Z-4.085
X54.171 Y75.374 Z-4.023
X54.186 Y75.468 Z-3.949
X54.199 Y75.552 Z-3.863
X54.211 Y75.626 Z-3.768
X54.221 Y75.687 Z-3.665
X54.229 Y75.736 Z-3.555
X54.234 Y75.772 Z-3.439
X54.238 Y75.793 Z-3.321
X54.239 Y75.8 Z-3.2
Z-2.6
X64.283 Y29.168
Z-3.8
X64.289 Y29.163 Z-3.921
X64.306 Y29.15 Z-4.039
X64.334 Y29.127 Z-4.155
X64.372 Y29.096 Z-4.265
X64.421 Y29.057 Z-4.368
X64.479 Y29.011 Z-4.463
X64.546 Y28.957 Z-4.549
X64.62 Y28.898 Z-4.623
X64.701 Y28.834 Z-4.685
X64.787 Y28.765 Z-4.735
X64.877 Y28.693 Z-4.771
X64.97 Y28.619 Z-4.793
X65.064 Y28.543 Z-4.8
G2 X67.93 Y24.542 I-5.661 J-7.082
G1 X67.936 Y24.527
G2 X68.583 Y22.889 I-42.454 J-17.727
G1 X68.602 Y22.857
X68.631 Y22.833
X68.667 Y22.82
X68.704 Y22.821
X68.739 Y22.834
X68.768 Y22.858
X68.787 Y22.89
X68.793 Y22.927
Y24.961
G3 X68.514 Y25.138 I-0.196 J0.
G1 X68.1 Y24.947
G3 X67.93 Y24.542 I0.134 J-0.295
G2 X67.175 Y23.962 I-0.47 J-0.17
G1 X64.722 Y25.667
G3 X63.985 Y25.042 I-0.285 J-0.411
G2 X68.133 Y6.8 I-38.865 J-18.429
G1 X68.127 Y-4.891
G2 X67.627 Y-5.391 I-0.5 J0.
G1 X65.227
G2 X64.727 Y-4.891 I0. J0.5
G1 X64.733 Y6.8
G3 X61.585 Y22.098 I-39.48 J-0.151
X60.849 Y22.32 I-0.46 J-0.196
G1 X58.843 Y20.997
G3 X58.656 Y20.39 I0.275 J-0.417
G2 X61.332 Y6.8 I-33.174 J-13.59
G1 X61.326 Y-4.891
G2 X60.826 Y-5.391 I-0.5 J0.
G1 X58.426
G2 X57.926 Y-4.891 I0. J0.5
G1 X57.932 Y6.8
G3 X55.246 Y19.726 I-32.45 J0.
X54.97 Y19.992 I-0.459 J-0.199
G1 X51.676 Y21.286
G3 X51.053 Y20.584 I-0.183 J-0.465
G2 X54.532 Y6.8 I-25.572 J-13.784
G1 X54.526 Y-4.891
G3 X55.027 Y-5.391 I0.5 J0.
G1 X71.694 Y-5.386
G3 X72.194 Y-4.886 I0. J0.5
G1 Y30.737
G3 X71.921 Y30.887 I-0.178 J0.
G2 X64.83 Y27.245 I-22.924 J35.913
X64.157 Y27.82 I-0.186 J0.464
G1 X64.808 Y30.704
G2 X65.09 Y31.049 I0.488 J-0.11
G3 X75.336 Y37.759 I-16.094 J35.751
G2 X75.594 Y37.645 I0.104 J-0.114
G1 Y-4.897
G3 X76.094 Y-5.397 I0.5 J0.
G1 X78.455 Y-5.399
G3 X78.955 Y-4.899 I0. J0.5
G1 X78.95 Y6.8
X78.994 Y46.83
X78.988 Y46.869
X78.969 Y46.905
X78.941 Y46.933
X78.905 Y46.95
X78.865 Y46.956
X78.825 Y46.948
X78.79 Y46.929
X78.763 Y46.9
G2 X64.121 Y34.323 I-29.883 J19.978
X63.534 Y34.444 I-0.212 J0.453
G1 X61.885 Y36.306
G2 X62.058 Y37.095 I0.374 J0.332
G3 X81.447 Y66.8 I-13.061 J29.705
G1 X81.443 Y74.189
Y74.194
G2 X81.917 Y74.673 I0.476 J0.003
X82.395 Y74.197 I0.002 J-0.476
G1 Y-4.889
G3 X82.893 Y-5.389 I0.5 J0.
G1 X85.293 Y-5.4
G3 X85.795 Y-4.9 I0.002 J0.5
G1 Y74.186
G2 X86.293 Y74.686 I0.5 J0.
G1 X88.65 Y74.697
G2 X89.152 Y74.197 I0.002 J-0.5
G1 X89.15 Y69.3
X89.17 Y-4.895
G3 X89.671 Y-5.395 I0.5 J0.
G1 X92.071 Y-5.39
G3 X92.57 Y-4.89 I-0.001 J0.5
G1 X92.55 Y69.3
X92.552 Y74.197
G2 X93.052 Y74.697 I0.5 J0.
G1 X95.452
G2 X95.952 Y74.197 I0. J-0.5
G1 X95.95 Y69.3
X95.969 Y-4.885
G3 X96.467 Y-5.385 I0.5 J0.
G1 X98.893 Y-5.396
G3 X99.395 Y-4.896 I0.002 J0.5
G1 Y74.19
G2 X99.894 Y74.69 I0.5 J0.
G1 X102.294 Y74.694
G2 X102.795 Y74.194 I0.001 J-0.5
G1 Y-4.891
G3 X103.296 Y-5.391 I0.5 J0.
G1 X105.696 Y-5.387
G3 X106.195 Y-4.887 I-0.001 J0.5
G1 Y74.199
G2 X106.695 Y74.699 I0.5 J0.
G1 X109.1 Y74.697
G2 X109.6 Y74.197 I0. J-0.5
G1 Y0.
Y-4.895
X109.608 Y-4.933
X109.63 Y-4.965
X109.663 Y-4.986
X109.701 Y-4.993
X109.739 Y-4.985
X109.771 Y-4.964
X109.792 Y-4.931
X109.8 Y-4.893
Y74.197
G3 X109.3 Y74.697 I-0.5 J0.
G1 X78.543 Y74.7
G3 X78.043 Y74.2 I0. J-0.5
G1 X78.047 Y66.8
G2 X58.403 Y39.315 I-29.05 J0.
G3 X58.599 Y38.343 I0.162 J-0.473
G1 X64.993 Y38.778
G3 X65.421 Y39.084 I-0.034 J0.499
G1 X77.988 Y69.176
G3 X77.975 Y69.59 I-0.461 J0.193
G1 X75.592 Y74.416
G3 X74.643 Y74.195 I-0.448 J-0.221
G1 X74.647 Y66.8
G2 X53.171 Y41.492 I-25.65 J0.
G3 X45.741 Y22.532 I1.929 J-11.692
G2 X51.132 Y6.8 I-20.259 J-15.732
G1 X51.127 Y-4.891
G2 X50.627 Y-5.391 I-0.5 J0.
G1 X48.227
G2 X47.727 Y-4.891 I0. J0.5
G1 X47.732 Y6.8
G3 X43.055 Y20.447 I-22.25 J0.
G2 X52.618 Y44.847 I12.045 J9.353
G3 X71.247 Y66.8 I-3.621 J21.953
G1 X71.243 Y74.19
G3 X70.743 Y74.69 I-0.5 J0.
G1 X68.343 Y74.686
G3 X67.844 Y74.185 I0.001 J-0.5
G1 X67.847 Y66.8
G2 X52.065 Y48.201 I-18.85 J0.
G3 X40.37 Y18.361 I3.035 J-18.401
G2 X44.332 Y6.8 I-14.888 J-11.561
G1 X44.327 Y-4.891
G2 X43.827 Y-5.391 I-0.5 J0.
G1 X41.427
G2 X40.927 Y-4.891 I0. J0.5
G1 X40.932 Y6.8
G3 X37.684 Y16.276 I-15.45 J0.
G2 X51.511 Y51.556 I17.416 J13.524
G3 X64.447 Y66.8 I-2.515 J15.244
G1 X64.444 Y74.196
G3 X63.943 Y74.696 I-0.5 J0.
G1 X61.543 Y74.692
G3 X61.044 Y74.191 I0.001 J-0.5
G1 X61.047 Y66.8
G2 X50.958 Y54.911 I-12.05 J0.
G3 X34.999 Y14.191 I4.142 J-25.111
G2 X37.532 Y6.8 I-9.517 J-7.391
G1 X37.527 Y-4.891
G2 X37.027 Y-5.391 I-0.5 J0.
G1 X34.627
G2 X34.127 Y-4.891 I0. J0.5
G1 X34.132 Y6.8
G3 X32.314 Y12.105 I-8.65 J0.
G2 X50.405 Y58.265 I22.786 J17.695
G3 X57.647 Y66.8 I-1.408 J8.535
G1 X57.644 Y74.187
G3 X57.146 Y74.687 I-0.5 J0.
G1 X54.699 Y74.695
G3 X54.197 Y74.195 I-0.002 J-0.5
G1 Y69.3
Y66.8
G2 X49.843 Y61.669 I-5.2 J0.
G3 X29.589 Y9.989 I5.257 J-31.869
G2 X30.682 Y6.8 I-4.107 J-3.189
G1 Y0.
Y-4.897
X30.674 Y-4.935
X30.652 Y-4.968
X30.62 Y-4.99
X30.582 Y-4.997
X30.543 Y-4.99
X30.511 Y-4.968
X30.489 Y-4.935
X30.482 Y-4.897
Y6.8
G3 X29.431 Y9.867 I-5. J0.
G2 X49.81 Y61.867 I25.669 J19.933
G3 X53.997 Y66.8 I-0.814 J4.933
G1 Y74.193
X54. Y74.272
X54.009 Y74.35
X54.082 Y74.813
X54.101 Y74.932 Z-4.793
X54.12 Y75.049 Z-4.771
X54.138 Y75.163 Z-4.735
X54.155 Y75.272 Z-4.685
X54.171 Y75.374 Z-4.623
X54.186 Y75.468 Z-4.549
X54.199 Y75.552 Z-4.463
X54.211 Y75.626 Z-4.368
X54.221 Y75.687 Z-4.265
X54.229 Y75.736 Z-4.155
X54.234 Y75.772 Z-4.039
X54.238 Y75.793 Z-3.921
X54.239 Y75.8 Z-3.8
Z-3.2
X64.283 Y29.168
Z-4.
X64.289 Y29.163 Z-4.121
X64.306 Y29.15 Z-4.239
X64.334 Y29.127 Z-4.355
X64.372 Y29.096 Z-4.465
X64.421 Y29.057 Z-4.568
X64.479 Y29.011 Z-4.663
X64.546 Y28.957 Z-4.749
X64.62 Y28.898 Z-4.823
X64.701 Y28.834 Z-4.885
X64.787 Y28.765 Z-4.935
X64.877 Y28.693 Z-4.971
X64.97 Y28.619 Z-4.993
X65.064 Y28.543 Z-5.
G2 X67.93 Y24.542 I-5.661 J-7.082
G1 X67.936 Y24.527
G2 X68.583 Y22.889 I-42.454 J-17.727
G1 X68.602 Y22.857
X68.631 Y22.833
X68.667 Y22.82
X68.704 Y22.821
X68.739 Y22.834
X68.768 Y22.858
X68.787 Y22.89
X68.793 Y22.927
Y24.961
G3 X68.514 Y25.138 I-0.196 J0.
G1 X68.1 Y24.947
G3 X67.93 Y24.542 I0.134 J-0.295
G2 X67.175 Y23.962 I-0.47 J-0.17
G1 X64.722 Y25.667
G3 X63.985 Y25.042 I-0.285 J-0.411
G2 X68.133 Y6.8 I-38.865 J-18.429
G1 X68.127 Y-4.891
G2 X67.627 Y-5.391 I-0.5 J0.
G1 X65.227
G2 X64.727 Y-4.891 I0. J0.5
G1 X64.733 Y6.8
G3 X61.585 Y22.098 I-39.48 J-0.151
X60.849 Y22.32 I-0.46 J-0.196
G1 X58.843 Y20.997
G3 X58.656 Y20.39 I0.275 J-0.417
G2 X61.332 Y6.8 I-33.174 J-13.59
G1 X61.326 Y-4.891
G2 X60.826 Y-5.391 I-0.5 J0.
G1 X58.426
G2 X57.926 Y-4.891 I0. J0.5
G1 X57.932 Y6.8
G3 X55.246 Y19.726 I-32.45 J0.
X54.97 Y19.992 I-0.459 J-0.199
G1 X51.676 Y21.286
G3 X51.053 Y20.584 I-0.183 J-0.465
G2 X54.532 Y6.8 I-25.572 J-13.784
G1 X54.526 Y-4.891
G3 X55.027 Y-5.391 I0.5 J0.
G1 X71.694 Y-5.386
G3 X72.194 Y-4.886 I0. J0.5
G1 Y30.737
G3 X71.921 Y30.887 I-0.178 J0.
G2 X64.83 Y27.245 I-22.924 J35.913
X64.157 Y27.82 I-0.186 J0.464
G1 X64.808 Y30.704
G2 X65.09 Y31.049 I0.488 J-0.11
G3 X75.336 Y37.759 I-16.094 J35.751
G2 X75.594 Y37.645 I0.104 J-0.114
G1 Y-4.897
G3 X76.094 Y-5.397 I0.5 J0.
G1 X78.455 Y-5.399
G3 X78.955 Y-4.899 I0. J0.5
G1 X78.95 Y6.8
X78.994 Y46.83
X78.988 Y46.869
X78.969 Y46.905
X78.941 Y46.933
X78.905 Y46.95
X78.865 Y46.956
X78.825 Y46.948
X78.79 Y46.929
X78.763 Y46.9
G2 X64.121 Y34.323 I-29.883 J19.978
X63.534 Y34.444 I-0.212 J0.453
G1 X61.885 Y36.306
G2 X62.058 Y37.095 I0.374 J0.332
G3 X81.447 Y66.8 I-13.061 J29.705
G1 X81.443 Y74.189
Y74.194
G2 X81.917 Y74.673 I0.476 J0.003
X82.395 Y74.197 I0.002 J-0.476
G1 Y-4.889
G3 X82.893 Y-5.389 I0.5 J0.
G1 X85.293 Y-5.4
G3 X85.795 Y-4.9 I0.002 J0.5
G1 Y74.186
G2 X86.293 Y74.686 I0.5 J0.
G1 X88.65 Y74.697
G2 X89.152 Y74.197 I0.002 J-0.5
G1 X89.15 Y69.3
X89.17 Y-4.895
G3 X89.671 Y-5.395 I0.5 J0.
G1 X92.071 Y-5.39
G3 X92.57 Y-4.89 I-0.001 J0.5
G1 X92.55 Y69.3
X92.552 Y74.197
G2 X93.052 Y74.697 I0.5 J0.
G1 X95.452
G2 X95.952 Y74.197 I0. J-0.5
G1 X95.95 Y69.3
X95.969 Y-4.885
G3 X96.467 Y-5.385 I0.5 J0.
G1 X98.893 Y-5.396
G3 X99.395 Y-4.896 I0.002 J0.5
G1 Y74.19
G2 X99.894 Y74.69 I0.5 J0.
G1 X102.294 Y74.694
G2 X102.795 Y74.194 I0.001 J-0.5
G1 Y-4.891
G3 X103.296 Y-5.391 I0.5 J0.
G1 X105.696 Y-5.387
G3 X106.195 Y-4.887 I-0.001 J0.5
G1 Y74.199
G2 X106.695 Y74.699 I0.5 J0.
G1 X109.1 Y74.697
G2 X109.6 Y74.197 I0. J-0.5
G1 Y0.
Y-4.895
X109.608 Y-4.933
X109.63 Y-4.965
X109.663 Y-4.986
X109.701 Y-4.993
X109.739 Y-4.985
X109.771 Y-4.964
X109.792 Y-4.931
X109.8 Y-4.893
Y74.197
G3 X109.3 Y74.697 I-0.5 J0.
G1 X78.543 Y74.7
G3 X78.043 Y74.2 I0. J-0.5
G1 X78.047 Y66.8
G2 X58.403 Y39.315 I-29.05 J0.
G3 X58.599 Y38.343 I0.162 J-0.473
G1 X64.993 Y38.778
G3 X65.421 Y39.084 I-0.034 J0.499
G1 X77.988 Y69.176
G3 X77.975 Y69.59 I-0.461 J0.193
G1 X75.592 Y74.416
G3 X74.643 Y74.195 I-0.448 J-0.221
G1 X74.647 Y66.8
G2 X53.171 Y41.492 I-25.65 J0.
G3 X45.741 Y22.532 I1.929 J-11.692
G2 X51.132 Y6.8 I-20.259 J-15.732
G1 X51.127 Y-4.891
G2 X50.627 Y-5.391 I-0.5 J0.
G1 X48.227
G2 X47.727 Y-4.891 I0. J0.5
G1 X47.732 Y6.8
G3 X43.055 Y20.447 I-22.25 J0.
G2 X52.618 Y44.847 I12.045 J9.353
G3 X71.247 Y66.8 I-3.621 J21.953
G1 X71.243 Y74.19
G3 X70.743 Y74.69 I-0.5 J0.
G1 X68.343 Y74.686
G3 X67.844 Y74.185 I0.001 J-0.5
G1 X67.847 Y66.8
G2 X52.065 Y48.201 I-18.85 J0.
G3 X40.37 Y18.361 I3.035 J-18.401
G2 X44.332 Y6.8 I-14.888 J-11.561
G1 X44.327 Y-4.891
G2 X43.827 Y-5.391 I-0.5 J0.
G1 X41.427
G2 X40.927 Y-4.891 I0. J0.5
G1 X40.932 Y6.8
G3 X37.684 Y16.276 I-15.45 J0.
G2 X51.511 Y51.556 I17.416 J13.524
G3 X64.447 Y66.8 I-2.515 J15.244
G1 X64.444 Y74.196
G3 X63.943 Y74.696 I-0.5 J0.
G1 X61.543 Y74.692
G3 X61.044 Y74.191 I0.001 J-0.5
G1 X61.047 Y66.8
G2 X50.958 Y54.911 I-12.05 J0.
G3 X34.999 Y14.191 I4.142 J-25.111
G2 X37.532 Y6.8 I-9.517 J-7.391
G1 X37.527 Y-4.891
G2 X37.027 Y-5.391 I-0.5 J0.
G1 X34.627
G2 X34.127 Y-4.891 I0. J0.5
G1 X34.132 Y6.8
G3 X32.314 Y12.105 I-8.65 J0.
G2 X50.405 Y58.265 I22.786 J17.695
G3 X57.647 Y66.8 I-1.408 J8.535
G1 X57.644 Y74.187
G3 X57.146 Y74.687 I-0.5 J0.
G1 X54.699 Y74.695
G3 X54.197 Y74.195 I-0.002 J-0.5
G1 Y69.3
Y66.8
G2 X49.843 Y61.669 I-5.2 J0.
G3 X29.589 Y9.989 I5.257 J-31.869
G2 X30.682 Y6.8 I-4.107 J-3.189
G1 Y0.
Y-4.897
X30.674 Y-4.935
X30.652 Y-4.968
X30.62 Y-4.99
X30.582 Y-4.997
X30.543 Y-4.99
X30.511 Y-4.968
X30.489 Y-4.935
X30.482 Y-4.897
Y6.8
G3 X29.431 Y9.867 I-5. J0.
G2 X49.81 Y61.867 I25.669 J19.933
G3 X53.997 Y66.8 I-0.814 J4.933
G1 Y74.193
X54. Y74.272
X54.009 Y74.35
X54.082 Y74.813
X54.101 Y74.932 Z-4.993
X54.12 Y75.049 Z-4.971
X54.138 Y75.163 Z-4.935
X54.155 Y75.272 Z-4.885
X54.171 Y75.374 Z-4.823
X54.186 Y75.468 Z-4.749
X54.199 Y75.552 Z-4.663
X54.211 Y75.626 Z-4.568
X54.221 Y75.687 Z-4.465
X54.229 Y75.736 Z-4.355
X54.234 Y75.772 Z-4.239
X54.238 Y75.793 Z-4.121
X54.239 Y75.8 Z-4.
G0 Z10.

M9
M30
